;FLAVOR:Marlin
;TIME:7972
;Filament used: 4.8844m
;Layer height: 0.2
;MINX:88
;MINY:64
;MINZ:0.2
;MAXX:147
;MAXY:171
;MAXZ:17.8
;Generated with Cura_SteamEngine 5.2.1
M140 S60
M105
M190 S60
M104 S210
M105
M109 S210
M82 ;absolute extrusion mode
; Ender 3 Custom Start G-code
G92 E0 ; Reset Extruder
G28 ; Home all axes
G1 Z2.0 F3000 ; Move Z Axis up little to prevent scratching of Heat Bed
G1 X0.1 Y20 Z0.3 F5000.0 ; Move to start position
G1 X0.1 Y200.0 Z0.3 F1500.0 E15 ; Draw the first line
G1 X0.4 Y200.0 Z0.3 F5000.0 ; Move to side a little
G1 X0.4 Y20 Z0.3 F1500.0 E30 ; Draw the second line
G92 E0 ; Reset Extruder
G1 Z2.0 F3000 ; Move Z Axis up little to prevent scratching of Heat Bed
G1 X5 Y20 Z0.3 F5000.0 ; Move over to prevent blob squish
G92 E0
G92 E0
G1 F2700 E-5
;LAYER_COUNT:89
;LAYER:0
M107
G0 F6000 X89.996 Y68.703 Z0.2
;TYPE:SKIRT
G1 F2700 E0
G1 F1200 X90.566 Y67.958 E0.0312
G1 X91.198 Y67.264 E0.06242
G1 X91.886 Y66.627 E0.0936
G1 X92.626 Y66.051 E0.12479
G1 X93.412 Y65.539 E0.15599
G1 X94.239 Y65.097 E0.18718
G1 X95.101 Y64.727 E0.21838
G1 X95.991 Y64.431 E0.24958
G1 X96.903 Y64.213 E0.28077
G1 X97.83 Y64.072 E0.31195
G1 X98.701 Y64.013 E0.34099
G1 X99.33 Y64 E0.36191
G1 X135.451 Y64.001 E1.5633
G1 X136.149 Y64.011 E1.58652
G1 X137.085 Y64.065 E1.6177
G1 X138.013 Y64.197 E1.64888
G1 X138.927 Y64.409 E1.68009
G1 X139.819 Y64.698 E1.71127
G1 X140.684 Y65.061 E1.74247
G1 X141.514 Y65.497 E1.77366
G1 X142.305 Y66.002 E1.80487
G1 X143.049 Y66.573 E1.83606
G1 X143.742 Y67.205 E1.86726
G1 X144.379 Y67.893 E1.89844
G1 X144.954 Y68.634 E1.92964
G1 X145.465 Y69.42 E1.96082
G1 X145.907 Y70.248 E1.99204
G1 X146.276 Y71.11 E2.02322
G1 X146.571 Y72 E2.05441
G1 X146.789 Y72.912 E2.0856
G1 X146.929 Y73.84 E2.11681
G1 X146.987 Y74.701 E2.14551
G1 X147 Y75.33 E2.16644
G1 X146.999 Y159.4 E4.96262
G1 X146.99 Y160.127 E4.9868
G1 X146.939 Y161.064 E5.01801
G1 X146.807 Y161.992 E5.04919
G1 X146.598 Y162.906 E5.08037
G1 X146.311 Y163.799 E5.11157
G1 X145.949 Y164.665 E5.14279
G1 X145.515 Y165.496 E5.17397
G1 X145.011 Y166.287 E5.20516
G1 X144.442 Y167.032 E5.23634
G1 X143.811 Y167.727 E5.26757
G1 X143.124 Y168.365 E5.29875
G1 X142.385 Y168.942 E5.32993
G1 X141.599 Y169.454 E5.36113
G1 X140.773 Y169.897 E5.39231
G1 X139.911 Y170.269 E5.42353
G1 X139.022 Y170.565 E5.4547
G1 X138.11 Y170.785 E5.4859
G1 X137.183 Y170.926 E5.51709
G1 X136.299 Y170.987 E5.54656
G1 X135.67 Y171 E5.56748
G1 X99.565 Y170.999 E6.76834
G1 X98.867 Y170.99 E6.79156
G1 X97.931 Y170.938 E6.82274
G1 X97.002 Y170.806 E6.85395
G1 X96.088 Y170.596 E6.88514
G1 X95.195 Y170.309 E6.91634
G1 X94.33 Y169.946 E6.94754
G1 X93.499 Y169.512 E6.97872
G1 X92.708 Y169.008 E7.00991
G1 X91.963 Y168.438 E7.04111
G1 X91.269 Y167.807 E7.07231
G1 X90.632 Y167.12 E7.10347
G1 X90.055 Y166.38 E7.13468
G1 X89.543 Y165.594 E7.16588
G1 X89.1 Y164.767 E7.19709
G1 X88.729 Y163.906 E7.22827
G1 X88.433 Y163.016 E7.25946
G1 X88.214 Y162.104 E7.29066
G1 X88.073 Y161.177 E7.32185
G1 X88.013 Y160.288 E7.35148
G1 X88 Y159.658 E7.37244
G1 X88.001 Y75.525 E10.17072
G1 X88.01 Y74.86 E10.19284
G1 X88.063 Y73.924 E10.22402
G1 X88.195 Y72.995 E10.25523
G1 X88.406 Y72.081 E10.28642
G1 X88.694 Y71.189 E10.3176
G1 X89.057 Y70.324 E10.3488
G1 X89.492 Y69.493 E10.38
G1 X89.996 Y68.703 E10.41117
G0 F6000 X90.392 Y68.835
G1 F1200 X90.961 Y68.111 E10.44179
G1 X91.589 Y67.439 E10.47238
G1 X92.274 Y66.823 E10.50303
G1 X93.01 Y66.27 E10.53364
G1 X93.791 Y65.782 E10.56427
G1 X94.611 Y65.364 E10.59489
G1 X95.465 Y65.019 E10.62552
G1 X96.345 Y64.749 E10.65614
G1 X97.245 Y64.557 E10.68674
G1 X98.159 Y64.443 E10.71738
G1 X98.712 Y64.413 E10.7358
G1 X99.33 Y64.4 E10.75636
G1 X135.293 Y64.4 E11.95249
G1 X136.143 Y64.411 E11.98077
G1 X137.062 Y64.464 E12.01138
G1 X137.973 Y64.597 E12.042
G1 X138.869 Y64.808 E12.07262
G1 X139.743 Y65.096 E12.10323
G1 X140.59 Y65.459 E12.13388
G1 X141.401 Y65.894 E12.16449
G1 X142.171 Y66.398 E12.1951
G1 X142.895 Y66.967 E12.22572
G1 X143.567 Y67.597 E12.25636
G1 X144.182 Y68.282 E12.28698
G1 X144.735 Y69.018 E12.3176
G1 X145.222 Y69.799 E12.34821
G1 X145.639 Y70.62 E12.37884
G1 X145.984 Y71.474 E12.40947
G1 X146.253 Y72.354 E12.44008
G1 X146.445 Y73.255 E12.47072
G1 X146.558 Y74.168 E12.50132
G1 X146.587 Y74.712 E12.51943
G1 X146.6 Y75.33 E12.53999
G1 X146.599 Y159.395 E15.33601
G1 X146.59 Y160.122 E15.36019
G1 X146.539 Y161.041 E15.3908
G1 X146.408 Y161.953 E15.42145
G1 X146.198 Y162.849 E15.45206
G1 X145.912 Y163.724 E15.48267
G1 X145.551 Y164.571 E15.5133
G1 X145.117 Y165.383 E15.54392
G1 X144.615 Y166.155 E15.57455
G1 X144.047 Y166.88 E15.60518
G1 X143.419 Y167.553 E15.6358
G1 X142.735 Y168.169 E15.66641
G1 X142 Y168.723 E15.69702
G1 X141.22 Y169.212 E15.72764
G1 X140.4 Y169.631 E15.75827
G1 X139.547 Y169.977 E15.78889
G1 X138.667 Y170.248 E15.81951
G1 X137.767 Y170.441 E15.85013
G1 X136.853 Y170.556 E15.88077
G1 X136.288 Y170.587 E15.89959
G1 X135.67 Y170.6 E15.92015
G1 X99.57 Y170.599 E17.12084
G1 X98.872 Y170.59 E17.14405
G1 X97.953 Y170.538 E17.17467
G1 X97.042 Y170.407 E17.20528
G1 X96.146 Y170.197 E17.23589
G1 X95.271 Y169.91 E17.26652
G1 X94.424 Y169.548 E17.29715
G1 X93.612 Y169.114 E17.32778
G1 X92.841 Y168.612 E17.35838
G1 X92.116 Y168.044 E17.38901
G1 X91.443 Y167.415 E17.41965
G1 X90.828 Y166.731 E17.45024
G1 X90.274 Y165.996 E17.48086
G1 X89.786 Y165.215 E17.51149
G1 X89.367 Y164.395 E17.54211
G1 X89.021 Y163.542 E17.57273
G1 X88.751 Y162.662 E17.60334
G1 X88.558 Y161.761 E17.63399
G1 X88.444 Y160.848 E17.66459
G1 X88.413 Y160.277 E17.68361
G1 X88.4 Y159.658 E17.70421
G1 X88.401 Y75.531 E20.50228
G1 X88.41 Y74.866 E20.5244
G1 X88.462 Y73.946 E20.55505
G1 X88.594 Y73.035 E20.58567
G1 X88.805 Y72.139 E20.61628
G1 X89.092 Y71.264 E20.64691
G1 X89.455 Y70.418 E20.67753
G1 X89.889 Y69.606 E20.70815
G1 X90.392 Y68.835 E20.73877
G0 F6000 X90.788 Y68.971
G1 F1200 X91.355 Y68.267 E20.76884
G1 X91.981 Y67.617 E20.79885
G1 X92.662 Y67.024 E20.82888
G1 X93.394 Y66.494 E20.85894
G1 X94.169 Y66.031 E20.88897
G1 X94.982 Y65.638 E20.919
G1 X95.827 Y65.318 E20.94906
G1 X96.696 Y65.075 E20.97907
G1 X97.584 Y64.909 E21.00911
G1 X98.723 Y64.813 E21.04713
G1 X99.33 Y64.8 E21.06732
G1 X135.293 Y64.8 E22.26346
G1 X136.137 Y64.811 E22.29153
G1 X137.039 Y64.864 E22.32159
G1 X137.932 Y64.996 E22.35161
G1 X138.81 Y65.207 E22.38164
G1 X139.666 Y65.495 E22.41168
G1 X140.493 Y65.857 E22.44171
G1 X141.285 Y66.292 E22.47176
G1 X142.036 Y66.794 E22.50181
G1 X142.739 Y67.361 E22.53185
G1 X143.389 Y67.988 E22.56188
G1 X143.981 Y68.67 E22.59192
G1 X144.511 Y69.401 E22.62195
G1 X144.973 Y70.177 E22.65199
G1 X145.366 Y70.99 E22.68202
G1 X145.684 Y71.835 E22.71205
G1 X145.927 Y72.705 E22.7421
G1 X146.092 Y73.593 E22.77214
G1 X146.187 Y74.723 E22.80985
G1 X146.2 Y75.33 E22.83005
G1 X146.199 Y159.39 E25.62589
G1 X146.19 Y160.117 E25.65008
G1 X146.139 Y161.019 E25.68013
G1 X146.008 Y161.913 E25.71018
G1 X145.799 Y162.791 E25.7402
G1 X145.513 Y163.648 E25.77024
G1 X145.152 Y164.476 E25.80029
G1 X144.72 Y165.268 E25.83029
G1 X144.219 Y166.02 E25.86035
G1 X143.653 Y166.724 E25.89039
G1 X143.028 Y167.375 E25.92041
G1 X142.347 Y167.969 E25.95046
G1 X141.616 Y168.5 E25.98051
G1 X140.842 Y168.964 E26.01053
G1 X140.029 Y169.358 E26.04058
G1 X139.185 Y169.678 E26.0706
G1 X138.315 Y169.923 E26.10066
G1 X137.428 Y170.089 E26.13068
G1 X136.277 Y170.187 E26.1691
G1 X135.67 Y170.2 E26.18929
G1 X99.575 Y170.199 E27.38981
G1 X98.877 Y170.19 E27.41303
G1 X97.976 Y170.139 E27.44305
G1 X97.082 Y170.007 E27.4731
G1 X96.204 Y169.798 E27.50312
G1 X95.347 Y169.511 E27.53318
G1 X94.52 Y169.15 E27.56319
G1 X93.727 Y168.717 E27.59325
G1 X92.976 Y168.216 E27.62327
G1 X92.272 Y167.65 E27.65332
G1 X91.621 Y167.024 E27.68336
G1 X91.028 Y166.343 E27.71339
G1 X90.498 Y165.612 E27.74342
G1 X90.034 Y164.837 E27.77346
G1 X89.64 Y164.024 E27.80351
G1 X89.32 Y163.18 E27.83353
G1 X89.076 Y162.31 E27.86359
G1 X88.91 Y161.422 E27.89363
G1 X88.813 Y160.267 E27.93218
G1 X88.8 Y159.658 E27.95244
G1 X88.801 Y75.536 E30.75035
G1 X88.81 Y74.871 E30.77247
G1 X88.862 Y73.969 E30.80252
G1 X88.994 Y73.076 E30.83255
G1 X89.204 Y72.198 E30.86257
G1 X89.491 Y71.341 E30.89263
G1 X89.853 Y70.514 E30.92266
G1 X90.286 Y69.722 E30.95268
G1 X90.788 Y68.971 E30.98273
G1 F2700 E25.98273
;MESH:box.stl
G0 F6000 X113.247 Y85.609
G0 X116.731 Y89.174
;TYPE:WALL-INNER
G1 F2700 E30.98273
G1 F1200 X116.006 Y88.964 E31.00783
G1 X115.356 Y88.641 E31.03197
G1 X114.737 Y88.175 E31.05774
G1 X114.229 Y87.62 E31.08277
G1 X113.826 Y86.974 E31.10809
G1 X113.555 Y86.267 E31.13327
G1 X113.417 Y85.523 E31.15844
G1 X113.415 Y84.825 E31.18166
G1 X113.423 Y84.721 E31.18513
G1 X113.553 Y84.024 E31.20871
G1 X113.827 Y83.318 E31.2339
G1 X114.227 Y82.671 E31.2592
G1 X114.735 Y82.115 E31.28425
G1 X115.337 Y81.659 E31.30936
G1 X116.017 Y81.32 E31.33464
G1 X116.752 Y81.113 E31.36003
G1 X117.499 Y81.043 E31.38499
G1 X118.254 Y81.112 E31.4102
G1 X118.984 Y81.321 E31.43546
G1 X119.663 Y81.659 E31.46069
G1 X120.265 Y82.115 E31.4858
G1 X120.773 Y82.67 E31.51083
G1 X121.171 Y83.314 E31.53601
G1 X121.447 Y84.024 E31.56134
G1 X121.586 Y84.769 E31.58655
G1 X121.586 Y85.524 E31.61166
G1 X121.445 Y86.267 E31.63682
G1 X121.174 Y86.974 E31.662
G1 X120.771 Y87.62 E31.68732
G1 X120.263 Y88.175 E31.71235
G1 X119.644 Y88.641 E31.73812
G1 X118.994 Y88.964 E31.76226
G1 X118.234 Y89.18 E31.78854
G1 X117.481 Y89.246 E31.81368
G1 X116.731 Y89.174 E31.83874
G1 F2700 E26.83874
G0 F6000 X118.333 Y89.26
G1 F2700 E31.83874
G0 F6000 X118.186 Y88.782
;TYPE:WALL-OUTER
G1 F1200 X117.481 Y88.846 E31.86228
G1 X116.827 Y88.785 E31.88413
G1 X116.161 Y88.595 E31.90716
G1 X115.555 Y88.294 E31.92967
G1 X115.006 Y87.879 E31.95256
G1 X114.537 Y87.363 E31.97575
G1 X114.195 Y86.81 E31.99738
G1 X113.94 Y86.157 E32.02069
G1 X113.815 Y85.486 E32.04339
G1 X113.815 Y84.825 E32.06538
G1 X113.946 Y84.117 E32.08933
G1 X114.195 Y83.482 E32.11201
G1 X114.537 Y82.929 E32.13364
G1 X115.02 Y82.401 E32.15744
G1 X115.565 Y81.992 E32.1801
G1 X116.148 Y81.702 E32.20176
G1 X116.821 Y81.507 E32.22507
G1 X117.519 Y81.446 E32.24837
G1 X118.2 Y81.512 E32.27113
G1 X118.852 Y81.702 E32.29371
G1 X119.435 Y81.992 E32.31537
G1 X119.98 Y82.401 E32.33803
G1 X120.463 Y82.929 E32.36183
G1 X120.803 Y83.478 E32.38331
G1 X121.054 Y84.117 E32.40615
G1 X121.185 Y84.806 E32.42947
G1 X121.185 Y85.486 E32.45209
G1 X121.06 Y86.157 E32.47479
G1 X120.805 Y86.81 E32.49811
G1 X120.463 Y87.363 E32.51973
G1 X119.994 Y87.879 E32.54293
G1 X119.456 Y88.287 E32.56538
G1 X118.839 Y88.595 E32.58832
G1 X118.186 Y88.782 E32.61091
G1 F2700 E27.61091
G0 F6000 X118.333 Y89.26
G0 X117.574 Y89.424
G0 X117.233 Y116.729
G0 X116.502 Y125.991
;TYPE:WALL-INNER
G1 F2700 E32.61091
G1 F1200 X115.793 Y125.772 E32.63559
G1 X115.087 Y125.416 E32.66189
G1 X114.46 Y124.953 E32.68781
G1 X113.919 Y124.39 E32.71378
G1 X113.484 Y123.745 E32.73966
G1 X113.162 Y123.032 E32.76568
G1 X112.966 Y122.28 E32.79153
G1 X112.902 Y121.554 E32.81577
G1 X112.902 Y121.451 E32.81919
G1 X112.966 Y120.718 E32.84367
G1 X113.162 Y119.968 E32.86945
G1 X113.484 Y119.255 E32.89547
G1 X113.919 Y118.61 E32.92135
G1 X114.46 Y118.047 E32.94732
G1 X115.087 Y117.584 E32.97324
G1 X115.803 Y117.224 E32.99989
G1 X116.51 Y117.007 E33.02449
G1 X117.283 Y116.905 E33.05042
G1 X118.099 Y116.939 E33.07759
G1 X118.816 Y117.092 E33.10197
G1 X119.572 Y117.389 E33.12899
G1 X120.234 Y117.799 E33.15489
G1 X120.824 Y118.316 E33.18098
G1 X121.313 Y118.921 E33.20685
G1 X121.691 Y119.6 E33.2327
G1 X121.952 Y120.338 E33.25874
G1 X122.086 Y121.107 E33.2847
G1 X122.085 Y121.888 E33.31067
G1 X121.956 Y122.657 E33.33661
G1 X121.691 Y123.399 E33.36281
G1 X121.313 Y124.075 E33.38857
G1 X120.823 Y124.683 E33.41455
G1 X120.235 Y125.2 E33.44059
G1 X119.578 Y125.605 E33.46626
G1 X118.829 Y125.904 E33.49308
G1 X118.054 Y126.067 E33.51942
G1 X117.286 Y126.095 E33.54498
G1 X116.502 Y125.991 E33.57129
G0 F6000 X116.617 Y125.607
;TYPE:WALL-OUTER
G1 F1200 X115.938 Y125.399 E33.59491
G1 X115.296 Y125.075 E33.61882
G1 X114.724 Y124.652 E33.64249
G1 X114.241 Y124.151 E33.66563
G1 X113.833 Y123.55 E33.68979
G1 X113.545 Y122.915 E33.71298
G1 X113.36 Y122.212 E33.73716
G1 X113.3 Y121.52 E33.76026
G1 X113.36 Y120.787 E33.78473
G1 X113.539 Y120.101 E33.80831
G1 X113.825 Y119.465 E33.8315
G1 X114.23 Y118.862 E33.85566
G1 X114.711 Y118.36 E33.87878
G1 X115.296 Y117.925 E33.90303
G1 X115.941 Y117.6 E33.92705
G1 X116.607 Y117.395 E33.95023
G1 X117.315 Y117.304 E33.97397
G1 X118.037 Y117.334 E33.99801
G1 X118.711 Y117.478 E34.02093
G1 X119.389 Y117.748 E34.0452
G1 X119.997 Y118.121 E34.06893
G1 X120.522 Y118.582 E34.09216
G1 X120.979 Y119.146 E34.11631
G1 X121.327 Y119.766 E34.13995
G1 X121.565 Y120.439 E34.1637
G1 X121.686 Y121.146 E34.18755
G1 X121.686 Y121.854 E34.2111
G1 X121.57 Y122.542 E34.23431
G1 X121.327 Y123.233 E34.25867
G1 X120.981 Y123.851 E34.28223
G1 X120.534 Y124.406 E34.30593
G1 X119.998 Y124.878 E34.32968
G1 X119.392 Y125.251 E34.35335
G1 X118.715 Y125.52 E34.37758
G1 X118.037 Y125.666 E34.40065
G1 X117.306 Y125.695 E34.42498
G1 X116.617 Y125.607 E34.44808
G1 F2700 E29.44808
G0 F6000 X116.559 Y126.103
G0 X117.11 Y126.256
G0 X116.904 Y145.625
G0 X116.745 Y153.888
;TYPE:WALL-INNER
G1 F2700 E34.44808
G1 F1200 X116.016 Y153.679 E34.47331
G1 X115.337 Y153.341 E34.49853
G1 X114.735 Y152.885 E34.52365
G1 X114.227 Y152.33 E34.54868
G1 X113.826 Y151.682 E34.57402
G1 X113.553 Y150.975 E34.59923
G1 X113.417 Y150.231 E34.62438
G1 X113.415 Y149.533 E34.6476
G1 X113.423 Y149.429 E34.65107
G1 X113.555 Y148.733 E34.67463
G1 X113.826 Y148.027 E34.69978
G1 X114.227 Y147.378 E34.72516
G1 X114.737 Y146.825 E34.75018
G1 X115.355 Y146.359 E34.77592
G1 X116.008 Y146.035 E34.80017
G1 X116.728 Y145.827 E34.82509
G1 X117.479 Y145.754 E34.85019
G1 X118.263 Y145.823 E34.87637
G1 X118.98 Y146.027 E34.90116
G1 X119.645 Y146.359 E34.92588
G1 X120.263 Y146.825 E34.95163
G1 X120.773 Y147.378 E34.97665
G1 X121.169 Y148.023 E35.00182
G1 X121.445 Y148.733 E35.02716
G1 X121.586 Y149.476 E35.05231
G1 X121.586 Y150.231 E35.07742
G1 X121.447 Y150.976 E35.10263
G1 X121.173 Y151.682 E35.12781
G1 X120.773 Y152.329 E35.15311
G1 X120.265 Y152.885 E35.17816
G1 X119.663 Y153.341 E35.20328
G1 X118.983 Y153.68 E35.22855
G1 X118.249 Y153.887 E35.25392
G1 X117.501 Y153.957 E35.27891
G1 X116.745 Y153.888 E35.30415
G0 F6000 X116.799 Y153.488
;TYPE:WALL-OUTER
G1 F1200 X116.148 Y153.298 E35.32671
G1 X115.565 Y153.008 E35.34837
G1 X115.02 Y152.599 E35.37103
G1 X114.537 Y152.071 E35.39483
G1 X114.195 Y151.518 E35.41646
G1 X113.946 Y150.883 E35.43914
G1 X113.815 Y150.194 E35.46247
G1 X113.815 Y149.533 E35.48446
G1 X113.94 Y148.843 E35.50778
G1 X114.195 Y148.19 E35.53109
G1 X114.537 Y147.637 E35.55272
G1 X115.006 Y147.121 E35.57591
G1 X115.544 Y146.713 E35.59837
G1 X116.148 Y146.41 E35.62085
G1 X116.812 Y146.218 E35.64384
G1 X117.519 Y146.154 E35.66745
G1 X118.185 Y146.217 E35.6897
G1 X118.835 Y146.403 E35.71218
G1 X119.445 Y146.706 E35.73484
G1 X119.994 Y147.121 E35.75773
G1 X120.463 Y147.637 E35.78092
G1 X120.803 Y148.186 E35.8024
G1 X121.06 Y148.843 E35.82586
G1 X121.185 Y149.514 E35.84856
G1 X121.185 Y150.194 E35.87118
G1 X121.054 Y150.883 E35.89451
G1 X120.805 Y151.518 E35.91719
G1 X120.463 Y152.071 E35.93882
G1 X119.98 Y152.599 E35.96262
G1 X119.435 Y153.008 E35.98528
G1 X118.852 Y153.298 E36.00694
G1 X118.18 Y153.493 E36.03021
G1 X117.481 Y153.554 E36.05355
G1 X116.799 Y153.488 E36.07634
G1 F2700 E31.07634
G0 F6000 X116.655 Y153.968
G0 X115.307 Y153.528
G0 X115.307 Y159.58
G0 X99.6 Y159.4
;TYPE:WALL-INNER
G1 F2700 E36.07634
G1 F1200 X135.4 Y159.4 E37.26705
G1 X135.4 Y75.6 E40.05425
G1 X99.6 Y75.6 E41.24496
G1 X99.6 Y159.4 E44.03216
G0 F6000 X99.2 Y159.8
;TYPE:WALL-OUTER
G1 F1200 X135.8 Y159.8 E45.24948
G1 X135.8 Y75.2 E48.06329
G1 X99.2 Y75.2 E49.28061
G1 X99.2 Y159.8 E52.09442
G0 F6000 X99.47 Y159.53
G0 X99.7 Y159.04
G0 X99.96 Y159.04
;TYPE:SKIN
G1 F1200 X135.04 Y159.04 E53.26119
G1 X135.04 Y75.96 E56.02444
G1 X99.96 Y75.96 E57.1912
G1 X99.96 Y159.04 E59.95445
G1 F2700 E54.95445
G0 F6000 X99.7 Y159.04
G0 X99.8 Y154.002
G0 X115.307 Y153.528
G0 X116.69 Y154.245
G1 F2700 E59.95445
