;FLAVOR:Marlin
;TIME:9393
;Filament used: 5.90041m
;Layer height: 0.2
;MINX:69.496
;MINY:72.572
;MINZ:0.2
;MAXX:163.933
;MAXY:179.572
;MAXZ:17.8
;Generated with Cura_SteamEngine 5.2.1
M140 S60
M105
M190 S60
M104 S210
M105
M109 S210
M82 ;absolute extrusion mode
; Ender 3 Custom Start G-code
G92 E0 ; Reset Extruder
G28 ; Home all axes
G1 Z2.0 F3000 ; Move Z Axis up little to prevent scratching of Heat Bed
G1 X0.1 Y20 Z0.3 F5000.0 ; Move to start position
G1 X0.1 Y200.0 Z0.3 F1500.0 E15 ; Draw the first line
G1 X0.4 Y200.0 Z0.3 F5000.0 ; Move to side a little
G1 X0.4 Y20 Z0.3 F1500.0 E30 ; Draw the second line
G92 E0 ; Reset Extruder
G1 Z2.0 F3000 ; Move Z Axis up little to prevent scratching of Heat Bed
G1 X5 Y20 Z0.3 F5000.0 ; Move over to prevent blob squish
G92 E0
G92 E0
G1 F2700 E-5
;LAYER_COUNT:89
;LAYER:0
M107
G0 F6000 X72.694 Y75.836 Z0.2
;TYPE:SKIRT
G1 F2700 E0
G1 F1200 X73.382 Y75.199 E0.03119
G1 X74.122 Y74.623 E0.06237
G1 X74.908 Y74.111 E0.09357
G1 X75.735 Y73.669 E0.12476
G1 X76.597 Y73.299 E0.15596
G1 X77.487 Y73.003 E0.18716
G1 X78.399 Y72.785 E0.21835
G1 X79.326 Y72.644 E0.24953
G1 X80.197 Y72.585 E0.27857
G1 X80.826 Y72.572 E0.29949
G1 X116.946 Y72.573 E1.50085
G1 X117.648 Y72.583 E1.5242
G1 X118.584 Y72.636 E1.55538
G1 X119.512 Y72.769 E1.58656
G1 X120.426 Y72.981 E1.61777
G1 X121.319 Y73.269 E1.64898
G1 X122.183 Y73.633 E1.68016
G1 X123.014 Y74.069 E1.71137
G1 X123.804 Y74.574 E1.74256
G1 X124.748 Y75.315 E1.78247
G1 X125.086 Y75.612 E1.79744
G1 X127.069 Y77.305 E1.88416
G1 X129.041 Y78.896 E1.96844
G1 X131.031 Y80.409 E2.05158
G1 X133.082 Y81.881 E2.13555
G1 X135.146 Y83.273 E2.21835
G1 X137.307 Y84.645 E2.30349
G1 X139.457 Y85.926 E2.38673
G1 X141.647 Y87.148 E2.47014
G1 X143.868 Y88.306 E2.55345
G1 X146.166 Y89.424 E2.63844
G1 X148.42 Y90.442 E2.7207
G1 X150.8 Y91.434 E2.80646
G1 X153.131 Y92.333 E2.88956
G1 X155.487 Y93.165 E2.97266
G1 X156.437 Y93.485 E3.00601
G1 X157.312 Y93.822 E3.03719
G1 X158.156 Y94.233 E3.06841
G1 X158.961 Y94.714 E3.0996
G1 X159.722 Y95.261 E3.13078
G1 X160.434 Y95.872 E3.16198
G1 X161.092 Y96.541 E3.19319
G1 X161.69 Y97.263 E3.22437
G1 X162.224 Y98.034 E3.25557
G1 X162.69 Y98.848 E3.28676
G1 X163.086 Y99.698 E3.31795
G1 X163.408 Y100.579 E3.34915
G1 X163.653 Y101.484 E3.38033
G1 X163.821 Y102.407 E3.41154
G1 X163.92 Y103.603 E3.45145
G1 X163.933 Y104.232 E3.47238
G1 X163.932 Y145.117 E4.83222
G1 X163.922 Y145.846 E4.85647
G1 X163.869 Y146.782 E4.88765
G1 X163.737 Y147.711 E4.91886
G1 X163.526 Y148.625 E4.95006
G1 X163.238 Y149.517 E4.98123
G1 X162.875 Y150.382 E5.01243
G1 X162.439 Y151.213 E5.04365
G1 X161.935 Y152.003 E5.07481
G1 X161.364 Y152.748 E5.10603
G1 X160.733 Y153.441 E5.1372
G1 X160.045 Y154.078 E5.16839
G1 X159.305 Y154.655 E5.1996
G1 X158.518 Y155.166 E5.23081
G1 X157.691 Y155.608 E5.262
G1 X156.889 Y155.955 E5.29106
G1 X156.166 Y156.235 E5.31685
G1 X153.783 Y157.196 E5.40231
G1 X151.45 Y158.215 E5.48699
G1 X149.186 Y159.28 E5.5702
G1 X146.936 Y160.418 E5.65406
G1 X144.73 Y161.612 E5.73749
G1 X142.565 Y162.866 E5.82071
G1 X140.405 Y164.199 E5.90513
G1 X138.295 Y165.584 E5.98908
G1 X136.228 Y167.028 E6.07294
G1 X134.205 Y168.527 E6.15668
G1 X132.249 Y170.065 E6.23944
G1 X130.304 Y171.684 E6.32361
G1 X128.428 Y173.339 E6.40682
G1 X126.569 Y175.073 E6.49137
G1 X125.747 Y175.885 E6.5298
G1 X125.101 Y176.505 E6.55958
G1 X124.397 Y177.125 E6.59078
G1 X123.642 Y177.682 E6.62199
G1 X122.843 Y178.173 E6.65318
G1 X122.005 Y178.594 E6.68437
G1 X121.134 Y178.942 E6.71557
G1 X120.237 Y179.214 E6.74674
G1 X119.319 Y179.409 E6.77796
G1 X118.389 Y179.525 E6.80913
G1 X117.829 Y179.557 E6.82779
G1 X117.166 Y179.572 E6.84984
G1 X81.061 Y179.571 E8.0507
G1 X80.363 Y179.562 E8.07392
G1 X79.427 Y179.51 E8.1051
G1 X78.498 Y179.378 E8.13631
G1 X77.584 Y179.168 E8.1675
G1 X76.691 Y178.881 E8.1987
G1 X75.826 Y178.518 E8.2299
G1 X74.995 Y178.084 E8.26108
G1 X74.204 Y177.58 E8.29227
G1 X73.459 Y177.01 E8.32347
G1 X72.765 Y176.379 E8.35467
G1 X72.128 Y175.692 E8.38583
G1 X71.551 Y174.952 E8.41704
G1 X71.039 Y174.166 E8.44824
G1 X70.596 Y173.339 E8.47944
G1 X70.225 Y172.478 E8.51063
G1 X69.929 Y171.588 E8.54182
G1 X69.71 Y170.676 E8.57302
G1 X69.569 Y169.749 E8.60421
G1 X69.509 Y168.86 E8.63384
G1 X69.496 Y168.23 E8.6548
G1 X69.497 Y84.097 E11.45307
G1 X69.506 Y83.432 E11.47519
G1 X69.559 Y82.496 E11.50638
G1 X69.691 Y81.567 E11.53758
G1 X69.902 Y80.653 E11.56878
G1 X70.19 Y79.761 E11.59996
G1 X70.553 Y78.896 E11.63116
G1 X70.988 Y78.065 E11.66236
G1 X71.492 Y77.275 E11.69352
G1 X72.062 Y76.53 E11.72472
G1 X72.694 Y75.836 E11.75594
G0 F6000 X73.085 Y76.011
G1 F1200 X73.77 Y75.395 E11.78658
G1 X74.506 Y74.842 E11.8172
G1 X75.287 Y74.354 E11.84783
G1 X76.107 Y73.936 E11.87845
G1 X76.961 Y73.591 E11.90908
G1 X77.841 Y73.321 E11.9397
G1 X78.741 Y73.129 E11.9703
G1 X79.655 Y73.015 E12.00094
G1 X80.208 Y72.985 E12.01936
G1 X80.826 Y72.972 E12.03992
G1 X116.789 Y72.972 E13.23605
G1 X117.642 Y72.983 E13.26443
G1 X118.561 Y73.036 E13.29504
G1 X119.472 Y73.169 E13.32566
G1 X120.368 Y73.38 E13.35628
G1 X121.243 Y73.668 E13.38692
G1 X122.089 Y74.031 E13.41754
G1 X122.9 Y74.466 E13.44815
G1 X123.671 Y74.97 E13.47878
G1 X124.484 Y75.616 E13.51332
G1 X126.842 Y77.637 E13.61661
G1 X128.776 Y79.198 E13.69928
G1 X130.766 Y80.711 E13.78242
G1 X132.848 Y82.205 E13.86765
G1 X134.954 Y83.626 E13.95215
G1 X137.068 Y84.968 E14.03544
G1 X139.263 Y86.276 E14.12042
G1 X141.473 Y87.509 E14.20459
G1 X143.687 Y88.664 E14.28765
G1 X145.977 Y89.777 E14.37233
G1 X148.297 Y90.824 E14.45699
G1 X150.619 Y91.793 E14.54068
G1 X152.991 Y92.707 E14.62522
G1 X155.353 Y93.541 E14.70854
G1 X156.31 Y93.864 E14.74213
G1 X157.168 Y94.196 E14.77273
G1 X157.995 Y94.601 E14.80336
G1 X158.784 Y95.076 E14.83399
G1 X159.528 Y95.618 E14.8646
G1 X160.223 Y96.222 E14.89523
G1 X160.862 Y96.884 E14.92583
G1 X161.442 Y97.6 E14.95648
G1 X161.957 Y98.363 E14.9871
G1 X162.404 Y99.167 E15.01769
G1 X162.78 Y100.008 E15.04833
G1 X163.081 Y100.878 E15.07895
G1 X163.306 Y101.771 E15.10958
G1 X163.452 Y102.679 E15.14017
G1 X163.52 Y103.614 E15.17135
G1 X163.533 Y104.232 E15.19191
G1 X163.532 Y145.111 E16.55155
G1 X163.522 Y145.84 E16.5758
G1 X163.469 Y146.76 E16.60645
G1 X163.337 Y147.671 E16.63707
G1 X163.127 Y148.567 E16.66767
G1 X162.839 Y149.441 E16.69828
G1 X162.476 Y150.288 E16.72893
G1 X162.042 Y151.099 E16.75952
G1 X161.538 Y151.87 E16.79016
G1 X160.97 Y152.595 E16.82079
G1 X160.341 Y153.267 E16.85141
G1 X159.656 Y153.882 E16.88203
G1 X158.92 Y154.435 E16.91265
G1 X158.139 Y154.923 E16.94328
G1 X157.319 Y155.341 E16.97389
G1 X156.745 Y155.582 E16.99459
G1 X155.996 Y155.871 E17.0213
G1 X153.622 Y156.829 E17.10644
G1 X151.299 Y157.844 E17.19076
G1 X149.014 Y158.919 E17.27475
G1 X146.772 Y160.053 E17.35831
G1 X144.504 Y161.281 E17.4441
G1 X142.349 Y162.529 E17.52692
G1 X140.181 Y163.866 E17.61164
G1 X138.092 Y165.238 E17.69477
G1 X136.007 Y166.694 E17.77935
G1 X133.964 Y168.208 E17.86392
G1 X131.97 Y169.776 E17.94829
G1 X130.05 Y171.375 E18.0314
G1 X128.139 Y173.061 E18.11616
G1 X126.298 Y174.778 E18.19989
G1 X125.348 Y175.716 E18.24429
G1 X124.825 Y176.217 E18.26838
G1 X124.133 Y176.824 E18.299
G1 X123.391 Y177.369 E18.32962
G1 X122.604 Y177.848 E18.36026
G1 X121.779 Y178.256 E18.39087
G1 X120.922 Y178.592 E18.42149
G1 X120.039 Y178.852 E18.4521
G1 X119.136 Y179.034 E18.48274
G1 X117.817 Y179.157 E18.5268
G1 X117.166 Y179.172 E18.54846
G1 X81.066 Y179.171 E19.74915
G1 X80.368 Y179.162 E19.77237
G1 X79.449 Y179.11 E19.80298
G1 X78.538 Y178.979 E19.8336
G1 X77.642 Y178.769 E19.8642
G1 X76.767 Y178.482 E19.89483
G1 X75.92 Y178.12 E19.92547
G1 X75.108 Y177.686 E19.95609
G1 X74.337 Y177.184 E19.98669
G1 X73.612 Y176.616 E20.01732
G1 X72.939 Y175.987 E20.04796
G1 X72.324 Y175.303 E20.07856
G1 X71.77 Y174.568 E20.10917
G1 X71.282 Y173.787 E20.1398
G1 X70.863 Y172.967 E20.17043
G1 X70.517 Y172.114 E20.20104
G1 X70.247 Y171.234 E20.23166
G1 X70.054 Y170.333 E20.26231
G1 X69.94 Y169.42 E20.29291
G1 X69.909 Y168.849 E20.31193
G1 X69.896 Y168.23 E20.33252
G1 X69.897 Y84.103 E23.1306
G1 X69.906 Y83.438 E23.15272
G1 X69.958 Y82.518 E23.18336
G1 X70.09 Y81.607 E23.21398
G1 X70.301 Y80.711 E23.2446
G1 X70.588 Y79.836 E23.27522
G1 X70.951 Y78.99 E23.30584
G1 X71.385 Y78.178 E23.33647
G1 X71.888 Y77.407 E23.36708
G1 X72.457 Y76.683 E23.39771
G1 X73.085 Y76.011 E23.4283
G0 F6000 X73.477 Y76.189
G1 F1200 X74.158 Y75.596 E23.45834
G1 X74.89 Y75.066 E23.4884
G1 X75.665 Y74.603 E23.51842
G1 X76.478 Y74.21 E23.54846
G1 X77.323 Y73.89 E23.57851
G1 X78.192 Y73.647 E23.60852
G1 X79.08 Y73.481 E23.63857
G1 X80.219 Y73.385 E23.67658
G1 X80.826 Y73.372 E23.69678
G1 X116.789 Y73.372 E24.89291
G1 X117.636 Y73.383 E24.92109
G1 X118.538 Y73.436 E24.95114
G1 X119.431 Y73.568 E24.98116
G1 X120.309 Y73.779 E25.0112
G1 X121.165 Y74.067 E25.04123
G1 X121.993 Y74.429 E25.07129
G1 X122.785 Y74.863 E25.10133
G1 X123.535 Y75.366 E25.13136
G1 X124.22 Y75.916 E25.16058
G1 X124.607 Y76.256 E25.17772
G1 X126.555 Y77.919 E25.26291
G1 X128.528 Y79.512 E25.34725
G1 X130.549 Y81.048 E25.43168
G1 X132.63 Y82.541 E25.51686
G1 X134.721 Y83.952 E25.60076
G1 X136.87 Y85.316 E25.68542
G1 X139.042 Y86.61 E25.76951
G1 X141.273 Y87.855 E25.85448
G1 X143.535 Y89.034 E25.93933
G1 X145.816 Y90.143 E26.02368
G1 X148.114 Y91.181 E26.10755
G1 X150.47 Y92.164 E26.19246
G1 X152.85 Y93.082 E26.2773
G1 X155.239 Y93.925 E26.36156
G1 X156.182 Y94.243 E26.39466
G1 X157.024 Y94.569 E26.42469
G1 X157.834 Y94.969 E26.45474
G1 X158.606 Y95.438 E26.48478
G1 X159.333 Y95.974 E26.51482
G1 X160.009 Y96.572 E26.54484
G1 X160.631 Y97.227 E26.57489
G1 X161.191 Y97.935 E26.60491
G1 X161.687 Y98.69 E26.63496
G1 X162.115 Y99.485 E26.66499
G1 X162.47 Y100.316 E26.69504
G1 X162.75 Y101.174 E26.72506
G1 X162.954 Y102.054 E26.75511
G1 X163.079 Y102.948 E26.78513
G1 X163.12 Y103.625 E26.80769
G1 X163.133 Y104.232 E26.82788
G1 X163.132 Y145.106 E28.18736
G1 X163.122 Y145.835 E28.2116
G1 X163.07 Y146.736 E28.24162
G1 X162.938 Y147.63 E28.27168
G1 X162.727 Y148.508 E28.30171
G1 X162.44 Y149.364 E28.33174
G1 X162.078 Y150.192 E28.3618
G1 X161.645 Y150.984 E28.39182
G1 X161.143 Y151.735 E28.42186
G1 X160.576 Y152.438 E28.4519
G1 X159.95 Y153.089 E28.48194
G1 X159.268 Y153.681 E28.51198
G1 X158.537 Y154.211 E28.54201
G1 X157.762 Y154.674 E28.57204
G1 X156.601 Y155.209 E28.61455
G1 X155.851 Y155.499 E28.6413
G1 X153.479 Y156.456 E28.72637
G1 X151.118 Y157.487 E28.81206
G1 X148.828 Y158.564 E28.89623
G1 X146.58 Y159.701 E28.98002
G1 X144.334 Y160.917 E29.06496
G1 X142.144 Y162.185 E29.14913
G1 X139.973 Y163.525 E29.23399
G1 X137.85 Y164.919 E29.31846
G1 X135.762 Y166.377 E29.40316
G1 X133.724 Y167.887 E29.48752
G1 X131.733 Y169.452 E29.57175
G1 X129.774 Y171.084 E29.65656
G1 X127.902 Y172.735 E29.73958
G1 X126.009 Y174.501 E29.82568
G1 X125.071 Y175.427 E29.86952
G1 X124.548 Y175.928 E29.89361
G1 X123.869 Y176.523 E29.92364
G1 X123.14 Y177.056 E29.95367
G1 X122.366 Y177.522 E29.98372
G1 X121.554 Y177.918 E30.01377
G1 X120.711 Y178.241 E30.0438
G1 X119.842 Y178.488 E30.07384
G1 X118.955 Y178.657 E30.10388
G1 X117.805 Y178.757 E30.14227
G1 X117.166 Y178.772 E30.16353
G1 X81.071 Y178.771 E31.36405
G1 X80.373 Y178.762 E31.38727
G1 X79.472 Y178.711 E31.41729
G1 X78.578 Y178.579 E31.44734
G1 X77.7 Y178.37 E31.47736
G1 X76.843 Y178.083 E31.50742
G1 X76.016 Y177.722 E31.53744
G1 X75.223 Y177.289 E31.56749
G1 X74.472 Y176.788 E31.59751
G1 X73.768 Y176.222 E31.62756
G1 X73.117 Y175.596 E31.6576
G1 X72.524 Y174.915 E31.68763
G1 X71.994 Y174.184 E31.71766
G1 X71.53 Y173.409 E31.7477
G1 X71.136 Y172.596 E31.77775
G1 X70.816 Y171.752 E31.80777
G1 X70.572 Y170.882 E31.83783
G1 X70.406 Y169.994 E31.86787
G1 X70.309 Y168.839 E31.90642
G1 X70.296 Y168.23 E31.92668
G1 X70.297 Y84.108 E34.72459
G1 X70.306 Y83.443 E34.74671
G1 X70.358 Y82.541 E34.77676
G1 X70.49 Y81.648 E34.80679
G1 X70.7 Y80.77 E34.83681
G1 X70.987 Y79.913 E34.86687
G1 X71.349 Y79.086 E34.8969
G1 X71.782 Y78.294 E34.92692
G1 X72.284 Y77.543 E34.95697
G1 X72.851 Y76.839 E34.98703
G1 X73.477 Y76.189 E35.01705
G1 F2700 E30.01705
;MESH:box.stl
G0 F6000 X94.86 Y92.618
G0 X99.73 Y97.752
;TYPE:WALL-INNER
G1 F2700 E35.01705
G1 F1200 X98.977 Y97.818 E35.04219
G1 X98.226 Y97.746 E35.06728
G1 X97.5 Y97.535 E35.09243
G1 X96.852 Y97.213 E35.11649
G1 X96.233 Y96.747 E35.14226
G1 X95.722 Y96.194 E35.16731
G1 X95.323 Y95.544 E35.19267
G1 X95.05 Y94.839 E35.21782
G1 X94.912 Y94.095 E35.24299
G1 X94.91 Y93.397 E35.2662
G1 X94.918 Y93.293 E35.26967
G1 X95.048 Y92.596 E35.29325
G1 X95.322 Y91.89 E35.31844
G1 X95.722 Y91.243 E35.34374
G1 X96.231 Y90.686 E35.36884
G1 X96.833 Y90.231 E35.39394
G1 X97.512 Y89.892 E35.41918
G1 X98.247 Y89.685 E35.44457
G1 X98.995 Y89.615 E35.46956
G1 X99.75 Y89.684 E35.49478
G1 X100.48 Y89.893 E35.52003
G1 X101.158 Y90.231 E35.54523
G1 X101.76 Y90.686 E35.57033
G1 X102.269 Y91.243 E35.59542
G1 X102.667 Y91.886 E35.62058
G1 X102.943 Y92.596 E35.64591
G1 X103.082 Y93.341 E35.67112
G1 X103.082 Y94.096 E35.69623
G1 X102.941 Y94.839 E35.72138
G1 X102.67 Y95.545 E35.74654
G1 X102.268 Y96.195 E35.77196
G1 X101.758 Y96.747 E35.79695
G1 X101.139 Y97.213 E35.82272
G1 X100.491 Y97.535 E35.84679
G1 X99.73 Y97.752 E35.87311
G0 F6000 X99.682 Y97.354
;TYPE:WALL-OUTER
G1 F1200 X98.977 Y97.418 E35.89665
G1 X98.322 Y97.357 E35.91853
G1 X97.677 Y97.174 E35.94083
G1 X97.051 Y96.866 E35.96404
G1 X96.502 Y96.451 E35.98693
G1 X96.032 Y95.935 E36.01014
G1 X95.681 Y95.366 E36.03238
G1 X95.435 Y94.729 E36.05509
G1 X95.31 Y94.058 E36.07779
G1 X95.31 Y93.397 E36.09978
G1 X95.441 Y92.689 E36.12372
G1 X95.69 Y92.054 E36.14641
G1 X96.032 Y91.501 E36.16804
G1 X96.489 Y90.997 E36.19066
G1 X97.061 Y90.564 E36.21452
G1 X97.643 Y90.274 E36.23615
G1 X98.316 Y90.079 E36.25946
G1 X99.015 Y90.018 E36.28279
G1 X99.696 Y90.084 E36.30555
G1 X100.348 Y90.274 E36.32814
G1 X100.93 Y90.564 E36.34976
G1 X101.502 Y90.997 E36.37363
G1 X101.959 Y91.501 E36.39625
G1 X102.299 Y92.05 E36.41773
G1 X102.55 Y92.689 E36.44057
G1 X102.681 Y93.378 E36.46389
G1 X102.681 Y94.058 E36.48651
G1 X102.556 Y94.729 E36.50921
G1 X102.301 Y95.382 E36.53253
G1 X101.959 Y95.935 E36.55415
G1 X101.489 Y96.451 E36.57737
G1 X100.951 Y96.859 E36.59983
G1 X100.336 Y97.166 E36.62269
G1 X99.682 Y97.354 E36.64532
G1 F2700 E31.64532
G0 F6000 X99.763 Y97.643
G0 X99.07 Y97.996
G0 X98.862 Y125.295
G0 X99.55 Y134.639
;TYPE:WALL-INNER
G1 F2700 E36.64532
G1 F1200 X98.782 Y134.667 E36.67088
G1 X97.998 Y134.563 E36.69719
G1 X97.287 Y134.342 E36.72195
G1 X96.582 Y133.988 E36.74819
G1 X95.955 Y133.527 E36.77407
G1 X95.413 Y132.965 E36.80004
G1 X94.978 Y132.317 E36.826
G1 X94.656 Y131.604 E36.85202
G1 X94.461 Y130.852 E36.87786
G1 X94.398 Y130.125 E36.90213
G1 X94.398 Y130.023 E36.90552
G1 X94.461 Y129.29 E36.92999
G1 X94.656 Y128.537 E36.95586
G1 X94.975 Y127.828 E36.98172
G1 X95.414 Y127.181 E37.00773
G1 X95.953 Y126.618 E37.03365
G1 X96.578 Y126.156 E37.0595
G1 X97.299 Y125.796 E37.0863
G1 X98.006 Y125.579 E37.1109
G1 X98.779 Y125.477 E37.13683
G1 X99.595 Y125.511 E37.164
G1 X100.312 Y125.664 E37.18838
G1 X101.065 Y125.96 E37.21529
G1 X101.729 Y126.371 E37.24127
G1 X102.319 Y126.888 E37.26736
G1 X102.806 Y127.494 E37.29322
G1 X103.186 Y128.173 E37.3191
G1 X103.447 Y128.91 E37.3451
G1 X103.582 Y129.685 E37.37126
G1 X103.58 Y130.46 E37.39704
G1 X103.451 Y131.229 E37.42298
G1 X103.186 Y131.97 E37.44915
G1 X102.809 Y132.647 E37.47492
G1 X102.317 Y133.255 E37.50094
G1 X101.73 Y133.772 E37.52695
G1 X101.073 Y134.177 E37.55262
G1 X100.325 Y134.476 E37.57942
G1 X99.55 Y134.639 E37.60576
G0 F6000 X99.533 Y134.238
;TYPE:WALL-OUTER
G1 F1200 X98.802 Y134.267 E37.63009
G1 X98.113 Y134.179 E37.65319
G1 X97.433 Y133.97 E37.67685
G1 X96.791 Y133.647 E37.70076
G1 X96.22 Y133.224 E37.72439
G1 X95.736 Y132.723 E37.74756
G1 X95.328 Y132.122 E37.77172
G1 X95.035 Y131.47 E37.79549
G1 X94.855 Y130.784 E37.81908
G1 X94.796 Y130.091 E37.84222
G1 X94.855 Y129.359 E37.86664
G1 X95.035 Y128.673 E37.89023
G1 X95.32 Y128.037 E37.91341
G1 X95.725 Y127.433 E37.9376
G1 X96.232 Y126.91 E37.96182
G1 X96.791 Y126.497 E37.98494
G1 X97.426 Y126.176 E38.00861
G1 X98.103 Y125.967 E38.03217
