;FLAVOR:Marlin
;TIME:3672
;Filament used: 2.67098m
;Layer height: 0.2
;MINX:88
;MINY:64
;MINZ:0.2
;MAXX:147
;MAXY:171
;MAXZ:8
;Generated with Cura_SteamEngine 5.2.1
M140 S60
M105
M190 S60
M104 S210
M105
M109 S210
M82 ;absolute extrusion mode
; Ender 3 Custom Start G-code
G92 E0 ; Reset Extruder
G28 ; Home all axes
G1 Z2.0 F3000 ; Move Z Axis up little to prevent scratching of Heat Bed
G1 X0.1 Y20 Z0.3 F5000.0 ; Move to start position
G1 X0.1 Y200.0 Z0.3 F1500.0 E15 ; Draw the first line
G1 X0.4 Y200.0 Z0.3 F5000.0 ; Move to side a little
G1 X0.4 Y20 Z0.3 F1500.0 E30 ; Draw the second line
G92 E0 ; Reset Extruder
G1 Z2.0 F3000 ; Move Z Axis up little to prevent scratching of Heat Bed
G1 X5 Y20 Z0.3 F5000.0 ; Move over to prevent blob squish
G92 E0
G92 E0
G1 F2700 E-5
;LAYER_COUNT:40
;LAYER:0
M107
G0 F6000 X89.996 Y68.703 Z0.2
;TYPE:SKIRT
G1 F2700 E0
G1 F1200 X90.566 Y67.958 E0.0312
G1 X91.198 Y67.264 E0.06242
G1 X91.886 Y66.627 E0.0936
G1 X92.626 Y66.051 E0.12479
G1 X93.412 Y65.539 E0.15599
G1 X94.239 Y65.097 E0.18718
G1 X95.101 Y64.727 E0.21838
G1 X95.991 Y64.431 E0.24958
G1 X96.903 Y64.213 E0.28077
G1 X97.83 Y64.072 E0.31195
G1 X98.701 Y64.013 E0.34099
G1 X99.33 Y64 E0.36191
G1 X135.451 Y64.001 E1.5633
G1 X136.149 Y64.011 E1.58652
G1 X137.085 Y64.065 E1.6177
G1 X138.013 Y64.197 E1.64888
G1 X138.927 Y64.409 E1.68009
G1 X139.819 Y64.698 E1.71127
G1 X140.684 Y65.061 E1.74247
G1 X141.514 Y65.497 E1.77366
G1 X142.305 Y66.002 E1.80487
G1 X143.049 Y66.573 E1.83606
G1 X143.742 Y67.205 E1.86726
G1 X144.379 Y67.893 E1.89844
G1 X144.954 Y68.634 E1.92964
G1 X145.465 Y69.42 E1.96082
G1 X145.907 Y70.248 E1.99204
G1 X146.276 Y71.11 E2.02322
G1 X146.571 Y72 E2.05441
G1 X146.789 Y72.912 E2.0856
G1 X146.929 Y73.84 E2.11681
G1 X146.987 Y74.701 E2.14551
G1 X147 Y75.33 E2.16644
G1 X146.999 Y159.4 E4.96262
G1 X146.99 Y160.127 E4.9868
G1 X146.939 Y161.064 E5.01801
G1 X146.807 Y161.992 E5.04919
G1 X146.598 Y162.906 E5.08037
G1 X146.311 Y163.799 E5.11157
G1 X145.949 Y164.665 E5.14279
G1 X145.515 Y165.496 E5.17397
G1 X145.011 Y166.287 E5.20516
G1 X144.442 Y167.032 E5.23634
G1 X143.811 Y167.727 E5.26757
G1 X143.124 Y168.365 E5.29875
G1 X142.385 Y168.942 E5.32993
G1 X141.599 Y169.454 E5.36113
G1 X140.773 Y169.897 E5.39231
G1 X139.911 Y170.269 E5.42353
G1 X139.022 Y170.565 E5.4547
G1 X138.11 Y170.785 E5.4859
G1 X137.183 Y170.926 E5.51709
G1 X136.299 Y170.987 E5.54656
G1 X135.67 Y171 E5.56748
G1 X99.565 Y170.999 E6.76834
G1 X98.867 Y170.99 E6.79156
G1 X97.931 Y170.938 E6.82274
G1 X97.002 Y170.806 E6.85395
G1 X96.088 Y170.596 E6.88514
G1 X95.195 Y170.309 E6.91634
G1 X94.33 Y169.946 E6.94754
G1 X93.499 Y169.512 E6.97872
G1 X92.708 Y169.008 E7.00991
G1 X91.963 Y168.438 E7.04111
G1 X91.269 Y167.807 E7.07231
G1 X90.632 Y167.12 E7.10347
G1 X90.055 Y166.38 E7.13468
G1 X89.543 Y165.594 E7.16588
G1 X89.1 Y164.767 E7.19709
G1 X88.729 Y163.906 E7.22827
G1 X88.433 Y163.016 E7.25946
G1 X88.214 Y162.104 E7.29066
G1 X88.073 Y161.177 E7.32185
G1 X88.013 Y160.288 E7.35148
G1 X88 Y159.658 E7.37244
G1 X88.001 Y75.525 E10.17072
G1 X88.01 Y74.86 E10.19284
G1 X88.063 Y73.924 E10.22402
G1 X88.195 Y72.995 E10.25523
G1 X88.406 Y72.081 E10.28642
G1 X88.694 Y71.189 E10.3176
G1 X89.057 Y70.324 E10.3488
G1 X89.492 Y69.493 E10.38
G1 X89.996 Y68.703 E10.41117
G0 F6000 X90.392 Y68.835
G1 F1200 X90.961 Y68.111 E10.44179
G1 X91.589 Y67.439 E10.47238
G1 X92.274 Y66.823 E10.50303
G1 X93.01 Y66.27 E10.53364
G1 X93.791 Y65.782 E10.56427
G1 X94.611 Y65.364 E10.59489
G1 X95.465 Y65.019 E10.62552
G1 X96.345 Y64.749 E10.65614
G1 X97.245 Y64.557 E10.68674
G1 X98.159 Y64.443 E10.71738
G1 X98.712 Y64.413 E10.7358
G1 X99.33 Y64.4 E10.75636
G1 X135.293 Y64.4 E11.95249
G1 X136.143 Y64.411 E11.98077
G1 X137.062 Y64.464 E12.01138
G1 X137.973 Y64.597 E12.042
G1 X138.869 Y64.808 E12.07262
G1 X139.743 Y65.096 E12.10323
G1 X140.59 Y65.459 E12.13388
G1 X141.401 Y65.894 E12.16449
G1 X142.171 Y66.398 E12.1951
G1 X142.895 Y66.967 E12.22572
G1 X143.567 Y67.597 E12.25636
G1 X144.182 Y68.282 E12.28698
G1 X144.735 Y69.018 E12.3176
G1 X145.222 Y69.799 E12.34821
G1 X145.639 Y70.62 E12.37884
G1 X145.984 Y71.474 E12.40947
G1 X146.253 Y72.354 E12.44008
G1 X146.445 Y73.255 E12.47072
G1 X146.558 Y74.168 E12.50132
G1 X146.587 Y74.712 E12.51943
G1 X146.6 Y75.33 E12.53999
G1 X146.599 Y159.395 E15.33601
G1 X146.59 Y160.122 E15.36019
G1 X146.539 Y161.041 E15.3908
G1 X146.408 Y161.953 E15.42145
G1 X146.198 Y162.849 E15.45206
G1 X145.912 Y163.724 E15.48267
G1 X145.551 Y164.571 E15.5133
G1 X145.117 Y165.383 E15.54392
G1 X144.615 Y166.155 E15.57455
G1 X144.047 Y166.88 E15.60518
G1 X143.419 Y167.553 E15.6358
G1 X142.735 Y168.169 E15.66641
G1 X142 Y168.723 E15.69702
G1 X141.22 Y169.212 E15.72764
G1 X140.4 Y169.631 E15.75827
G1 X139.547 Y169.977 E15.78889
G1 X138.667 Y170.248 E15.81951
G1 X137.767 Y170.441 E15.85013
G1 X136.853 Y170.556 E15.88077
G1 X136.288 Y170.587 E15.89959
G1 X135.67 Y170.6 E15.92015
G1 X99.57 Y170.599 E17.12084
G1 X98.872 Y170.59 E17.14405
G1 X97.953 Y170.538 E17.17467
G1 X97.042 Y170.407 E17.20528
G1 X96.146 Y170.197 E17.23589
G1 X95.271 Y169.91 E17.26652
G1 X94.424 Y169.548 E17.29715
G1 X93.612 Y169.114 E17.32778
G1 X92.841 Y168.612 E17.35838
G1 X92.116 Y168.044 E17.38901
G1 X91.443 Y167.415 E17.41965
G1 X90.828 Y166.731 E17.45024
G1 X90.274 Y165.996 E17.48086
G1 X89.786 Y165.215 E17.51149
G1 X89.367 Y164.395 E17.54211
G1 X89.021 Y163.542 E17.57273
G1 X88.751 Y162.662 E17.60334
G1 X88.558 Y161.761 E17.63399
G1 X88.444 Y160.848 E17.66459
G1 X88.413 Y160.277 E17.68361
G1 X88.4 Y159.658 E17.70421
G1 X88.401 Y75.531 E20.50228
G1 X88.41 Y74.866 E20.5244
G1 X88.462 Y73.946 E20.55505
G1 X88.594 Y73.035 E20.58567
G1 X88.805 Y72.139 E20.61628
G1 X89.092 Y71.264 E20.64691
G1 X89.455 Y70.418 E20.67753
G1 X89.889 Y69.606 E20.70815
G1 X90.392 Y68.835 E20.73877
G0 F6000 X90.788 Y68.971
G1 F1200 X91.355 Y68.267 E20.76884
G1 X91.981 Y67.617 E20.79885
G1 X92.662 Y67.024 E20.82888
G1 X93.394 Y66.494 E20.85894
G1 X94.169 Y66.031 E20.88897
G1 X94.982 Y65.638 E20.919
G1 X95.827 Y65.318 E20.94906
G1 X96.696 Y65.075 E20.97907
G1 X97.584 Y64.909 E21.00911
G1 X98.723 Y64.813 E21.04713
G1 X99.33 Y64.8 E21.06732
G1 X135.293 Y64.8 E22.26346
G1 X136.137 Y64.811 E22.29153
G1 X137.039 Y64.864 E22.32159
G1 X137.932 Y64.996 E22.35161
G1 X138.81 Y65.207 E22.38164
G1 X139.666 Y65.495 E22.41168
G1 X140.493 Y65.857 E22.44171
G1 X141.285 Y66.292 E22.47176
G1 X142.036 Y66.794 E22.50181
G1 X142.739 Y67.361 E22.53185
G1 X143.389 Y67.988 E22.56188
G1 X143.981 Y68.67 E22.59192
G1 X144.511 Y69.401 E22.62195
G1 X144.973 Y70.177 E22.65199
G1 X145.366 Y70.99 E22.68202
G1 X145.684 Y71.835 E22.71205
G1 X145.927 Y72.705 E22.7421
G1 X146.092 Y73.593 E22.77214
G1 X146.187 Y74.723 E22.80985
G1 X146.2 Y75.33 E22.83005
G1 X146.199 Y159.39 E25.62589
G1 X146.19 Y160.117 E25.65008
G1 X146.139 Y161.019 E25.68013
G1 X146.008 Y161.913 E25.71018
G1 X145.799 Y162.791 E25.7402
G1 X145.513 Y163.648 E25.77024
G1 X145.152 Y164.476 E25.80029
G1 X144.72 Y165.268 E25.83029
G1 X144.219 Y166.02 E25.86035
G1 X143.653 Y166.724 E25.89039
G1 X143.028 Y167.375 E25.92041
G1 X142.347 Y167.969 E25.95046
G1 X141.616 Y168.5 E25.98051
G1 X140.842 Y168.964 E26.01053
G1 X140.029 Y169.358 E26.04058
G1 X139.185 Y169.678 E26.0706
G1 X138.315 Y169.923 E26.10066
G1 X137.428 Y170.089 E26.13068
G1 X136.277 Y170.187 E26.1691
G1 X135.67 Y170.2 E26.18929
G1 X99.575 Y170.199 E27.38981
G1 X98.877 Y170.19 E27.41303
G1 X97.976 Y170.139 E27.44305
G1 X97.082 Y170.007 E27.4731
G1 X96.204 Y169.798 E27.50312
G1 X95.347 Y169.511 E27.53318
G1 X94.52 Y169.15 E27.56319
G1 X93.727 Y168.717 E27.59325
G1 X92.976 Y168.216 E27.62327
G1 X92.272 Y167.65 E27.65332
G1 X91.621 Y167.024 E27.68336
G1 X91.028 Y166.343 E27.71339
G1 X90.498 Y165.612 E27.74342
G1 X90.034 Y164.837 E27.77346
G1 X89.64 Y164.024 E27.80351
G1 X89.32 Y163.18 E27.83353
G1 X89.076 Y162.31 E27.86359
G1 X88.91 Y161.422 E27.89363
G1 X88.813 Y160.267 E27.93218
G1 X88.8 Y159.658 E27.95244
G1 X88.801 Y75.536 E30.75035
G1 X88.81 Y74.871 E30.77247
G1 X88.862 Y73.969 E30.80252
G1 X88.994 Y73.076 E30.83255
G1 X89.204 Y72.198 E30.86257
G1 X89.491 Y71.341 E30.89263
G1 X89.853 Y70.514 E30.92266
G1 X90.286 Y69.722 E30.95268
G1 X90.788 Y68.971 E30.98273
G1 F2700 E25.98273
;MESH:Body1.stl
G0 F6000 X113.244 Y85.593
G0 X117.317 Y89.245
;TYPE:WALL-INNER
G1 F2700 E30.98273
G1 F1200 X116.577 Y89.141 E31.00758
G1 X115.861 Y88.904 E31.03267
G1 X115.244 Y88.57 E31.056
G1 X114.664 Y88.113 E31.08056
G1 X114.181 Y87.554 E31.10513
G1 X113.805 Y86.93 E31.12936
G1 X113.546 Y86.236 E31.154
G1 X113.416 Y85.512 E31.17847
G1 X113.414 Y84.834 E31.20102
G1 X113.416 Y84.78 E31.20281
G1 X113.543 Y84.057 E31.22723
G1 X113.806 Y83.361 E31.25198
G1 X114.177 Y82.74 E31.27603
G1 X114.663 Y82.18 E31.3007
G1 X115.244 Y81.719 E31.32536
G1 X115.886 Y81.374 E31.34961
G1 X116.618 Y81.142 E31.37515
G1 X117.318 Y81.046 E31.39865
G1 X118.052 Y81.08 E31.42308
G1 X118.765 Y81.241 E31.4474
G1 X119.449 Y81.534 E31.47215
G1 X120.056 Y81.935 E31.49634
G1 X120.592 Y82.449 E31.52104
G1 X121.019 Y83.037 E31.54521
G1 X121.343 Y83.708 E31.56999
G1 X121.536 Y84.418 E31.59447
G1 X121.603 Y85.144 E31.61872
G1 X121.535 Y85.88 E31.6433
G1 X121.342 Y86.585 E31.66761
G1 X121.018 Y87.251 E31.69224
G1 X120.586 Y87.846 E31.7167
G1 X120.055 Y88.354 E31.74114
G1 X119.45 Y88.754 E31.76526
G1 X118.772 Y89.046 E31.78982
G1 X118.069 Y89.206 E31.8138
G1 X117.317 Y89.245 E31.83884
G0 F6000 X117.346 Y88.843
;TYPE:WALL-OUTER
G1 F1200 X116.673 Y88.753 E31.86143
G1 X116.028 Y88.54 E31.88402
G1 X115.464 Y88.236 E31.90533
G1 X114.954 Y87.832 E31.92697
G1 X114.505 Y87.319 E31.94964
G1 X114.167 Y86.753 E31.97157
G1 X113.937 Y86.146 E31.99316
G1 X113.814 Y85.476 E32.01582
G1 X113.814 Y84.834 E32.03717
G1 X113.937 Y84.146 E32.06041
G1 X114.16 Y83.554 E32.08146
G1 X114.516 Y82.959 E32.10452
G1 X114.954 Y82.46 E32.1266
G1 X115.479 Y82.047 E32.14882
G1 X116.061 Y81.738 E32.17073
G1 X116.694 Y81.535 E32.19284
G1 X117.317 Y81.45 E32.21376
G1 X118.015 Y81.482 E32.237
G1 X118.623 Y81.619 E32.25773
G1 X119.271 Y81.896 E32.28116
G1 X119.82 Y82.262 E32.30311
G1 X120.273 Y82.697 E32.324
G1 X120.684 Y83.262 E32.34724
G1 X120.958 Y83.831 E32.36824
G1 X121.142 Y84.485 E32.39084
G1 X121.2 Y85.162 E32.41344
G1 X121.141 Y85.808 E32.43501
G1 X120.965 Y86.445 E32.45699
G1 X120.684 Y87.029 E32.47855
G1 X120.285 Y87.582 E32.50123
G1 X119.806 Y88.041 E32.5233
G1 X119.253 Y88.406 E32.54533
G1 X118.644 Y88.667 E32.56737
G1 X118.004 Y88.812 E32.5892
G1 X117.346 Y88.843 E32.61111
G1 F2700 E27.61111
G0 F6000 X117.358 Y89.142
G0 X117.348 Y89.423
G0 X117.68 Y106.723
G0 X116.815 Y120.065
;TYPE:WALL-INNER
G1 F2700 E32.61111
G1 F1200 X115.902 Y119.907 E32.64192
G1 X115.067 Y119.634 E32.67114
G1 X114.199 Y119.217 E32.70317
G1 X113.446 Y118.71 E32.73336
G1 X112.749 Y118.087 E32.76446
G1 X112.192 Y117.421 E32.79333
G1 X111.677 Y116.612 E32.82523
G1 X111.297 Y115.759 E32.85629
G1 X111.039 Y114.852 E32.88765
G1 X110.921 Y114.015 E32.91577
G1 X110.915 Y113.083 E32.94677
G1 X110.92 Y112.998 E32.9496
G1 X111.036 Y112.168 E32.97747
G1 X111.296 Y111.242 E33.00946
G1 X111.669 Y110.403 E33.04
G1 X112.159 Y109.62 E33.07072
G1 X112.749 Y108.915 E33.1013
G1 X113.438 Y108.296 E33.13211
G1 X114.199 Y107.783 E33.16263
G1 X115.017 Y107.385 E33.19289
G1 X115.921 Y107.09 E33.22451
G1 X116.839 Y106.933 E33.25549
G1 X117.712 Y106.904 E33.28454
G1 X118.641 Y106.998 E33.3156
G1 X119.524 Y107.219 E33.34587
G1 X120.379 Y107.56 E33.37649
G1 X121.189 Y108.027 E33.40759
G1 X121.917 Y108.595 E33.4383
G1 X122.556 Y109.256 E33.46888
G1 X123.097 Y110 E33.49947
G1 X123.538 Y110.829 E33.5307
G1 X123.843 Y111.67 E33.56046
G1 X124.038 Y112.583 E33.59151
G1 X124.102 Y113.488 E33.62169
G1 X124.034 Y114.438 E33.65336
G1 X123.849 Y115.316 E33.68321
G1 X123.55 Y116.132 E33.71211
G1 X123.1 Y116.996 E33.74451
G1 X122.556 Y117.744 E33.77528
G1 X121.917 Y118.405 E33.80585
G1 X121.192 Y118.971 E33.83645
G1 X120.392 Y119.434 E33.86719
G1 X119.578 Y119.762 E33.89638
G1 X118.687 Y119.993 E33.92699
G1 X117.747 Y120.095 E33.95844
G1 X116.815 Y120.065 E33.98945
G0 F6000 X116.855 Y119.667
;TYPE:WALL-OUTER
G1 F1200 X116.002 Y119.518 E34.01826
G1 X115.191 Y119.254 E34.04662
G1 X114.398 Y118.87 E34.07593
G1 X113.692 Y118.394 E34.10425
G1 X113.029 Y117.797 E34.13392
G1 X112.483 Y117.142 E34.16228
G1 X112.036 Y116.431 E34.19022
G1 X111.669 Y115.607 E34.22022
G1 X111.432 Y114.776 E34.24896
G1 X111.317 Y113.959 E34.2764
G1 X111.315 Y113.083 E34.30554
G1 X111.438 Y112.196 E34.33532
G1 X111.669 Y111.393 E34.36311
G1 X112.031 Y110.578 E34.39277
G1 X112.493 Y109.844 E34.42162
G1 X113.029 Y109.203 E34.44941
G1 X113.684 Y108.612 E34.47875
G1 X114.398 Y108.13 E34.50741
G1 X115.191 Y107.746 E34.53671
G1 X115.997 Y107.483 E34.56491
G1 X116.858 Y107.333 E34.59398
G1 X117.729 Y107.305 E34.62296
G1 X118.577 Y107.393 E34.65132
G1 X119.418 Y107.605 E34.68016
G1 X120.23 Y107.932 E34.70928
G1 X120.954 Y108.351 E34.7371
G1 X121.649 Y108.893 E34.76642
G1 X122.256 Y109.524 E34.79554
G1 X122.765 Y110.227 E34.8244
G1 X123.177 Y111.006 E34.85371
G1 X123.461 Y111.793 E34.88154
G1 X123.642 Y112.651 E34.91071
G1 X123.7 Y113.502 E34.93908
G1 X123.64 Y114.369 E34.96798
G1 X123.465 Y115.194 E34.99603
G1 X123.163 Y116.019 E35.02525
G1 X122.75 Y116.797 E35.05455
G1 X122.256 Y117.476 E35.08248
G1 X121.639 Y118.116 E35.11205
G1 X120.957 Y118.647 E35.14079
G1 X120.23 Y119.068 E35.16874
G1 X119.416 Y119.396 E35.19792
G1 X118.599 Y119.603 E35.22596
G1 X117.728 Y119.696 E35.25509
G1 X116.855 Y119.667 E35.28414
G1 F2700 E30.28414
G0 F6000 X116.85 Y120.168
G0 X117.68 Y120.277
G0 X117.381 Y145.577
G0 X117.312 Y153.953
;TYPE:WALL-INNER
G1 F2700 E35.28414
G1 F1200 X116.588 Y153.854 E35.30845
G1 X115.884 Y153.625 E35.33307
G1 X115.244 Y153.28 E35.35725
G1 X114.664 Y152.821 E35.38185
G1 X114.177 Y152.26 E35.40656
G1 X113.806 Y151.639 E35.43062
G1 X113.543 Y150.943 E35.45537
G1 X113.416 Y150.22 E35.47978
G1 X113.414 Y149.542 E35.50233
G1 X113.423 Y149.435 E35.50591
G1 X113.546 Y148.764 E35.5286
G1 X113.807 Y148.072 E35.55319
G1 X114.181 Y147.446 E35.57745
G1 X114.665 Y146.89 E35.60197
G1 X115.244 Y146.427 E35.62662
G1 X115.904 Y146.077 E35.65147
G1 X116.561 Y145.863 E35.67445
G1 X117.303 Y145.759 E35.69937
G1 X118.057 Y145.789 E35.72447
G1 X118.786 Y145.959 E35.74937
G1 X119.46 Y146.251 E35.7738
G1 X120.055 Y146.646 E35.79755
G1 X120.588 Y147.152 E35.822
G1 X121.02 Y147.745 E35.8464
G1 X121.339 Y148.414 E35.87105
G1 X121.535 Y149.119 E35.89539
G1 X121.603 Y149.852 E35.91987
G1 X121.536 Y150.584 E35.94432
G1 X121.343 Y151.292 E35.96873
G1 X121.02 Y151.96 E35.99341
G1 X120.589 Y152.553 E36.01779
G1 X120.056 Y153.065 E36.04237
G1 X119.449 Y153.466 E36.06657
G1 X118.765 Y153.759 E36.09132
G1 X118.075 Y153.914 E36.11484
G1 X117.312 Y153.953 E36.14025
G0 F6000 X117.317 Y153.55
;TYPE:WALL-OUTER
G1 F1200 X116.694 Y153.465 E36.16116
G1 X116.028 Y153.248 E36.18446
G1 X115.48 Y152.953 E36.20516
G1 X114.954 Y152.54 E36.2274
G1 X114.516 Y152.041 E36.24948
G1 X114.16 Y151.446 E36.27255
G1 X113.937 Y150.854 E36.29359
G1 X113.814 Y150.184 E36.31624
G1 X113.814 Y149.542 E36.3376
G1 X113.932 Y148.871 E36.36026
G1 X114.167 Y148.246 E36.38246
G1 X114.505 Y147.681 E36.40436
G1 X114.954 Y147.168 E36.42704
G1 X115.464 Y146.764 E36.44868
G1 X116.028 Y146.46 E36.46999
G1 X116.677 Y146.246 E36.49272
G1 X117.331 Y146.158 E36.51467
G1 X117.989 Y146.186 E36.53657
G1 X118.638 Y146.331 E36.55869
G1 X119.25 Y146.592 E36.58082
G1 X119.806 Y146.959 E36.60297
G1 X120.273 Y147.405 E36.62445
G1 X120.675 Y147.954 E36.64708
G1 X120.965 Y148.555 E36.66928
G1 X121.141 Y149.191 E36.69123
G1 X121.2 Y149.87 E36.7139
G1 X121.142 Y150.515 E36.73544
G1 X120.958 Y151.169 E36.75803
G1 X120.684 Y151.737 E36.77901
G1 X120.273 Y152.303 E36.80227
G1 X119.82 Y152.738 E36.82316
G1 X119.271 Y153.104 E36.84511
G1 X118.623 Y153.381 E36.86855
G1 X118.006 Y153.52 E36.88958
G1 X117.317 Y153.55 E36.91252
G1 F2700 E31.91252
G0 F6000 X117.466 Y154.046
G0 X115.882 Y153.814
G0 X115.882 Y159.58
G0 X99.6 Y159.4
;TYPE:WALL-INNER
G1 F2700 E36.91252
G1 F1200 X135.4 Y159.4 E38.10323
G1 X135.4 Y75.6 E40.89043
