;FLAVOR:Marlin
;TIME:17234
;Filament used: 13.8783m
;Layer height: 0.2
;MINX:58.959
;MINY:44.832
;MINZ:0.2
;MAXX:192.075
;MAXY:189.532
;MAXZ:12
;Generated with Cura_SteamEngine 5.2.1
M140 S60
M105
M190 S60
M104 S210
M105
M109 S210
M82 ;absolute extrusion mode
; Ender 3 Custom Start G-code
G92 E0 ; Reset Extruder
G28 ; Home all axes
G1 Z2.0 F3000 ; Move Z Axis up little to prevent scratching of Heat Bed
G1 X0.1 Y20 Z0.3 F5000.0 ; Move to start position
G1 X0.1 Y200.0 Z0.3 F1500.0 E15 ; Draw the first line
G1 X0.4 Y200.0 Z0.3 F5000.0 ; Move to side a little
G1 X0.4 Y20 Z0.3 F1500.0 E30 ; Draw the second line
G92 E0 ; Reset Extruder
G1 Z2.0 F3000 ; Move Z Axis up little to prevent scratching of Heat Bed
G1 X5 Y20 Z0.3 F5000.0 ; Move over to prevent blob squish
G92 E0
G92 E0
G1 F2700 E-5
;LAYER_COUNT:60
;LAYER:0
M107
G0 F6000 X76.653 Y50.177 Z0.2
;TYPE:SKIRT
G1 F2700 E0
G1 F1200 X77.17 Y49.394 E0.03121
G1 X77.752 Y48.658 E0.06242
G1 X78.394 Y47.975 E0.09359
G1 X79.092 Y47.349 E0.12478
G1 X79.841 Y46.784 E0.15598
G1 X80.635 Y46.285 E0.18717
G1 X81.469 Y45.856 E0.21837
G1 X82.336 Y45.499 E0.24955
G1 X83.231 Y45.218 E0.28075
G1 X84.146 Y45.014 E0.31193
G1 X85.076 Y44.888 E0.34315
G1 X85.742 Y44.847 E0.36534
G1 X86.405 Y44.832 E0.3874
G1 X180.526 Y44.833 E3.51787
G1 X181.224 Y44.843 E3.54109
G1 X182.16 Y44.897 E3.57228
G1 X183.088 Y45.029 E3.60345
G1 X184.002 Y45.241 E3.63466
G1 X184.894 Y45.53 E3.66584
G1 X185.759 Y45.893 E3.69705
G1 X186.589 Y46.329 E3.72823
G1 X187.38 Y46.834 E3.75944
G1 X188.124 Y47.405 E3.79064
G1 X188.817 Y48.037 E3.82183
G1 X189.454 Y48.725 E3.85302
G1 X190.029 Y49.466 E3.88421
G1 X190.54 Y50.252 E3.91539
G1 X190.982 Y51.08 E3.94661
G1 X191.351 Y51.942 E3.9778
G1 X191.646 Y52.832 E4.00898
G1 X191.864 Y53.744 E4.04017
G1 X192.004 Y54.672 E4.07138
G1 X192.062 Y55.533 E4.10009
G1 X192.075 Y56.162 E4.12101
G1 X192.074 Y177.932 E8.1711
G1 X192.065 Y178.659 E8.19528
G1 X192.014 Y179.596 E8.22649
G1 X191.882 Y180.524 E8.25767
G1 X191.673 Y181.438 E8.28885
G1 X191.386 Y182.331 E8.32005
G1 X191.024 Y183.197 E8.35127
G1 X190.59 Y184.028 E8.38245
G1 X190.086 Y184.819 E8.41364
G1 X189.517 Y185.564 E8.44482
G1 X188.886 Y186.259 E8.47605
G1 X188.199 Y186.897 E8.50723
G1 X187.46 Y187.474 E8.53841
G1 X186.674 Y187.986 E8.56961
G1 X185.848 Y188.429 E8.60079
G1 X184.986 Y188.801 E8.63201
G1 X184.097 Y189.097 E8.66318
G1 X183.185 Y189.317 E8.69438
G1 X182.258 Y189.458 E8.72557
G1 X181.374 Y189.519 E8.75504
G1 X180.745 Y189.532 E8.77596
G1 X86.625 Y189.531 E11.90641
G1 X85.926 Y189.521 E11.92966
G1 X84.989 Y189.467 E11.96088
G1 X84.061 Y189.335 E11.99205
G1 X83.147 Y189.123 E12.02326
G1 X82.255 Y188.834 E12.05444
G1 X81.39 Y188.471 E12.08565
G1 X80.56 Y188.035 E12.11683
G1 X79.77 Y187.53 E12.14801
G1 X79.025 Y186.959 E12.17923
G1 X78.332 Y186.327 E12.21043
G1 X77.695 Y185.639 E12.24161
G1 X77.12 Y184.898 E12.27281
G1 X76.609 Y184.112 E12.30399
G1 X76.167 Y183.284 E12.33521
G1 X75.798 Y182.423 E12.36636
G1 X75.525 Y181.609 E12.39492
G1 X75.33 Y180.942 E12.41803
G1 X74.579 Y178.495 E12.50317
G1 X73.771 Y176.108 E12.58698
G1 X72.895 Y173.743 E12.67087
G1 X71.963 Y171.427 E12.7539
G1 X70.946 Y169.097 E12.83846
G1 X69.87 Y166.806 E12.92264
G1 X68.747 Y164.583 E13.00548
G1 X67.55 Y162.371 E13.08913
G1 X66.279 Y160.172 E13.17361
G1 X64.966 Y158.045 E13.25675
G1 X63.579 Y155.929 E13.3409
G1 X62.147 Y153.879 E13.42407
G1 X61.045 Y152.366 E13.48632
G1 X60.529 Y151.582 E13.51754
G1 X60.082 Y150.757 E13.54875
G1 X59.708 Y149.898 E13.57991
G1 X59.407 Y149.009 E13.61113
G1 X59.184 Y148.098 E13.64232
G1 X59.039 Y147.172 E13.6735
G1 X58.974 Y146.27 E13.70357
G1 X58.959 Y145.607 E13.72563
G1 X58.96 Y143.486 E13.79618
G1 X58.985 Y141.741 E13.85422
G1 X58.999 Y141.228 E13.87129
G1 X59.003 Y138.661 E13.95667
G1 X58.959 Y136.602 E14.02517
G1 X58.96 Y93.487 E15.45918
G1 X58.985 Y91.741 E15.51726
G1 X58.999 Y91.228 E15.53432
G1 X59.003 Y88.662 E15.61967
G1 X58.959 Y86.602 E15.6882
G1 X58.96 Y84.457 E15.75954
G1 X58.97 Y83.779 E15.7821
G1 X59.024 Y82.842 E15.81331
G1 X59.157 Y81.914 E15.84449
G1 X59.369 Y81.001 E15.87567
G1 X59.658 Y80.108 E15.90689
G1 X60.022 Y79.244 E15.93807
G1 X60.459 Y78.414 E15.96927
G1 X60.964 Y77.624 E16.00045
G1 X61.308 Y77.159 E16.01969
G1 X61.947 Y76.343 E16.05416
G1 X62.518 Y75.634 E16.08444
G1 X64.04 Y73.632 E16.16809
G1 X65.499 Y71.593 E16.25148
G1 X66.919 Y69.488 E16.33593
G1 X68.259 Y67.374 E16.41918
G1 X69.535 Y65.229 E16.50219
G1 X70.781 Y62.993 E16.58733
G1 X71.938 Y60.771 E16.67065
G1 X73.028 Y58.525 E16.75368
G1 X74.069 Y56.219 E16.83783
G1 X75.051 Y53.861 E16.92279
G1 X75.828 Y51.86 E16.99419
G1 X76.205 Y51.001 E17.02539
G1 X76.653 Y50.177 E17.05658
G0 F6000 X77.013 Y50.354
G1 F1200 X77.524 Y49.588 E17.08721
G1 X78.099 Y48.869 E17.11783
G1 X78.734 Y48.202 E17.14846
G1 X79.425 Y47.593 E17.17909
G1 X80.165 Y47.047 E17.20968
G1 X80.951 Y46.567 E17.24031
G1 X81.775 Y46.156 E17.27094
G1 X82.632 Y45.819 E17.30157
G1 X83.515 Y45.558 E17.33219
G1 X84.417 Y45.374 E17.36281
G1 X85.754 Y45.247 E17.40748
G1 X86.405 Y45.232 E17.42914
G1 X180.52 Y45.233 E20.55942
G1 X181.218 Y45.243 E20.58263
G1 X182.137 Y45.296 E20.61325
G1 X183.048 Y45.429 E20.64387
G1 X183.944 Y45.64 E20.67449
G1 X184.818 Y45.928 E20.70509
G1 X185.665 Y46.291 E20.73574
G1 X186.476 Y46.726 E20.76635
G1 X187.246 Y47.23 E20.79696
G1 X187.97 Y47.799 E20.82759
G1 X188.642 Y48.429 E20.85823
G1 X189.257 Y49.114 E20.88884
G1 X189.81 Y49.85 E20.91946
G1 X190.297 Y50.631 E20.95008
G1 X190.714 Y51.452 E20.9807
G1 X191.059 Y52.306 E21.01134
G1 X191.328 Y53.186 E21.04194
G1 X191.52 Y54.087 E21.07258
G1 X191.633 Y55 E21.10318
G1 X191.662 Y55.544 E21.1213
G1 X191.675 Y56.162 E21.14186
G1 X191.674 Y177.927 E25.19178
G1 X191.665 Y178.654 E25.21596
G1 X191.614 Y179.573 E25.24658
G1 X191.483 Y180.485 E25.27722
G1 X191.273 Y181.381 E25.30783
G1 X190.987 Y182.256 E25.33845
G1 X190.626 Y183.103 E25.36907
G1 X190.192 Y183.915 E25.39969
G1 X189.69 Y184.687 E25.43032
G1 X189.122 Y185.412 E25.46095
G1 X188.494 Y186.085 E25.49157
G1 X187.81 Y186.701 E25.52218
G1 X187.075 Y187.255 E25.5528
G1 X186.295 Y187.744 E25.58342
G1 X185.475 Y188.163 E25.61404
G1 X184.622 Y188.509 E25.64466
G1 X183.742 Y188.78 E25.67529
G1 X182.842 Y188.973 E25.7059
G1 X181.928 Y189.088 E25.73654
G1 X181.363 Y189.119 E25.75536
G1 X180.745 Y189.132 E25.77592
G1 X86.63 Y189.131 E28.9062
G1 X85.931 Y189.121 E28.92945
G1 X85.012 Y189.068 E28.96007
G1 X84.101 Y188.935 E28.99069
G1 X83.205 Y188.724 E29.0213
G1 X82.331 Y188.436 E29.05191
G1 X81.485 Y188.073 E29.08253
G1 X80.673 Y187.638 E29.11317
G1 X79.903 Y187.134 E29.14378
G1 X79.179 Y186.565 E29.1744
G1 X78.507 Y185.936 E29.20502
G1 X77.892 Y185.25 E29.23566
G1 X77.339 Y184.514 E29.26628
G1 X76.852 Y183.733 E29.29689
G1 X76.435 Y182.912 E29.32752
G1 X76.09 Y182.058 E29.35815
G1 X75.909 Y181.497 E29.37776
G1 X75.723 Y180.862 E29.39977
G1 X74.954 Y178.355 E29.48698
G1 X74.153 Y175.99 E29.57003
G1 X73.265 Y173.592 E29.65508
G1 X72.324 Y171.255 E29.73888
G1 X71.317 Y168.946 E29.82266
G1 X70.231 Y166.635 E29.90759
G1 X69.099 Y164.392 E29.99115
G1 X67.897 Y162.171 E30.07515
G1 X66.631 Y159.983 E30.15923
G1 X65.292 Y157.812 E30.24406
G1 X63.914 Y155.71 E30.32766
G1 X62.464 Y153.634 E30.41188
G1 X61.926 Y152.905 E30.44202
G1 X61.369 Y152.132 E30.47371
G1 X60.864 Y151.362 E30.50433
G1 X60.427 Y150.552 E30.53495
G1 X60.063 Y149.706 E30.56558
G1 X59.773 Y148.832 E30.59621
G1 X59.56 Y147.937 E30.62681
G1 X59.425 Y147.026 E30.65744
G1 X59.374 Y146.258 E30.68304
G1 X59.359 Y145.607 E30.70469
G1 X59.36 Y143.492 E30.77504
G1 X59.399 Y141.205 E30.85112
G1 X59.403 Y138.653 E30.936
G1 X59.359 Y136.602 E31.00423
G1 X59.36 Y93.492 E32.43807
G1 X59.399 Y91.203 E32.51422
G1 X59.403 Y88.654 E32.599
G1 X59.359 Y86.602 E32.66726
G1 X59.36 Y84.463 E32.73841
G1 X59.37 Y83.785 E32.76096
G1 X59.424 Y82.866 E32.79158
G1 X59.557 Y81.955 E32.8222
G1 X59.768 Y81.059 E32.85281
G1 X60.057 Y80.184 E32.88346
G1 X60.42 Y79.338 E32.91408
G1 X60.856 Y78.527 E32.94471
G1 X61.623 Y77.406 E32.98988
G1 X62.262 Y76.59 E33.02436
G1 X62.835 Y75.878 E33.05475
G1 X64.352 Y73.884 E33.13809
G1 X65.84 Y71.804 E33.22315
G1 X67.245 Y69.721 E33.30671
G1 X68.598 Y67.587 E33.39075
G1 X69.895 Y65.406 E33.47515
G1 X71.113 Y63.221 E33.55835
G1 X72.302 Y60.937 E33.644
G1 X73.395 Y58.685 E33.72726
G1 X74.431 Y56.388 E33.81107
G1 X75.421 Y54.011 E33.89671
G1 X76.201 Y52.004 E33.96832
G1 X76.571 Y51.161 E33.99894
G1 X77.013 Y50.354 E34.02955
G0 F6000 X77.373 Y50.532
G1 F1200 X77.877 Y49.782 E34.0596
G1 X78.446 Y49.08 E34.08966
G1 X79.074 Y48.431 E34.11969
G1 X79.757 Y47.84 E34.14974
G1 X80.489 Y47.312 E34.17975
G1 X81.266 Y46.851 E34.2098
G1 X82.08 Y46.46 E34.23984
G1 X82.925 Y46.143 E34.26986
G1 X83.796 Y45.902 E34.29991
G1 X84.684 Y45.738 E34.32995
G1 X85.766 Y45.647 E34.36606
G1 X86.405 Y45.632 E34.38732
G1 X180.514 Y45.633 E37.5174
G1 X181.212 Y45.643 E37.54062
G1 X182.114 Y45.696 E37.57067
G1 X183.007 Y45.828 E37.60069
G1 X183.885 Y46.039 E37.63073
G1 X184.741 Y46.327 E37.66077
G1 X185.568 Y46.689 E37.69079
G1 X186.36 Y47.124 E37.72085
G1 X187.111 Y47.626 E37.75089
G1 X187.814 Y48.193 E37.78093
G1 X188.464 Y48.82 E37.81097
G1 X189.056 Y49.502 E37.84101
G1 X189.586 Y50.233 E37.87104
G1 X190.048 Y51.009 E37.90108
G1 X190.441 Y51.822 E37.93111
G1 X190.759 Y52.667 E37.96114
G1 X191.002 Y53.537 E37.99118
G1 X191.167 Y54.425 E38.02122
G1 X191.262 Y55.555 E38.05894
G1 X191.275 Y56.162 E38.07913
G1 X191.274 Y177.922 E42.12889
G1 X191.265 Y178.649 E42.15307
G1 X191.214 Y179.551 E42.18312
G1 X191.083 Y180.445 E42.21317
G1 X190.874 Y181.323 E42.24319
G1 X190.588 Y182.18 E42.27324
G1 X190.227 Y183.008 E42.30328
G1 X189.795 Y183.8 E42.33329
G1 X189.294 Y184.552 E42.36334
G1 X188.728 Y185.256 E42.39338
G1 X188.103 Y185.907 E42.4234
G1 X187.422 Y186.501 E42.45346
G1 X186.691 Y187.032 E42.48351
G1 X185.917 Y187.496 E42.51352
G1 X185.104 Y187.89 E42.54357
G1 X184.26 Y188.21 E42.57359
G1 X183.39 Y188.455 E42.60365
G1 X182.503 Y188.621 E42.63367
G1 X181.352 Y188.719 E42.67209
G1 X180.745 Y188.732 E42.69228
G1 X86.636 Y188.731 E45.82236
G1 X85.937 Y188.721 E45.84561
G1 X85.036 Y188.668 E45.87563
G1 X84.142 Y188.536 E45.90569
G1 X83.264 Y188.325 E45.93572
G1 X82.408 Y188.037 E45.96576
G1 X81.581 Y187.675 E45.99579
G1 X80.789 Y187.241 E46.02582
G1 X80.038 Y186.738 E46.05589
G1 X79.335 Y186.171 E46.08593
G1 X78.685 Y185.544 E46.11596
G1 X78.093 Y184.862 E46.146
G1 X77.564 Y184.131 E46.17601
G1 X77.101 Y183.355 E46.20607
G1 X76.709 Y182.542 E46.23609
G1 X76.293 Y181.384 E46.27701
G1 X76.125 Y180.808 E46.29697
G1 X75.332 Y178.225 E46.38684
G1 X74.531 Y175.859 E46.46992
G1 X73.635 Y173.44 E46.55572
G1 X72.691 Y171.094 E46.63982
G1 X71.688 Y168.794 E46.72328
G1 X70.593 Y166.463 E46.80894
G1 X69.442 Y164.186 E46.8938
G1 X68.246 Y161.974 E46.97743
G1 X66.976 Y159.778 E47.06181
G1 X65.651 Y157.63 E47.14575
G1 X64.233 Y155.468 E47.23174
G1 X62.811 Y153.432 E47.31434
G1 X62.322 Y152.77 E47.34172
G1 X61.694 Y151.898 E47.37746
G1 X61.199 Y151.143 E47.40749
G1 X60.772 Y150.346 E47.43756
G1 X60.418 Y149.516 E47.46757
G1 X60.139 Y148.657 E47.49761
G1 X59.937 Y147.777 E47.52764
G1 X59.813 Y146.882 E47.55769
G1 X59.774 Y146.246 E47.57889
G1 X59.759 Y145.607 E47.60015
G1 X59.76 Y143.498 E47.67029
G1 X59.799 Y141.217 E47.74617
G1 X59.803 Y138.644 E47.83175
G1 X59.759 Y136.602 E47.89968
G1 X59.76 Y93.498 E49.33332
G1 X59.799 Y91.216 E49.40924
G1 X59.803 Y88.645 E49.49475
G1 X59.759 Y86.602 E49.56271
G1 X59.76 Y84.469 E49.63366
G1 X59.77 Y83.791 E49.65621
G1 X59.823 Y82.889 E49.68626
G1 X59.956 Y81.996 E49.71629
G1 X60.168 Y81.118 E49.74633
G1 X60.456 Y80.262 E49.77637
G1 X60.818 Y79.435 E49.8064
G1 X61.253 Y78.643 E49.83645
G1 X61.938 Y77.652 E49.87652
G1 X62.577 Y76.836 E49.91099
G1 X63.149 Y76.125 E49.94134
G1 X64.679 Y74.113 E50.02541
G1 X66.164 Y72.038 E50.11028
G1 X67.57 Y69.953 E50.19392
G1 X68.962 Y67.759 E50.28034
G1 X70.23 Y65.627 E50.36285
G1 X71.474 Y63.395 E50.44784
G1 X72.645 Y61.146 E50.53217
G1 X73.761 Y58.846 E50.6172
G1 X74.795 Y56.553 E50.70086
G1 X75.804 Y54.133 E50.78806
G1 X76.574 Y52.149 E50.85885
G1 X76.938 Y51.323 E50.88887
G1 X77.373 Y50.532 E50.91889
G1 F2700 E45.91889
G0 F6000 X69.306 Y83.284
G0 X69.306 Y96.59
G0 X73.759 Y100.072
G0 X73.759 Y100.537
G1 F2700 E50.91889
G1 F1200 X78.159 Y100.537 E51.06524
G1 X78.159 Y129.337 E52.02313
G1 X73.759 Y129.337 E52.16948
G1 X73.759 Y100.537 E53.12737
G0 F6000 X73.359 Y100.137
G1 F1200 X78.559 Y100.137 E53.30032
G1 X78.559 Y129.737 E54.28482
G1 X73.359 Y129.737 E54.45777
G1 X73.359 Y100.137 E55.44227
G0 F6000 X72.959 Y99.737
G1 F1200 X78.959 Y99.737 E55.64183
G1 X78.959 Y130.137 E56.65294
G1 X72.959 Y130.137 E56.8525
G1 X72.959 Y99.737 E57.86361
G0 F6000 X72.559 Y99.337
G1 F1200 X79.359 Y99.337 E58.08978
G1 X79.359 Y130.537 E59.1275
G1 X72.559 Y130.537 E59.35366
G1 X72.559 Y99.337 E60.39138
G0 F6000 X72.159 Y98.937
G1 F1200 X79.759 Y98.937 E60.64416
G1 X79.759 Y130.937 E61.70848
G1 X72.159 Y130.937 E61.96126
G1 X72.159 Y98.937 E63.02558
G0 F6000 X71.759 Y98.537
G1 F1200 X80.159 Y98.537 E63.30497
G1 X80.159 Y131.337 E64.3959
G1 X71.759 Y131.337 E64.67529
G1 X71.759 Y98.537 E65.76622
G0 F6000 X71.359 Y98.137
G1 F1200 X80.559 Y98.137 E66.07221
G1 X80.559 Y131.737 E67.18975
G1 X71.359 Y131.737 E67.49575
G1 X71.359 Y98.137 E68.61329
G0 F6000 X70.959 Y97.737
G1 F1200 X80.959 Y97.737 E68.94589
G1 X80.959 Y132.137 E70.09004
G1 X70.959 Y132.137 E70.42264
G1 X70.959 Y97.737 E71.56679
G0 F6000 X70.559 Y97.337
G1 F1200 X81.359 Y97.337 E71.926
G1 X81.359 Y132.537 E73.09675
G1 X70.559 Y132.537 E73.45596
G1 X70.559 Y97.337 E74.62672
G0 F6000 X70.159 Y96.937
G1 F1200 X81.759 Y96.937 E75.01254
G1 X81.759 Y132.937 E76.2099
G1 X70.159 Y132.937 E76.59572
G1 X70.159 Y96.937 E77.79308
G1 F2700 E72.79308
G0 F6000 X73.294 Y100.817
G0 X74.039 Y100.817
;TYPE:SUPPORT
G1 F2700 E77.79308
G1 F1200 X74.039 Y129.057 E78.73235
G1 X77.879 Y129.057 E78.86007
G1 X77.879 Y100.817 E79.79933
G1 X74.039 Y100.817 E79.92705
G0 F6000 X74.119 Y102
G1 F1200 X77.799 Y102 E80.04945
G0 F6000 X77.799 Y104
G1 F1200 X74.119 Y104 E80.17185
G0 F6000 X74.119 Y106
G1 F1200 X77.799 Y106 E80.29425
G0 F6000 X77.799 Y108
G1 F1200 X74.119 Y108 E80.41664
G0 F6000 X74.119 Y110
G1 F1200 X77.799 Y110 E80.53904
G0 F6000 X77.799 Y112
G1 F1200 X74.119 Y112 E80.66144
G0 F6000 X74.119 Y114
G1 F1200 X77.799 Y114 E80.78383
G0 F6000 X77.799 Y116
G1 F1200 X74.119 Y116 E80.90623
G0 F6000 X74.119 Y118
G1 F1200 X77.799 Y118 E81.02863
G0 F6000 X77.798 Y120
G1 F1200 X74.118 Y120 E81.15103
G0 F6000 X74.118 Y122
G1 F1200 X77.798 Y122 E81.27342
G0 F6000 X77.798 Y124
G1 F1200 X74.118 Y124 E81.39582
G0 F6000 X74.118 Y126
G1 F1200 X77.798 Y126 E81.51822
G0 F6000 X77.798 Y128
G1 F1200 X74.118 Y128 E81.64062
G0 F6000 X76 Y128.977
G1 F1200 X76 Y100.897 E82.57456
G1 F2700 E77.57456
;MESH:Handle.stl
G0 F6000 X76 Y100.072
G0 X76 Y96.602
G0 X81.359 Y95.337
;TYPE:WALL-INNER
G1 F2700 E82.57456
G1 F1200 X81.359 Y84.537 E82.93377
G1 X70.56 Y84.538 E83.29295
G1 X70.559 Y86.337 E83.35278
G1 X70.959 Y86.337 E83.36609
G1 X71.173 Y86.376 E83.37332
G1 X71.384 Y86.512 E83.38167
G1 X71.506 Y86.688 E83.38879
G1 X71.56 Y86.877 E83.39533
G1 X71.555 Y93.017 E83.59955
G1 X71.506 Y93.185 E83.60537
G1 X71.384 Y93.362 E83.61252
G1 X71.173 Y93.498 E83.62087
G1 X70.959 Y93.537 E83.6281
G1 X70.559 Y93.537 E83.64141
G1 X70.56 Y95.336 E83.70124
G1 X81.359 Y95.337 E84.06042
G0 F6000 X81.759 Y95.737
;TYPE:WALL-OUTER
G1 F1200 X81.759 Y84.137 E84.44623
G1 X70.16 Y84.138 E84.83202
G1 X70.159 Y86.737 E84.91846
G1 X71.011 Y86.737 E84.9468
G1 X71.101 Y86.795 E84.95036
G1 X71.158 Y86.91 E84.95463
G1 X71.158 Y92.964 E85.15599
G1 X71.101 Y93.079 E85.16026
G1 X71.011 Y93.137 E85.16382
G1 X70.159 Y93.137 E85.19215
G1 X70.16 Y95.736 E85.2786
G1 X81.759 Y95.737 E85.66438
G1 F2700 E80.66438
G0 F6000 X81.489 Y95.467
G0 X76.437 Y95.517
G0 X76.048 Y92.179
G0 X76.437 Y91.952
;TYPE:WALL-INNER
G1 F2700 E85.66438
G1 F1200 X75.96 Y92.007 E85.68035
G1 X75.484 Y91.953 E85.69629
G1 X75.026 Y91.786 E85.7125
G1 X74.629 Y91.518 E85.72843
G1 X74.299 Y91.176 E85.74424
G1 X74.057 Y90.753 E85.76045
