;FLAVOR:Marlin
;TIME:1741
;Filament used: 1.10356m
;Layer height: 0.2
;MINX:101.435
;MINY:86.235
;MINZ:0.2
;MAXX:133.722
;MAXY:139.906
;MAXZ:12
;Generated with Cura_SteamEngine 5.2.1
M140 S60
M105
M190 S60
M104 S210
M105
M109 S210
M82 ;absolute extrusion mode
; Ender 3 Custom Start G-code
G92 E0 ; Reset Extruder
G28 ; Home all axes
G1 Z2.0 F3000 ; Move Z Axis up little to prevent scratching of Heat Bed
G1 X0.1 Y20 Z0.3 F5000.0 ; Move to start position
G1 X0.1 Y200.0 Z0.3 F1500.0 E15 ; Draw the first line
G1 X0.4 Y200.0 Z0.3 F5000.0 ; Move to side a little
G1 X0.4 Y20 Z0.3 F1500.0 E30 ; Draw the second line
G92 E0 ; Reset Extruder
G1 Z2.0 F3000 ; Move Z Axis up little to prevent scratching of Heat Bed
G1 X5 Y20 Z0.3 F5000.0 ; Move over to prevent blob squish
G92 E0
G92 E0
G1 F2700 E-5
;LAYER_COUNT:60
;LAYER:0
M107
G0 F6000 X105.573 Y91.529 Z0.2
;TYPE:SKIRT
G1 F2700 E0
G1 F1200 X105.849 Y91.232 E0.01349
G1 X106.463 Y90.621 E0.0423
G1 X106.809 Y90.303 E0.05793
G1 X107.583 Y89.655 E0.0915
G1 X107.924 Y89.395 E0.10576
G1 X108.673 Y88.872 E0.13615
G1 X109.019 Y88.651 E0.1498
G1 X109.86 Y88.164 E0.18212
G1 X110.319 Y87.925 E0.19934
G1 X111.269 Y87.487 E0.23413
G1 X111.659 Y87.329 E0.24813
G1 X112.578 Y87.003 E0.28056
G1 X113.004 Y86.873 E0.29537
G1 X113.882 Y86.644 E0.32555
G1 X114.329 Y86.547 E0.34076
G1 X115.344 Y86.376 E0.375
G1 X115.808 Y86.32 E0.39054
G1 X116.763 Y86.247 E0.4224
G1 X117.126 Y86.235 E0.43448
G1 X118.048 Y86.243 E0.46515
G1 X118.618 Y86.272 E0.48413
G1 X119.672 Y86.377 E0.51936
G1 X120.07 Y86.436 E0.53274
G1 X120.987 Y86.612 E0.5638
G1 X121.372 Y86.703 E0.57696
G1 X122.252 Y86.95 E0.60736
G1 X122.709 Y87.099 E0.62334
G1 X123.684 Y87.469 E0.65803
G1 X124.151 Y87.672 E0.67496
G1 X125.096 Y88.137 E0.70999
G1 X125.43 Y88.322 E0.72269
G1 X126.155 Y88.762 E0.7509
G1 X126.566 Y89.033 E0.76728
G1 X127.394 Y89.635 E0.80132
G1 X127.682 Y89.866 E0.8136
G1 X128.345 Y90.443 E0.84284
G1 X128.712 Y90.789 E0.85961
G1 X129.433 Y91.537 E0.89417
G1 X129.713 Y91.856 E0.90828
G1 X130.348 Y92.65 E0.9421
G1 X130.671 Y93.095 E0.96039
G1 X131.232 Y93.949 E0.99437
G1 X131.392 Y94.219 E1.00481
G1 X131.793 Y94.959 E1.03281
G1 X132.021 Y95.421 E1.04994
G1 X132.436 Y96.371 E1.08442
G1 X132.59 Y96.775 E1.0988
G1 X132.872 Y97.615 E1.12827
G1 X132.974 Y97.965 E1.1404
G1 X133.195 Y98.862 E1.17112
G1 X133.3 Y99.381 E1.18874
G1 X133.439 Y100.243 E1.21778
G1 X133.485 Y100.624 E1.23054
G1 X133.563 Y101.838 E1.271
G1 X133.568 Y102.362 E1.28843
G1 X133.542 Y103.237 E1.31755
G1 X133.47 Y104.241 E1.35103
G1 X133.326 Y105.91 E1.40674
G1 X133.179 Y108.457 E1.4916
G1 X133.106 Y110.946 E1.57442
G1 X133.102 Y113.471 E1.6584
G1 X133.171 Y115.991 E1.74225
G1 X133.309 Y118.478 E1.82509
G1 X133.591 Y121.721 E1.93336
G1 X133.666 Y122.493 E1.95916
G1 X133.717 Y123.437 E1.9906
G1 X133.722 Y123.882 E2.0054
G1 X133.692 Y124.832 E2.03702
G1 X133.66 Y125.257 E2.05119
G1 X133.551 Y126.181 E2.08214
G1 X133.478 Y126.634 E2.0974
G1 X133.256 Y127.683 E2.13306
G1 X133.136 Y128.139 E2.14874
G1 X132.849 Y129.063 E2.18093
G1 X132.694 Y129.494 E2.19616
G1 X132.332 Y130.377 E2.2279
G1 X132.154 Y130.763 E2.24204
G1 X131.743 Y131.567 E2.27207
G1 X131.534 Y131.937 E2.2862
G1 X130.987 Y132.807 E2.32038
G1 X130.713 Y133.201 E2.33635
G1 X130.094 Y134.009 E2.3702
G1 X129.805 Y134.352 E2.38512
G1 X129.16 Y135.053 E2.4168
G1 X128.813 Y135.399 E2.4331
G1 X128.059 Y136.085 E2.467
G1 X127.775 Y136.32 E2.47926
G1 X127.079 Y136.851 E2.50838
G1 X126.657 Y137.147 E2.52553
G1 X125.783 Y137.7 E2.55993
G1 X125.43 Y137.901 E2.57344
G1 X124.546 Y138.353 E2.60646
G1 X124.109 Y138.552 E2.62243
G1 X123.248 Y138.901 E2.65333
G1 X122.853 Y139.042 E2.66728
G1 X121.961 Y139.318 E2.69833
G1 X121.544 Y139.428 E2.71268
G1 X120.62 Y139.63 E2.74414
G1 X120.165 Y139.709 E2.7595
G1 X119.096 Y139.841 E2.79532
G1 X118.61 Y139.877 E2.81153
G1 X117.665 Y139.906 E2.84298
G1 X117.248 Y139.901 E2.85685
G1 X116.32 Y139.851 E2.88776
G1 X115.917 Y139.812 E2.90122
G1 X115.001 Y139.684 E2.93199
G1 X114.552 Y139.602 E2.94717
G1 X113.875 Y139.456 E2.9702
G1 X113.533 Y139.371 E2.98192
G1 X112.353 Y139.006 E3.023
G1 X111.807 Y138.803 E3.04238
G1 X110.803 Y138.373 E3.07871
G1 X110.372 Y138.162 E3.09467
G1 X109.513 Y137.692 E3.12723
G1 X109.176 Y137.488 E3.14034
G1 X108.41 Y136.98 E3.17091
G1 X108.005 Y136.686 E3.18755
G1 X107.212 Y136.053 E3.2213
G1 X106.894 Y135.774 E3.23537
G1 X106.241 Y135.151 E3.26539
G1 X105.979 Y134.88 E3.27792
G1 X105.388 Y134.218 E3.30744
G1 X105.093 Y133.859 E3.3229
G1 X104.568 Y133.166 E3.35181
G1 X104.324 Y132.816 E3.366
G1 X103.714 Y131.835 E3.40442
G1 X103.477 Y131.405 E3.42075
G1 X103.003 Y130.435 E3.45666
G1 X102.781 Y129.918 E3.47538
G1 X102.419 Y128.952 E3.50969
G1 X102.312 Y128.62 E3.52129
G1 X102.089 Y127.829 E3.54862
G1 X101.975 Y127.357 E3.56477
G1 X101.786 Y126.38 E3.59787
G1 X101.732 Y126.014 E3.61018
G1 X101.636 Y125.111 E3.64038
G1 X101.604 Y124.611 E3.65704
G1 X101.587 Y123.569 E3.69171
G1 X101.602 Y123.083 E3.70788
G1 X101.637 Y122.488 E3.7277
G1 X101.726 Y121.443 E3.76258
G1 X101.912 Y118.801 E3.85068
G1 X102.017 Y116.316 E3.9334
G1 X102.053 Y113.785 E4.01759
G1 X102.017 Y111.27 E4.10125
G1 X101.909 Y108.737 E4.18557
G1 X101.733 Y106.26 E4.26817
G1 X101.625 Y105.196 E4.30374
G1 X101.5 Y103.833 E4.34926
G1 X101.448 Y103.049 E4.37539
G1 X101.435 Y101.995 E4.41045
G1 X101.455 Y101.442 E4.42886
G1 X101.535 Y100.456 E4.46176
G1 X101.578 Y100.117 E4.47312
G1 X101.719 Y99.271 E4.50165
G1 X101.813 Y98.817 E4.51707
G1 X102.086 Y97.765 E4.55322
G1 X102.252 Y97.234 E4.57172
G1 X102.615 Y96.243 E4.60683
G1 X102.76 Y95.899 E4.61924
G1 X103.105 Y95.158 E4.64643
G1 X103.296 Y94.785 E4.66037
G1 X103.75 Y93.983 E4.69102
G1 X103.973 Y93.625 E4.70505
G1 X104.54 Y92.801 E4.73832
G1 X104.861 Y92.377 E4.756
G1 X105.573 Y91.529 E4.79283
G0 F6000 X105.866 Y91.801
G1 F1200 X106.142 Y91.504 E4.80632
G1 X106.734 Y90.916 E4.83407
G1 X107.08 Y90.598 E4.8497
G1 X107.826 Y89.973 E4.88207
G1 X108.167 Y89.713 E4.89633
G1 X108.888 Y89.209 E4.92559
G1 X109.234 Y88.988 E4.93924
G1 X110.045 Y88.519 E4.9704
G1 X110.504 Y88.28 E4.98762
G1 X111.419 Y87.858 E5.02113
G1 X111.809 Y87.7 E5.03512
G1 X112.695 Y87.386 E5.06639
G1 X113.121 Y87.256 E5.0812
G1 X113.967 Y87.035 E5.11029
G1 X114.414 Y86.938 E5.1255
G1 X115.392 Y86.773 E5.15849
G1 X115.856 Y86.717 E5.17403
G1 X116.776 Y86.647 E5.20472
G1 X117.139 Y86.635 E5.2168
G1 X118.028 Y86.643 E5.24637
G1 X118.598 Y86.672 E5.26535
G1 X119.613 Y86.773 E5.29928
G1 X120.011 Y86.832 E5.31266
G1 X120.895 Y87.001 E5.34259
G1 X121.28 Y87.092 E5.35575
G1 X122.128 Y87.33 E5.38505
G1 X122.585 Y87.479 E5.40103
G1 X123.525 Y87.836 E5.43448
G1 X123.992 Y88.039 E5.45141
G1 X124.902 Y88.487 E5.48515
G1 X125.236 Y88.672 E5.49785
G1 X125.935 Y89.096 E5.52504
G1 X126.346 Y89.367 E5.54141
G1 X127.143 Y89.947 E5.5742
G1 X127.431 Y90.178 E5.58648
G1 X128.07 Y90.734 E5.61465
G1 X128.437 Y91.08 E5.63143
G1 X129.132 Y91.8 E5.66471
G1 X129.412 Y92.119 E5.67883
G1 X130.024 Y92.885 E5.71144
G1 X130.347 Y93.33 E5.72973
G1 X130.888 Y94.153 E5.76248
G1 X131.048 Y94.423 E5.77292
G1 X131.434 Y95.136 E5.79989
G1 X131.662 Y95.598 E5.81702
G1 X132.062 Y96.513 E5.85024
G1 X132.216 Y96.917 E5.86462
G1 X132.488 Y97.727 E5.89304
G1 X132.59 Y98.077 E5.90516
G1 X132.803 Y98.941 E5.93476
G1 X132.908 Y99.46 E5.95237
G1 X133.042 Y100.291 E5.98037
G1 X133.088 Y100.672 E5.99313
G1 X133.164 Y101.842 E6.03213
G1 X133.169 Y102.366 E6.04956
G1 X133.143 Y103.209 E6.07761
G1 X133.072 Y104.206 E6.11085
G1 X132.924 Y105.92 E6.16807
G1 X132.78 Y108.422 E6.25143
G1 X132.706 Y110.933 E6.33498
G1 X132.702 Y113.481 E6.41973
G1 X132.771 Y115.989 E6.50318
G1 X132.912 Y118.534 E6.58795
G1 X133.185 Y121.681 E6.69302
G1 X133.268 Y122.532 E6.72145
G1 X133.317 Y123.442 E6.75176
G1 X133.322 Y123.887 E6.76657
G1 X133.293 Y124.802 E6.79701
G1 X133.261 Y125.227 E6.81119
G1 X133.156 Y126.117 E6.841
G1 X133.083 Y126.57 E6.85626
G1 X132.869 Y127.582 E6.89066
G1 X132.749 Y128.038 E6.90634
G1 X132.473 Y128.927 E6.93731
G1 X132.318 Y129.358 E6.95254
G1 X131.969 Y130.21 E6.98316
G1 X131.791 Y130.596 E6.9973
G1 X131.394 Y131.37 E7.02623
G1 X131.185 Y131.74 E7.04037
G1 X130.658 Y132.579 E7.07332
G1 X130.384 Y132.973 E7.08928
G1 X129.788 Y133.751 E7.12188
G1 X129.499 Y134.094 E7.1368
G1 X128.878 Y134.77 E7.16733
G1 X128.531 Y135.116 E7.18362
G1 X127.804 Y135.777 E7.21631
G1 X127.52 Y136.012 E7.22857
G1 X126.849 Y136.523 E7.25662
G1 X126.427 Y136.819 E7.27376
G1 X125.585 Y137.352 E7.30691
G1 X125.232 Y137.553 E7.32042
G1 X124.38 Y137.989 E7.35225
G1 X123.943 Y138.188 E7.36822
G1 X123.114 Y138.524 E7.39797
G1 X122.719 Y138.665 E7.41192
G1 X121.859 Y138.931 E7.44186
G1 X121.442 Y139.041 E7.45621
G1 X120.551 Y139.236 E7.48654
G1 X120.096 Y139.315 E7.5019
G1 X119.066 Y139.442 E7.53642
G1 X118.58 Y139.478 E7.55263
G1 X117.67 Y139.506 E7.58291
G1 X117.253 Y139.501 E7.59678
G1 X116.359 Y139.453 E7.62656
G1 X115.956 Y139.414 E7.64002
G1 X115.073 Y139.291 E7.66968
G1 X114.624 Y139.209 E7.68486
G1 X113.971 Y139.068 E7.70708
G1 X113.629 Y138.983 E7.7188
G1 X112.492 Y138.632 E7.75838
G1 X111.946 Y138.429 E7.77775
G1 X110.979 Y138.013 E7.81276
G1 X110.548 Y137.802 E7.82872
G1 X109.72 Y137.35 E7.8601
G1 X109.383 Y137.146 E7.8732
G1 X108.645 Y136.656 E7.90266
G1 X108.24 Y136.362 E7.91931
G1 X107.476 Y135.752 E7.95183
G1 X107.158 Y135.473 E7.9659
G1 X106.528 Y134.873 E7.99483
G1 X106.266 Y134.602 E8.00737
G1 X105.697 Y133.964 E8.0358
G1 X105.402 Y133.605 E8.05126
G1 X104.896 Y132.937 E8.07913
G1 X104.652 Y132.587 E8.09332
G1 X104.065 Y131.642 E8.13032
G1 X103.828 Y131.212 E8.14665
G1 X103.371 Y130.277 E8.18127
G1 X103.149 Y129.76 E8.19998
G1 X102.8 Y128.83 E8.23302
G1 X102.693 Y128.498 E8.24462
G1 X102.478 Y127.735 E8.27099
G1 X102.364 Y127.263 E8.28714
G1 X102.182 Y126.321 E8.31905
G1 X102.128 Y125.955 E8.33135
G1 X102.036 Y125.085 E8.36045
G1 X102.004 Y124.585 E8.37711
G1 X101.987 Y123.581 E8.41051
G1 X102.002 Y123.095 E8.42668
G1 X102.035 Y122.522 E8.44577
G1 X102.127 Y121.438 E8.48196
G1 X102.31 Y118.846 E8.56838
G1 X102.417 Y116.303 E8.65304
G1 X102.453 Y113.785 E8.73679
G1 X102.417 Y111.247 E8.82122
G1 X102.309 Y108.725 E8.90518
G1 X102.132 Y106.224 E8.98857
G1 X102.023 Y105.159 E9.02417
G1 X101.898 Y103.796 E9.0697
G1 X101.847 Y103.025 E9.0954
G1 X101.835 Y102.01 E9.12916
G1 X101.855 Y101.457 E9.14756
G1 X101.932 Y100.506 E9.1793
G1 X101.975 Y100.167 E9.19066
G1 X102.111 Y99.352 E9.21815
G1 X102.205 Y98.898 E9.23357
G1 X102.468 Y97.884 E9.26841
G1 X102.634 Y97.353 E9.28691
G1 X102.983 Y96.399 E9.3207
G1 X103.128 Y96.055 E9.33312
G1 X103.461 Y95.341 E9.35932
G1 X103.652 Y94.968 E9.37326
G1 X104.09 Y94.195 E9.40281
G1 X104.313 Y93.837 E9.41684
G1 X104.859 Y93.043 E9.44889
G1 X105.18 Y92.619 E9.46657
G1 X105.866 Y91.801 E9.50208
G0 F6000 X106.159 Y92.074
G1 F1200 X106.435 Y91.777 E9.51557
G1 X107.005 Y91.21 E9.54231
G1 X107.351 Y90.892 E9.55794
G1 X108.068 Y90.291 E9.58905
G1 X108.409 Y90.031 E9.60332
G1 X109.103 Y89.546 E9.63148
G1 X109.449 Y89.325 E9.64513
G1 X110.229 Y88.874 E9.6751
G1 X110.688 Y88.635 E9.69231
G1 X111.569 Y88.228 E9.72459
G1 X111.959 Y88.07 E9.73858
G1 X112.812 Y87.768 E9.76868
G1 X113.238 Y87.638 E9.7835
G1 X114.052 Y87.426 E9.81147
G1 X114.499 Y87.329 E9.82669
G1 X115.44 Y87.17 E9.85843
G1 X115.904 Y87.114 E9.87397
G1 X116.789 Y87.047 E9.90349
G1 X117.152 Y87.035 E9.91557
G1 X118.007 Y87.042 E9.94401
G1 X118.577 Y87.071 E9.96299
G1 X119.555 Y87.168 E9.99568
G1 X119.953 Y87.227 E10.00906
G1 X120.803 Y87.391 E10.03786
G1 X121.188 Y87.482 E10.05101
G1 X122.004 Y87.71 E10.07919
G1 X122.461 Y87.859 E10.09518
G1 X123.365 Y88.203 E10.12735
G1 X123.832 Y88.406 E10.14429
G1 X124.708 Y88.837 E10.17676
G1 X125.042 Y89.022 E10.18946
G1 X125.715 Y89.43 E10.21563
G1 X126.126 Y89.701 E10.23201
G1 X126.893 Y90.259 E10.26356
G1 X127.181 Y90.49 E10.27583
G1 X127.796 Y91.025 E10.30295
G1 X128.163 Y91.371 E10.31972
G1 X128.832 Y92.064 E10.35176
G1 X129.112 Y92.383 E10.36588
G1 X129.701 Y93.12 E10.39726
G1 X130.024 Y93.565 E10.41554
G1 X130.544 Y94.357 E10.44706
G1 X130.704 Y94.627 E10.4575
G1 X131.076 Y95.313 E10.48345
G1 X131.304 Y95.775 E10.50059
G1 X131.688 Y96.656 E10.53255
G1 X131.842 Y97.06 E10.54693
G1 X132.104 Y97.839 E10.57427
G1 X132.206 Y98.189 E10.58639
G1 X132.41 Y99.02 E10.61485
G1 X132.515 Y99.539 E10.63246
G1 X132.644 Y100.339 E10.65942
G1 X132.69 Y100.72 E10.67218
G1 X132.764 Y101.846 E10.70971
G1 X132.769 Y102.37 E10.72714
G1 X132.744 Y103.181 E10.75413
G1 X132.673 Y104.172 E10.78717
G1 X132.527 Y105.864 E10.84366
G1 X132.381 Y108.388 E10.92775
G1 X132.306 Y110.956 E11.0132
G1 X132.302 Y113.491 E11.09751
G1 X132.371 Y116.023 E11.18176
G1 X132.51 Y118.526 E11.26513
G1 X132.793 Y121.778 E11.3737
G1 X132.87 Y122.571 E11.4002
G1 X132.917 Y123.446 E11.42935
G1 X132.922 Y123.891 E11.44415
G1 X132.894 Y124.772 E11.47347
G1 X132.862 Y125.197 E11.48764
G1 X132.761 Y126.054 E11.51634
G1 X132.688 Y126.507 E11.53161
G1 X132.482 Y127.48 E11.56469
G1 X132.362 Y127.936 E11.58037
G1 X132.096 Y128.792 E11.61018
G1 X131.941 Y129.223 E11.62542
G1 X131.606 Y130.042 E11.65485
G1 X131.428 Y130.428 E11.66898
G1 X131.046 Y131.174 E11.69686
G1 X130.837 Y131.544 E11.71099
G1 X130.33 Y132.351 E11.74269
G1 X130.056 Y132.745 E11.75865
G1 X129.482 Y133.493 E11.79001
G1 X129.193 Y133.836 E11.80493
G1 X128.595 Y134.487 E11.83433
G1 X128.248 Y134.833 E11.85063
G1 X127.549 Y135.468 E11.88204
G1 X127.265 Y135.703 E11.8943
G1 X126.619 Y136.196 E11.92133
G1 X126.197 Y136.492 E11.93847
G1 X125.387 Y137.005 E11.97036
G1 X125.034 Y137.206 E11.98387
G1 X124.214 Y137.625 E12.0145
G1 X123.777 Y137.824 E12.03047
G1 X122.979 Y138.147 E12.0591
G1 X122.584 Y138.288 E12.07305
G1 X121.757 Y138.545 E12.10186
G1 X121.34 Y138.655 E12.1162
G1 X120.483 Y138.842 E12.14538
G1 X120.028 Y138.921 E12.16074
G1 X119.036 Y139.043 E12.19398
G1 X118.55 Y139.079 E12.21019
G1 X117.675 Y139.106 E12.2393
G1 X117.258 Y139.101 E12.25317
G1 X116.397 Y139.055 E12.28185
G1 X115.994 Y139.016 E12.29532
G1 X115.145 Y138.897 E12.32383
G1 X114.696 Y138.815 E12.33901
G1 X114.068 Y138.68 E12.36038
G1 X113.726 Y138.595 E12.3721
G1 X112.631 Y138.257 E12.41021
G1 X112.085 Y138.054 E12.42959
G1 X111.155 Y137.654 E12.46326
G1 X110.724 Y137.443 E12.47922
G1 X109.927 Y137.008 E12.50942
G1 X109.59 Y136.804 E12.52252
G1 X108.88 Y136.332 E12.55088
G1 X108.475 Y136.038 E12.56753
G1 X107.74 Y135.451 E12.59881
G1 X107.422 Y135.172 E12.61288
G1 X106.816 Y134.595 E12.64071
G1 X106.554 Y134.324 E12.65325
G1 X106.006 Y133.71 E12.68062
G1 X105.711 Y133.351 E12.69608
G1 X105.225 Y132.708 E12.72288
G1 X104.981 Y132.358 E12.73708
G1 X104.415 Y131.449 E12.77269
G1 X104.178 Y131.019 E12.78902
G1 X103.739 Y130.12 E12.8223
G1 X103.517 Y129.603 E12.84101
G1 X103.181 Y128.707 E12.87284
G1 X103.074 Y128.375 E12.88444
G1 X102.867 Y127.641 E12.9098
G1 X102.753 Y127.169 E12.92595
G1 X102.577 Y126.263 E12.95665
G1 X102.523 Y125.897 E12.96896
G1 X102.435 Y125.059 E12.99698
G1 X102.403 Y124.559 E13.01365
G1 X102.387 Y123.593 E13.04578
G1 X102.402 Y123.107 E13.06195
G1 X102.434 Y122.556 E13.08031
G1 X102.524 Y121.496 E13.11569
G1 X102.71 Y118.857 E13.20368
G1 X102.817 Y116.326 E13.28794
G1 X102.853 Y113.785 E13.37246
G1 X102.817 Y111.258 E13.45652
G1 X102.707 Y108.682 E13.54228
G1 X102.53 Y106.189 E13.6254
G1 X102.422 Y105.123 E13.66104
G1 X102.297 Y103.76 E13.70656
G1 X102.246 Y103.002 E13.73183
G1 X102.235 Y102.024 E13.76436
G1 X102.255 Y101.471 E13.78277
G1 X102.329 Y100.556 E13.8133
G1 X102.372 Y100.217 E13.82466
G1 X102.503 Y99.433 E13.8511
G1 X102.597 Y98.979 E13.86652
G1 X102.85 Y98.004 E13.90002
G1 X103.016 Y97.473 E13.91853
G1 X103.352 Y96.554 E13.95107
G1 X103.497 Y96.21 E13.96349
G1 X103.817 Y95.523 E13.9887
G1 X104.008 Y95.15 E14.00263
G1 X104.429 Y94.406 E14.03107
G1 X104.652 Y94.048 E14.0451
G1 X105.178 Y93.284 E14.07595
G1 X105.499 Y92.86 E14.09363
G1 X106.159 Y92.074 E14.12777
G1 F2700 E9.12777
;MESH:Knob.stl(1)
G0 F6000 X115.261 Y102.302
G0 X116.76 Y104.234
;TYPE:WALL-INNER
G1 F2700 E14.12777
G1 F1200 X116.188 Y103.908 E14.14967
G1 X115.763 Y103.425 E14.17107
G1 X115.586 Y103.085 E14.18382
