;FLAVOR:Marlin
;TIME:14182
;Filament used: 12.2252m
;Layer height: 0.2
;MINX:59
;MINY:45.15
;MINZ:0.2
;MAXX:176
;MAXY:189.85
;MAXZ:5.8
;Generated with Cura_SteamEngine 5.2.1
M140 S60
M105
M190 S60
M104 S210
M105
M109 S210
M82 ;absolute extrusion mode
; Ender 3 Custom Start G-code
G92 E0 ; Reset Extruder
G28 ; Home all axes
G1 Z2.0 F3000 ; Move Z Axis up little to prevent scratching of Heat Bed
G1 X0.1 Y20 Z0.3 F5000.0 ; Move to start position
G1 X0.1 Y200.0 Z0.3 F1500.0 E15 ; Draw the first line
G1 X0.4 Y200.0 Z0.3 F5000.0 ; Move to side a little
G1 X0.4 Y20 Z0.3 F1500.0 E30 ; Draw the second line
G92 E0 ; Reset Extruder
G1 Z2.0 F3000 ; Move Z Axis up little to prevent scratching of Heat Bed
G1 X5 Y20 Z0.3 F5000.0 ; Move over to prevent blob squish
G92 E0
G92 E0
G1 F2700 E-5
;LAYER_COUNT:29
;LAYER:0
M107
G0 F6000 X61.566 Y49.108 Z0.2
;TYPE:SKIRT
G1 F2700 E0
G1 F1200 X62.198 Y48.414 E0.03122
G1 X62.886 Y47.777 E0.0624
G1 X63.626 Y47.201 E0.09359
G1 X64.412 Y46.689 E0.12479
G1 X65.239 Y46.247 E0.15598
G1 X66.101 Y45.877 E0.18718
G1 X66.991 Y45.581 E0.21838
G1 X67.903 Y45.363 E0.24957
G1 X68.83 Y45.222 E0.28075
G1 X69.701 Y45.163 E0.30979
G1 X70.33 Y45.15 E0.33071
G1 X164.451 Y45.151 E3.46119
G1 X165.149 Y45.161 E3.48441
G1 X166.085 Y45.215 E3.51559
G1 X167.013 Y45.347 E3.54677
G1 X167.927 Y45.559 E3.57797
G1 X168.819 Y45.848 E3.60916
G1 X169.684 Y46.211 E3.64036
G1 X170.514 Y46.647 E3.67154
G1 X171.305 Y47.152 E3.70276
G1 X172.049 Y47.723 E3.73395
G1 X172.742 Y48.355 E3.76515
G1 X173.379 Y49.043 E3.79633
G1 X173.954 Y49.784 E3.82753
G1 X174.465 Y50.57 E3.85871
G1 X174.907 Y51.398 E3.88993
G1 X175.276 Y52.26 E3.92111
G1 X175.571 Y53.15 E3.9523
G1 X175.789 Y54.062 E3.98349
G1 X175.929 Y54.99 E4.0147
G1 X175.987 Y55.851 E4.0434
G1 X176 Y56.48 E4.06433
G1 X175.999 Y178.25 E8.11441
G1 X175.99 Y178.977 E8.1386
G1 X175.939 Y179.914 E8.16981
G1 X175.807 Y180.842 E8.20098
G1 X175.598 Y181.756 E8.23217
G1 X175.311 Y182.649 E8.26336
G1 X174.949 Y183.515 E8.29458
G1 X174.515 Y184.346 E8.32576
G1 X174.011 Y185.137 E8.35696
G1 X173.442 Y185.882 E8.38814
G1 X172.811 Y186.577 E8.41936
G1 X172.124 Y187.215 E8.45054
G1 X171.385 Y187.792 E8.48173
G1 X170.599 Y188.304 E8.51293
G1 X169.773 Y188.747 E8.5441
G1 X168.911 Y189.119 E8.57533
G1 X168.022 Y189.415 E8.60649
G1 X167.11 Y189.635 E8.6377
G1 X166.183 Y189.776 E8.66888
G1 X165.299 Y189.837 E8.69836
G1 X164.67 Y189.85 E8.71928
G1 X70.565 Y189.849 E11.84923
G1 X69.867 Y189.84 E11.87244
G1 X68.931 Y189.788 E11.90362
G1 X68.002 Y189.656 E11.93483
G1 X67.088 Y189.446 E11.96602
G1 X66.195 Y189.159 E11.99722
G1 X65.33 Y188.796 E12.02842
G1 X64.499 Y188.362 E12.0596
G1 X63.708 Y187.858 E12.0908
G1 X62.963 Y187.288 E12.122
G1 X62.269 Y186.657 E12.15319
G1 X61.632 Y185.97 E12.18436
G1 X61.055 Y185.23 E12.21557
G1 X60.543 Y184.444 E12.24677
G1 X60.1 Y183.617 E12.27797
G1 X59.729 Y182.756 E12.30915
G1 X59.433 Y181.866 E12.34035
G1 X59.214 Y180.954 E12.37154
G1 X59.073 Y180.027 E12.40273
G1 X59.013 Y179.138 E12.43237
G1 X59 Y178.508 E12.45332
G1 X59.001 Y56.675 E16.50551
G1 X59.01 Y56.01 E16.52763
G1 X59.063 Y55.074 E16.55881
G1 X59.195 Y54.145 E16.59002
G1 X59.406 Y53.231 E16.62122
G1 X59.694 Y52.339 E16.65239
G1 X60.057 Y51.474 E16.68359
G1 X60.492 Y50.643 E16.71479
G1 X60.996 Y49.853 E16.74596
G1 X61.566 Y49.108 E16.77716
G0 F6000 X61.961 Y49.261
G1 F1200 X62.589 Y48.589 E16.80775
G1 X63.274 Y47.973 E16.83839
G1 X64.01 Y47.42 E16.86901
G1 X64.791 Y46.932 E16.89964
G1 X65.611 Y46.514 E16.93025
G1 X66.465 Y46.169 E16.96088
G1 X67.345 Y45.899 E16.9915
G1 X68.245 Y45.707 E17.02211
G1 X69.159 Y45.593 E17.05274
G1 X69.712 Y45.563 E17.07116
G1 X70.33 Y45.55 E17.09172
G1 X164.445 Y45.551 E20.222
G1 X165.143 Y45.561 E20.24522
G1 X166.062 Y45.614 E20.27583
G1 X166.973 Y45.747 E20.30646
G1 X167.869 Y45.958 E20.33707
G1 X168.743 Y46.246 E20.36768
G1 X169.59 Y46.609 E20.39833
G1 X170.401 Y47.044 E20.42894
G1 X171.171 Y47.548 E20.45955
G1 X171.895 Y48.117 E20.49017
G1 X172.567 Y48.747 E20.52081
G1 X173.182 Y49.432 E20.55143
G1 X173.735 Y50.168 E20.58205
G1 X174.222 Y50.949 E20.61266
G1 X174.639 Y51.77 E20.64329
G1 X174.984 Y52.624 E20.67392
G1 X175.253 Y53.504 E20.70453
G1 X175.445 Y54.405 E20.73517
G1 X175.558 Y55.318 E20.76577
G1 X175.587 Y55.862 E20.78388
G1 X175.6 Y56.48 E20.80444
G1 X175.599 Y178.245 E24.85436
G1 X175.59 Y178.972 E24.87855
G1 X175.539 Y179.891 E24.90916
G1 X175.408 Y180.803 E24.9398
G1 X175.198 Y181.699 E24.97041
G1 X174.912 Y182.574 E25.00103
G1 X174.551 Y183.421 E25.03165
G1 X174.117 Y184.233 E25.06228
G1 X173.615 Y185.005 E25.0929
G1 X173.047 Y185.73 E25.12354
G1 X172.419 Y186.403 E25.15415
G1 X171.735 Y187.019 E25.18477
G1 X171 Y187.573 E25.21538
G1 X170.22 Y188.062 E25.246
G1 X169.4 Y188.481 E25.27663
G1 X168.547 Y188.827 E25.30725
G1 X167.667 Y189.098 E25.33787
G1 X166.767 Y189.291 E25.36849
G1 X165.853 Y189.406 E25.39912
G1 X165.288 Y189.437 E25.41794
G1 X164.67 Y189.45 E25.4385
G1 X70.57 Y189.449 E28.56828
G1 X69.872 Y189.44 E28.5915
G1 X68.953 Y189.388 E28.62212
G1 X68.042 Y189.257 E28.65273
G1 X67.146 Y189.047 E28.68334
G1 X66.271 Y188.76 E28.71396
G1 X65.424 Y188.398 E28.7446
G1 X64.612 Y187.964 E28.77522
G1 X63.841 Y187.462 E28.80582
G1 X63.116 Y186.894 E28.83646
G1 X62.443 Y186.265 E28.86709
G1 X61.828 Y185.581 E28.89769
G1 X61.274 Y184.846 E28.9283
G1 X60.786 Y184.065 E28.95893
G1 X60.367 Y183.245 E28.98956
G1 X60.021 Y182.392 E29.02017
G1 X59.751 Y181.512 E29.05079
G1 X59.558 Y180.611 E29.08144
G1 X59.444 Y179.698 E29.11204
G1 X59.413 Y179.127 E29.13106
G1 X59.4 Y178.508 E29.15165
G1 X59.401 Y56.681 E33.20363
G1 X59.41 Y56.016 E33.22575
G1 X59.462 Y55.096 E33.2564
G1 X59.594 Y54.185 E33.28702
G1 X59.805 Y53.289 E33.31763
G1 X60.092 Y52.414 E33.34826
G1 X60.455 Y51.568 E33.37888
G1 X60.889 Y50.756 E33.4095
G1 X61.392 Y49.985 E33.44012
G1 X61.961 Y49.261 E33.47075
G0 F6000 X62.355 Y49.417
G1 F1200 X62.981 Y48.767 E33.50076
G1 X63.662 Y48.174 E33.5308
G1 X64.394 Y47.644 E33.56086
G1 X65.169 Y47.181 E33.59088
G1 X65.982 Y46.788 E33.62092
G1 X66.827 Y46.468 E33.65097
G1 X67.696 Y46.225 E33.68098
G1 X68.584 Y46.059 E33.71103
G1 X69.723 Y45.963 E33.74905
G1 X70.33 Y45.95 E33.76924
G1 X164.439 Y45.951 E36.89932
G1 X165.137 Y45.961 E36.92254
G1 X166.039 Y46.014 E36.95259
G1 X166.932 Y46.146 E36.98261
G1 X167.81 Y46.357 E37.01265
G1 X168.666 Y46.645 E37.04268
G1 X169.493 Y47.007 E37.07271
G1 X170.285 Y47.442 E37.10276
G1 X171.036 Y47.944 E37.13281
G1 X171.739 Y48.511 E37.16285
G1 X172.389 Y49.138 E37.19289
G1 X172.981 Y49.82 E37.22292
G1 X173.511 Y50.551 E37.25295
G1 X173.973 Y51.327 E37.28299
G1 X174.366 Y52.14 E37.31303
G1 X174.684 Y52.985 E37.34306
G1 X174.927 Y53.855 E37.3731
G1 X175.092 Y54.743 E37.40314
G1 X175.187 Y55.873 E37.44086
G1 X175.2 Y56.48 E37.46105
G1 X175.199 Y178.24 E41.5108
G1 X175.19 Y178.967 E41.53499
G1 X175.139 Y179.869 E41.56503
G1 X175.008 Y180.763 E41.59509
G1 X174.799 Y181.641 E41.62511
G1 X174.513 Y182.498 E41.65515
G1 X174.152 Y183.326 E41.6852
G1 X173.72 Y184.118 E41.7152
G1 X173.219 Y184.87 E41.74526
G1 X172.653 Y185.574 E41.7753
G1 X172.028 Y186.225 E41.80532
G1 X171.347 Y186.819 E41.83537
G1 X170.616 Y187.35 E41.86542
G1 X169.842 Y187.814 E41.89544
G1 X169.029 Y188.208 E41.92549
G1 X168.185 Y188.528 E41.95551
G1 X167.315 Y188.773 E41.98557
G1 X166.428 Y188.939 E42.01558
G1 X165.277 Y189.037 E42.05401
G1 X164.67 Y189.05 E42.0742
G1 X70.575 Y189.049 E45.20381
G1 X69.877 Y189.04 E45.22703
G1 X68.976 Y188.989 E45.25704
G1 X68.082 Y188.857 E45.2871
G1 X67.204 Y188.648 E45.31712
G1 X66.347 Y188.361 E45.34718
G1 X65.52 Y188 E45.37719
G1 X64.727 Y187.567 E45.40724
G1 X63.976 Y187.066 E45.43727
G1 X63.272 Y186.5 E45.46731
G1 X62.621 Y185.874 E45.49735
G1 X62.028 Y185.193 E45.52739
G1 X61.498 Y184.462 E45.55742
G1 X61.034 Y183.687 E45.58746
G1 X60.64 Y182.874 E45.61751
G1 X60.32 Y182.03 E45.64753
G1 X60.076 Y181.16 E45.67758
G1 X59.91 Y180.272 E45.70763
G1 X59.813 Y179.117 E45.74618
G1 X59.8 Y178.508 E45.76644
G1 X59.801 Y56.686 E49.81826
G1 X59.81 Y56.021 E49.84038
G1 X59.862 Y55.119 E49.87043
G1 X59.994 Y54.226 E49.90045
G1 X60.204 Y53.348 E49.93048
G1 X60.491 Y52.491 E49.96054
G1 X60.853 Y51.664 E49.99056
G1 X61.286 Y50.872 E50.02059
G1 X61.788 Y50.121 E50.05063
G1 X62.355 Y49.417 E50.0807
G1 F2700 E45.0807
;MESH:Lid.stl
G0 F6000 X69.335 Y56.57
G0 X70.601 Y178.249
;TYPE:WALL-INNER
G1 F2700 E50.0807
G1 F1200 X164.4 Y178.25 E53.20046
G1 X164.4 Y56.75 E57.24157
G1 X70.6 Y56.75 E60.36137
G1 X70.601 Y178.249 E64.40244
G0 F6000 X70.201 Y178.649
;TYPE:WALL-OUTER
G1 F1200 X164.8 Y178.65 E67.54882
G1 X164.8 Y56.35 E71.61653
G1 X70.2 Y56.35 E74.76294
G1 X70.201 Y178.649 E78.83062
G1 F2700 E73.83062
G0 F6000 X70.47 Y178.38
G0 X94.651 Y178.049
G0 X116.287 Y168.738
G0 X117.504 Y168.922
;TYPE:WALL-INNER
G1 F2700 E78.83062
G1 F1200 X116.963 Y168.851 E78.84877
G1 X116.482 Y168.654 E78.86606
G1 X116.035 Y168.317 E78.88468
G1 X115.7 Y167.877 E78.90307
G1 X115.503 Y167.397 E78.92033
G1 X115.44 Y166.928 E78.93607
G1 X115.436 Y166.807 E78.94009
G1 X115.501 Y166.311 E78.95673
G1 X115.706 Y165.812 E78.97468
G1 X116.041 Y165.381 E78.99283
G1 X116.456 Y165.059 E79.0103
G1 X116.961 Y164.851 E79.02847
G1 X117.5 Y164.781 E79.04654
G1 X118.043 Y164.851 E79.06475
G1 X118.541 Y165.059 E79.0827
G1 X118.97 Y165.391 E79.10075
G1 X119.287 Y165.809 E79.1182
G1 X119.499 Y166.309 E79.13626
G1 X119.569 Y166.847 E79.1543
G1 X119.497 Y167.397 E79.17275
G1 X119.3 Y167.878 E79.19004
G1 X118.963 Y168.311 E79.20829
G1 X118.535 Y168.64 E79.22625
G1 X118.038 Y168.845 E79.24413
G1 X117.504 Y168.922 E79.26207
G0 F6000 X117.5 Y168.518
;TYPE:WALL-OUTER
G1 F1200 X117.066 Y168.459 E79.27664
G1 X116.664 Y168.296 E79.29107
G1 X116.319 Y168.03 E79.30556
G1 X116.06 Y167.692 E79.31972
G1 X115.893 Y167.291 E79.33417
G1 X115.836 Y166.876 E79.3481
G1 X115.836 Y166.824 E79.34983
G1 X115.89 Y166.419 E79.36342
G1 X116.057 Y166.013 E79.37802
G1 X116.315 Y165.677 E79.39211
G1 X116.67 Y165.403 E79.40702
G1 X117.059 Y165.243 E79.42101
G1 X117.481 Y165.185 E79.43518
G1 X117.929 Y165.24 E79.45019
G1 X118.343 Y165.411 E79.46509
G1 X118.688 Y165.681 E79.47966
G1 X118.949 Y166.025 E79.49403
G1 X119.107 Y166.409 E79.50784
G1 X119.165 Y166.835 E79.52214
G1 X119.111 Y167.274 E79.53685
G1 X118.947 Y167.685 E79.55157
G1 X118.679 Y168.029 E79.56607
G1 X118.335 Y168.294 E79.58051
G1 X117.934 Y168.459 E79.59493
G1 X117.5 Y168.518 E79.6095
G0 F6000 X118.131 Y169.202
;TYPE:SKIN
G1 F1200 X117.497 Y169.284 E79.63076
G1 X116.894 Y169.205 E79.65099
G1 X116.276 Y168.961 E79.67309
G1 X115.752 Y168.541 E79.69543
G1 X115.382 Y168.05 E79.71587
G1 X115.147 Y167.467 E79.73678
G1 X115.071 Y166.869 E79.75683
G1 X115.071 Y166.817 E79.75856
G1 X115.152 Y166.219 E79.77863
G1 X115.396 Y165.623 E79.80005
G1 X115.777 Y165.13 E79.82077
G1 X116.27 Y164.747 E79.84154
G1 X116.882 Y164.501 E79.86348
G1 X117.467 Y164.42 E79.88312
G1 X118.137 Y164.501 E79.90557
G1 X118.716 Y164.741 E79.92641
G1 X119.238 Y165.146 E79.94839
G1 X119.596 Y165.622 E79.9682
G1 X119.851 Y166.224 E79.98994
G1 X119.931 Y166.827 E80.01017
G1 X119.85 Y167.472 E80.03179
G1 X119.61 Y168.072 E80.05329
G1 X119.201 Y168.592 E80.07529
G1 X118.716 Y168.954 E80.09542
G1 X118.131 Y169.202 E80.11655
G1 F2700 E75.11655
G0 F6000 X117.911 Y168.968
G0 X116.287 Y168.738
G0 X94.651 Y178.049
G0 X70.961 Y177.889
G1 F2700 E80.11655
G1 F1200 X164.04 Y177.89 E83.21237
G1 X164.04 Y57.11 E87.22953
G1 X70.96 Y57.11 E90.32539
G1 X70.961 Y177.889 E94.34251
G0 F6000 X71.339 Y177.688
G1 F1200 X71.16 Y177.509 E94.35093
G0 F6000 X71.16 Y176.943
G1 F1200 X71.904 Y177.688 E94.38595
G0 F6000 X72.47 Y177.688
G1 F1200 X71.16 Y176.377 E94.44759
G0 F6000 X71.16 Y175.812
G1 F1200 X73.036 Y177.688 E94.53583
G0 F6000 X73.602 Y177.688
G1 F1200 X71.16 Y175.246 E94.6507
G0 F6000 X71.16 Y174.68
G1 F1200 X74.167 Y177.688 E94.79216
G0 F6000 X74.733 Y177.688
G1 F1200 X71.16 Y174.115 E94.96023
G0 F6000 X71.16 Y173.549
G1 F1200 X75.299 Y177.688 E95.15491
G0 F6000 X75.864 Y177.688
G1 F1200 X71.16 Y172.983 E95.3762
G0 F6000 X71.16 Y172.418
G1 F1200 X76.43 Y177.688 E95.62408
G0 F6000 X76.996 Y177.688
G1 F1200 X71.16 Y171.852 E95.89859
G0 F6000 X71.16 Y171.286
G1 F1200 X77.561 Y177.688 E96.1997
G0 F6000 X78.127 Y177.688
G1 F1200 X71.16 Y170.721 E96.5274
G0 F6000 X71.16 Y170.155
G1 F1200 X78.693 Y177.688 E96.88173
G0 F6000 X79.258 Y177.688
G1 F1200 X71.16 Y169.589 E97.26266
G0 F6000 X71.16 Y169.023
G1 F1200 X79.824 Y177.688 E97.67021
G0 F6000 X80.39 Y177.688
G1 F1200 X71.16 Y168.458 E98.10436
G0 F6000 X71.16 Y167.892
G1 F1200 X80.955 Y177.688 E98.56511
G0 F6000 X81.521 Y177.688
G1 F1200 X71.16 Y167.326 E99.05249
G0 F6000 X71.16 Y166.761
G1 F1200 X82.087 Y177.688 E99.56646
G0 F6000 X82.653 Y177.688
G1 F1200 X71.16 Y166.195 E100.10705
G0 F6000 X71.16 Y165.629
G1 F1200 X83.218 Y177.688 E100.67425
G0 F6000 X83.784 Y177.688
G1 F1200 X71.16 Y165.064 E101.26804
G0 F6000 X71.16 Y164.498
G1 F1200 X84.35 Y177.688 E101.88846
G0 F6000 X84.915 Y177.688
G1 F1200 X71.16 Y163.932 E102.53548
G0 F6000 X71.16 Y163.367
G1 F1200 X85.481 Y177.688 E103.20909
G0 F6000 X86.047 Y177.688
G1 F1200 X71.16 Y162.801 E103.90933
G0 F6000 X71.16 Y162.235
G1 F1200 X86.612 Y177.688 E104.63617
G0 F6000 X87.178 Y177.688
G1 F1200 X71.16 Y161.67 E105.38961
G0 F6000 X71.16 Y161.104
G1 F1200 X87.744 Y177.688 E106.16967
G0 F6000 X88.309 Y177.688
G1 F1200 X71.16 Y160.538 E106.97633
G0 F6000 X71.16 Y159.973
G1 F1200 X88.875 Y177.688 E107.80959
G0 F6000 X89.441 Y177.688
G1 F1200 X71.16 Y159.407 E108.66947
G0 F6000 X71.16 Y158.841
G1 F1200 X90.006 Y177.688 E109.55595
G0 F6000 X90.572 Y177.688
G1 F1200 X71.16 Y158.275 E110.46906
G0 F6000 X71.16 Y157.71
G1 F1200 X91.138 Y177.688 E111.40876
G0 F6000 X91.703 Y177.688
G1 F1200 X71.16 Y157.144 E112.37506
G0 F6000 X71.16 Y156.578
G1 F1200 X92.269 Y177.688 E113.36799
G0 F6000 X92.835 Y177.688
G1 F1200 X71.16 Y156.013 E114.38751
G0 F6000 X71.16 Y155.447
G1 F1200 X93.401 Y177.688 E115.43366
G0 F6000 X93.966 Y177.688
G1 F1200 X71.16 Y154.881 E116.50641
G0 F6000 X71.16 Y154.316
G1 F1200 X94.532 Y177.688 E117.60576
G0 F6000 X95.098 Y177.688
G1 F1200 X71.16 Y153.75 E118.73173
G0 F6000 X71.16 Y153.184
G1 F1200 X95.663 Y177.688 E119.8843
G0 F6000 X96.229 Y177.688
G1 F1200 X71.16 Y152.619 E121.06347
G0 F6000 X71.16 Y152.053
G1 F1200 X96.795 Y177.688 E122.26926
G0 F6000 X97.36 Y177.688
G1 F1200 X71.16 Y151.487 E123.50165
G0 F6000 X71.16 Y150.922
G1 F1200 X97.926 Y177.688 E124.76064
G0 F6000 X98.492 Y177.688
G1 F1200 X71.16 Y150.356 E126.04625
G0 F6000 X71.16 Y149.79
G1 F1200 X99.057 Y177.688 E127.35847
G0 F6000 X99.623 Y177.688
G1 F1200 X71.16 Y149.224 E128.6973
G0 F6000 X71.16 Y148.659
G1 F1200 X100.189 Y177.688 E130.06274
G0 F6000 X100.754 Y177.688
G1 F1200 X71.16 Y148.093 E131.45477
G0 F6000 X71.16 Y147.527
G1 F1200 X101.32 Y177.688 E132.87343
G0 F6000 X101.886 Y177.688
G1 F1200 X71.16 Y146.962 E134.31869
G0 F6000 X71.16 Y146.396
G1 F1200 X102.451 Y177.688 E135.79054
G0 F6000 X103.017 Y177.688
G1 F1200 X71.16 Y145.83 E137.28902
G0 F6000 X71.16 Y145.265
G1 F1200 X103.583 Y177.688 E138.8141
G0 F6000 X104.149 Y177.688
G1 F1200 X71.16 Y144.699 E140.3658
G0 F6000 X71.16 Y144.133
G1 F1200 X104.714 Y177.688 E141.9441
G0 F6000 X105.28 Y177.688
G1 F1200 X71.16 Y143.568 E143.549
G0 F6000 X71.16 Y143.002
G1 F1200 X105.846 Y177.688 E145.18053
G0 F6000 X106.411 Y177.688
G1 F1200 X71.16 Y142.436 E146.83865
G0 F6000 X71.16 Y141.871
G1 F1200 X106.977 Y177.688 E148.52337
G0 F6000 X107.543 Y177.688
G1 F1200 X71.16 Y141.305 E150.23471
G0 F6000 X71.16 Y140.739
G1 F1200 X108.108 Y177.688 E151.97266
G0 F6000 X108.674 Y177.688
G1 F1200 X71.16 Y140.174 E153.7372
G0 F6000 X71.16 Y139.608
G1 F1200 X109.24 Y177.688 E155.52837
G0 F6000 X109.805 Y177.688
G1 F1200 X71.16 Y139.042 E157.34613
G0 F6000 X71.16 Y138.476
G1 F1200 X110.371 Y177.688 E159.19052
G0 F6000 X110.937 Y177.688
G1 F1200 X71.16 Y137.911 E161.06151
G0 F6000 X71.16 Y137.345
G1 F1200 X111.502 Y177.688 E162.9591
G0 F6000 X112.068 Y177.688
G1 F1200 X71.16 Y136.779 E164.88331
G0 F6000 X71.16 Y136.214
G1 F1200 X112.634 Y177.688 E166.83412
G0 F6000 X113.2 Y177.688
G1 F1200 X71.16 Y135.648 E168.81155
