;FLAVOR:Marlin
;TIME:13461
;Filament used: 8.39714m
;Layer height: 0.2
;MINX:62.845
;MINY:72.246
;MINZ:0.2
;MAXX:166.055
;MAXY:176.217
;MAXZ:37
;Generated with Cura_SteamEngine 5.2.1
M140 S60
M105
M190 S60
M104 S210
M105
M109 S210
M82 ;absolute extrusion mode
; Ender 3 Custom Start G-code
G92 E0 ; Reset Extruder
G28 ; Home all axes
G1 Z2.0 F3000 ; Move Z Axis up little to prevent scratching of Heat Bed
G1 X0.1 Y20 Z0.3 F5000.0 ; Move to start position
G1 X0.1 Y200.0 Z0.3 F1500.0 E15 ; Draw the first line
G1 X0.4 Y200.0 Z0.3 F5000.0 ; Move to side a little
G1 X0.4 Y20 Z0.3 F1500.0 E30 ; Draw the second line
G92 E0 ; Reset Extruder
G1 Z2.0 F3000 ; Move Z Axis up little to prevent scratching of Heat Bed
G1 X5 Y20 Z0.3 F5000.0 ; Move over to prevent blob squish
G92 E0
G92 E0
G1 F2700 E-5
;LAYER_COUNT:185
;LAYER:0
M107
G0 F6000 X66.731 Y74.873 Z0.2
;TYPE:SKIRT
G1 F2700 E0
G1 F1200 X67.471 Y74.297 E0.03119
G1 X68.257 Y73.785 E0.06239
G1 X69.084 Y73.343 E0.09358
G1 X69.946 Y72.973 E0.12478
G1 X70.836 Y72.677 E0.15597
G1 X71.748 Y72.459 E0.18716
G1 X72.675 Y72.318 E0.21835
G1 X73.546 Y72.259 E0.24738
G1 X74.175 Y72.246 E0.26831
G1 X154.506 Y72.247 E2.94013
G1 X155.204 Y72.257 E2.96335
G1 X156.14 Y72.311 E2.99453
G1 X157.068 Y72.443 E3.02571
G1 X157.982 Y72.655 E3.05691
G1 X158.874 Y72.944 E3.0881
G1 X159.739 Y73.307 E3.1193
G1 X160.569 Y73.743 E3.15048
G1 X161.36 Y74.248 E3.1817
G1 X162.104 Y74.819 E3.21289
G1 X162.797 Y75.451 E3.24408
G1 X163.434 Y76.139 E3.27527
G1 X164.009 Y76.88 E3.30646
G1 X164.52 Y77.666 E3.33765
G1 X164.962 Y78.494 E3.36886
G1 X165.331 Y79.356 E3.40005
G1 X165.626 Y80.246 E3.43124
G1 X165.844 Y81.158 E3.46242
G1 X165.984 Y82.086 E3.49364
G1 X166.042 Y82.947 E3.52234
G1 X166.055 Y83.576 E3.54327
G1 X166.054 Y118.553 E4.70661
G1 X166.044 Y119.274 E4.73059
G1 X165.991 Y120.21 E4.76177
G1 X165.858 Y121.138 E4.79295
G1 X165.647 Y122.052 E4.82415
G1 X165.359 Y122.945 E4.85536
G1 X164.996 Y123.809 E4.88653
G1 X164.56 Y124.64 E4.91774
G1 X164.056 Y125.43 E4.94891
G1 X163.485 Y126.175 E4.98013
G1 X162.983 Y126.736 E5.00517
G1 X161.013 Y128.79 E5.09982
G1 X159.308 Y130.673 E5.18431
G1 X157.679 Y132.579 E5.2677
G1 X156.086 Y134.552 E5.35205
G1 X154.577 Y136.535 E5.43493
G1 X153.113 Y138.575 E5.51844
G1 X151.691 Y140.679 E5.6029
G1 X150.361 Y142.773 E5.68541
G1 X149.053 Y144.967 E5.77037
G1 X147.825 Y147.166 E5.85414
G1 X146.67 Y149.378 E5.93714
G1 X145.561 Y151.658 E6.02146
G1 X144.528 Y153.944 E6.1049
G1 X143.541 Y156.308 E6.1901
G1 X142.653 Y158.608 E6.27211
G1 X141.822 Y160.962 E6.35514
G1 X141.033 Y163.415 E6.44084
G1 X140.341 Y165.792 E6.52318
G1 X139.762 Y167.999 E6.59907
G1 X139.485 Y168.896 E6.63029
G1 X139.133 Y169.765 E6.66148
G1 X138.709 Y170.601 E6.69266
G1 X138.214 Y171.398 E6.72386
G1 X137.654 Y172.15 E6.75505
G1 X137.031 Y172.852 E6.78626
G1 X136.351 Y173.498 E6.81746
G1 X135.619 Y174.083 E6.84862
G1 X134.839 Y174.605 E6.87984
G1 X134.018 Y175.057 E6.91101
G1 X133.161 Y175.439 E6.94222
G1 X132.275 Y175.746 E6.97341
G1 X131.366 Y175.976 E7.00459
G1 X130.44 Y176.128 E7.0358
G1 X129.462 Y176.202 E7.06843
G1 X128.799 Y176.217 E7.09048
G1 X119.943 Y176.216 E7.38503
G1 X119.226 Y176.206 E7.40888
G1 X118.268 Y176.17 E7.44077
G1 X115.63 Y176.095 E7.52855
G1 X113.142 Y176.095 E7.6113
G1 X110.568 Y176.168 E7.69694
G1 X110.21 Y176.186 E7.70887
G1 X109.059 Y176.217 E7.74716
G1 X100.198 Y176.216 E8.04188
G1 X99.5 Y176.206 E8.0651
G1 X98.564 Y176.152 E8.09628
G1 X97.636 Y176.02 E8.12746
G1 X96.722 Y175.808 E8.15866
G1 X95.83 Y175.519 E8.18985
G1 X94.965 Y175.156 E8.22105
G1 X94.135 Y174.72 E8.25223
G1 X93.344 Y174.215 E8.28345
G1 X92.6 Y173.644 E8.31464
G1 X91.907 Y173.012 E8.34584
G1 X91.27 Y172.324 E8.37702
G1 X90.695 Y171.583 E8.40822
G1 X90.184 Y170.797 E8.4394
G1 X89.742 Y169.969 E8.47061
G1 X89.373 Y169.107 E8.5018
G1 X89.019 Y168 E8.54046
G1 X88.727 Y166.888 E8.5787
G1 X88.027 Y164.357 E8.66604
G1 X87.287 Y161.95 E8.74979
G1 X86.472 Y159.544 E8.83428
G1 X85.602 Y157.195 E8.9176
G1 X84.67 Y154.882 E9.00054
G1 X83.652 Y152.548 E9.08523
G1 X82.579 Y150.266 E9.1691
G1 X81.452 Y148.038 E9.25215
G1 X80.253 Y145.82 E9.33601
G1 X78.984 Y143.627 E9.42028
G1 X77.685 Y141.52 E9.5026
G1 X76.264 Y139.358 E9.58865
G1 X74.856 Y137.339 E9.67052
G1 X73.356 Y135.315 E9.75431
G1 X71.795 Y133.327 E9.83838
G1 X70.173 Y131.379 E9.92269
G1 X68.527 Y129.511 E10.0055
G1 X66.767 Y127.623 E10.09135
G1 X65.915 Y126.735 E10.13228
G1 X65.295 Y126.031 E10.16348
G1 X64.738 Y125.276 E10.19469
G1 X64.247 Y124.477 E10.22588
G1 X63.825 Y123.639 E10.25709
G1 X63.477 Y122.769 E10.28825
G1 X63.204 Y121.871 E10.31947
G1 X63.009 Y120.954 E10.35065
G1 X62.892 Y120.023 E10.38186
G1 X62.86 Y119.459 E10.40065
G1 X62.845 Y118.796 E10.4227
G1 X62.846 Y83.771 E11.58764
G1 X62.855 Y83.106 E11.60976
G1 X62.908 Y82.17 E11.64094
G1 X63.04 Y81.241 E11.67215
G1 X63.251 Y80.327 E11.70335
G1 X63.539 Y79.435 E11.73453
G1 X63.902 Y78.57 E11.76573
G1 X64.337 Y77.739 E11.79692
G1 X64.841 Y76.949 E11.82809
G1 X65.411 Y76.204 E11.85929
G1 X66.043 Y75.51 E11.89051
G1 X66.731 Y74.873 E11.9217
G0 F6000 X67.119 Y75.069
G1 F1200 X67.855 Y74.516 E11.95231
G1 X68.636 Y74.028 E11.98294
G1 X69.456 Y73.61 E12.01356
G1 X70.31 Y73.265 E12.04419
G1 X71.19 Y72.995 E12.07481
G1 X72.09 Y72.803 E12.10542
G1 X73.004 Y72.689 E12.13605
G1 X73.557 Y72.659 E12.15447
G1 X74.175 Y72.646 E12.17503
G1 X154.5 Y72.647 E14.84665
G1 X155.198 Y72.657 E14.86987
G1 X156.117 Y72.71 E14.90048
G1 X157.028 Y72.843 E14.93111
G1 X157.924 Y73.054 E14.96172
G1 X158.798 Y73.342 E14.99233
G1 X159.645 Y73.705 E15.02298
G1 X160.456 Y74.14 E15.05359
G1 X161.226 Y74.644 E15.0842
G1 X161.95 Y75.213 E15.11482
G1 X162.622 Y75.843 E15.14546
G1 X163.237 Y76.528 E15.17608
G1 X163.79 Y77.264 E15.2067
G1 X164.277 Y78.045 E15.23731
G1 X164.694 Y78.866 E15.26794
G1 X165.039 Y79.72 E15.29857
G1 X165.308 Y80.6 E15.32918
G1 X165.5 Y81.501 E15.35982
G1 X165.613 Y82.414 E15.39042
G1 X165.642 Y82.958 E15.40854
G1 X165.655 Y83.576 E15.42909
G1 X165.654 Y118.547 E16.59223
G1 X165.644 Y119.268 E16.61622
G1 X165.591 Y120.187 E16.64683
G1 X165.459 Y121.098 E16.67745
G1 X165.248 Y121.994 E16.70807
G1 X164.96 Y122.869 E16.73871
G1 X164.598 Y123.715 E16.76931
G1 X164.163 Y124.527 E16.79995
G1 X163.66 Y125.298 E16.83057
G1 X163.091 Y126.022 E16.8612
G1 X162.695 Y126.459 E16.88081
G1 X160.693 Y128.546 E16.977
G1 X159.023 Y130.39 E17.05974
G1 X157.38 Y132.313 E17.14387
G1 X155.772 Y134.305 E17.22901
G1 X154.249 Y136.305 E17.31263
G1 X152.772 Y138.364 E17.39691
G1 X151.365 Y140.447 E17.48051
G1 X150.013 Y142.575 E17.56437
G1 X148.703 Y144.773 E17.64947
G1 X147.479 Y146.964 E17.73294
G1 X146.313 Y149.197 E17.81673
G1 X145.195 Y151.497 E17.90179
G1 X144.166 Y153.773 E17.98486
G1 X143.175 Y156.145 E18.07037
G1 X142.279 Y158.468 E18.15318
G1 X141.436 Y160.854 E18.23734
G1 X140.657 Y163.276 E18.32196
G1 X139.953 Y165.694 E18.40573
G1 X139.375 Y167.898 E18.48151
G1 X139.103 Y168.777 E18.51211
G1 X138.755 Y169.63 E18.54275
G1 X138.335 Y170.449 E18.57337
G1 X137.845 Y171.229 E18.60401
G1 X137.29 Y171.963 E18.63461
G1 X136.673 Y172.646 E18.66522
G1 X135.999 Y173.273 E18.69584
G1 X135.273 Y173.84 E18.72648
G1 X134.501 Y174.341 E18.75709
G1 X133.688 Y174.773 E18.78771
G1 X132.841 Y175.133 E18.81832
G1 X131.965 Y175.419 E18.84897
G1 X131.068 Y175.627 E18.8796
G1 X130.157 Y175.756 E18.9102
G1 X129.45 Y175.802 E18.93376
G1 X128.799 Y175.817 E18.95542
G1 X119.948 Y175.816 E19.24981
G1 X119.231 Y175.806 E19.27366
G1 X118.297 Y175.77 E19.30475
G1 X115.641 Y175.695 E19.39312
G1 X113.131 Y175.695 E19.4766
G1 X110.537 Y175.768 E19.56291
G1 X109.956 Y175.796 E19.58226
G1 X109.059 Y175.817 E19.6121
G1 X100.204 Y175.816 E19.90662
G1 X99.506 Y175.806 E19.92984
G1 X98.587 Y175.753 E19.96046
G1 X97.676 Y175.62 E19.99108
G1 X96.78 Y175.409 E20.02169
G1 X95.906 Y175.121 E20.0523
G1 X95.059 Y174.758 E20.08295
G1 X94.248 Y174.323 E20.11356
G1 X93.478 Y173.819 E20.14417
G1 X92.754 Y173.25 E20.17479
G1 X92.082 Y172.62 E20.20543
G1 X91.467 Y171.935 E20.23605
G1 X90.914 Y171.199 E20.26667
G1 X90.427 Y170.418 E20.29728
G1 X90.01 Y169.597 E20.32791
G1 X89.665 Y168.743 E20.35854
G1 X89.405 Y167.899 E20.38792
G1 X89.086 Y166.684 E20.4297
G1 X88.41 Y164.239 E20.51407
G1 X87.67 Y161.831 E20.59786
G1 X86.855 Y159.424 E20.68238
G1 X85.972 Y157.043 E20.76684
G1 X85.036 Y154.721 E20.85011
G1 X84.023 Y152.396 E20.93446
G1 X82.94 Y150.094 E21.01907
G1 X81.803 Y147.846 E21.10286
G1 X80.6 Y145.621 E21.18699
G1 X79.337 Y143.438 E21.27087
G1 X78.001 Y141.272 E21.35552
G1 X76.622 Y139.173 E21.43905
G1 X75.178 Y137.102 E21.52302
G1 X73.659 Y135.053 E21.60786
G1 X72.102 Y133.07 E21.69171
G1 X70.497 Y131.142 E21.77515
G1 X68.803 Y129.22 E21.86036
G1 X67.109 Y127.403 E21.94298
G1 X66.203 Y126.458 E21.98653
G1 X65.596 Y125.766 E22.01714
G1 X65.05 Y125.024 E22.04778
G1 X64.571 Y124.238 E22.0784
G1 X64.163 Y123.413 E22.10901
G1 X63.827 Y122.556 E22.13963
G1 X63.567 Y121.673 E22.17024
G1 X63.384 Y120.771 E22.20085
G1 X63.26 Y119.447 E22.24508
G1 X63.245 Y118.796 E22.26674
G1 X63.246 Y83.777 E23.43148
G1 X63.255 Y83.112 E23.4536
G1 X63.307 Y82.192 E23.48425
G1 X63.439 Y81.281 E23.51486
G1 X63.65 Y80.385 E23.54548
G1 X63.937 Y79.51 E23.57611
G1 X64.3 Y78.664 E23.60673
G1 X64.734 Y77.852 E23.63735
G1 X65.237 Y77.081 E23.66797
G1 X65.806 Y76.357 E23.69859
G1 X66.434 Y75.685 E23.72919
G1 X67.119 Y75.069 E23.75983
G0 F6000 X67.507 Y75.27
G1 F1200 X68.239 Y74.74 E23.78988
G1 X69.014 Y74.277 E23.81991
G1 X69.827 Y73.884 E23.84994
G1 X70.672 Y73.564 E23.88
G1 X71.541 Y73.321 E23.91001
G1 X72.429 Y73.155 E23.94006
G1 X73.568 Y73.059 E23.97807
G1 X74.175 Y73.046 E23.99827
G1 X154.494 Y73.047 E26.66969
G1 X155.192 Y73.057 E26.6929
G1 X156.094 Y73.11 E26.72296
G1 X156.987 Y73.242 E26.75298
G1 X157.865 Y73.453 E26.78302
G1 X158.721 Y73.741 E26.81305
G1 X159.548 Y74.103 E26.84308
G1 X160.34 Y74.538 E26.87313
G1 X161.091 Y75.04 E26.90318
G1 X161.794 Y75.607 E26.93322
G1 X162.444 Y76.234 E26.96326
G1 X163.036 Y76.916 E26.99329
G1 X163.566 Y77.647 E27.02332
G1 X164.028 Y78.423 E27.05336
G1 X164.421 Y79.236 E27.0834
G1 X164.739 Y80.081 E27.11343
G1 X164.982 Y80.951 E27.14347
G1 X165.147 Y81.839 E27.17351
G1 X165.242 Y82.969 E27.21123
G1 X165.255 Y83.576 E27.23142
G1 X165.254 Y118.541 E28.39436
G1 X165.244 Y119.262 E28.41834
G1 X165.192 Y120.164 E28.44839
G1 X165.059 Y121.057 E28.47842
G1 X164.849 Y121.936 E28.50848
G1 X164.562 Y122.792 E28.53851
G1 X164.2 Y123.619 E28.56853
G1 X163.766 Y124.411 E28.59857
G1 X163.264 Y125.162 E28.62862
G1 X162.406 Y126.182 E28.67295
G1 X160.425 Y128.247 E28.76813
G1 X158.707 Y130.145 E28.85327
G1 X157.048 Y132.086 E28.9382
G1 X155.489 Y134.018 E29.02077
G1 X153.922 Y136.076 E29.1068
G1 X152.448 Y138.129 E29.19086
G1 X151.029 Y140.23 E29.27519
G1 X149.659 Y142.387 E29.36018
G1 X148.368 Y144.552 E29.44402
G1 X147.133 Y146.763 E29.52825
G1 X145.943 Y149.044 E29.61382
G1 X144.842 Y151.307 E29.69752
G1 X143.796 Y153.62 E29.78195
G1 X142.804 Y155.996 E29.86759
G1 X141.904 Y158.327 E29.9507
G1 X141.054 Y160.735 E30.03563
G1 X140.275 Y163.157 E30.12025
G1 X139.566 Y165.596 E30.20473
G1 X138.988 Y167.796 E30.28039
G1 X138.72 Y168.659 E30.31044
G1 X138.377 Y169.494 E30.34047
G1 X137.962 Y170.296 E30.3705
G1 X137.477 Y171.058 E30.40054
G1 X136.927 Y171.774 E30.43057
G1 X136.315 Y172.439 E30.46063
G1 X135.647 Y173.047 E30.49067
G1 X134.928 Y173.593 E30.5207
G1 X134.164 Y174.074 E30.55073
G1 X133.36 Y174.485 E30.58076
G1 X132.522 Y174.824 E30.61083
G1 X131.658 Y175.087 E30.64087
G1 X130.775 Y175.272 E30.67087
G1 X129.438 Y175.402 E30.71555
G1 X128.799 Y175.417 E30.73681
G1 X119.954 Y175.416 E31.031
G1 X118.945 Y175.398 E31.06456
G1 X118.256 Y175.369 E31.0875
G1 X115.652 Y175.295 E31.17414
G1 X113.119 Y175.295 E31.25839
G1 X110.551 Y175.368 E31.34384
G1 X109.944 Y175.396 E31.36405
G1 X109.059 Y175.417 E31.39349
G1 X100.21 Y175.416 E31.68781
G1 X99.512 Y175.406 E31.71103
G1 X98.61 Y175.353 E31.74108
G1 X97.717 Y175.221 E31.7711
G1 X96.839 Y175.01 E31.80114
G1 X95.983 Y174.722 E31.83118
G1 X95.156 Y174.36 E31.8612
G1 X94.364 Y173.925 E31.89126
G1 X93.613 Y173.423 E31.9213
G1 X92.91 Y172.856 E31.95134
G1 X92.26 Y172.229 E31.98138
G1 X91.668 Y171.547 E32.01142
G1 X91.138 Y170.816 E32.04145
G1 X90.676 Y170.04 E32.07148
G1 X90.283 Y169.227 E32.10152
G1 X89.965 Y168.382 E32.13155
G1 X89.792 Y167.797 E32.15184
G1 X89.486 Y166.63 E32.19196
G1 X88.791 Y164.119 E32.27862
G1 X88.048 Y161.701 E32.36275
G1 X87.233 Y159.294 E32.44728
G1 X86.347 Y156.903 E32.53209
G1 X85.398 Y154.548 E32.61653
G1 X84.387 Y152.231 E32.70061
G1 X83.302 Y149.922 E32.78547
G1 X82.162 Y147.669 E32.86945
G1 X80.955 Y145.436 E32.95387
G1 X79.665 Y143.207 E33.03953
G1 X78.348 Y141.072 E33.12297
G1 X76.951 Y138.946 E33.20758
G1 X75.495 Y136.858 E33.29224
G1 X73.996 Y134.836 E33.37596
G1 X72.408 Y132.812 E33.46152
G1 X70.803 Y130.885 E33.54494
G1 X69.113 Y128.967 E33.62996
G1 X67.329 Y127.054 E33.71696
G1 X66.492 Y126.181 E33.75719
G1 X65.897 Y125.502 E33.78721
G1 X65.364 Y124.773 E33.81725
G1 X64.897 Y124 E33.84729
G1 X64.501 Y123.188 E33.87733
G1 X64.178 Y122.345 E33.90736
G1 X63.93 Y121.476 E33.93742
G1 X63.761 Y120.589 E33.96745
G1 X63.66 Y119.435 E34.00598
G1 X63.645 Y118.796 E34.02724
G1 X63.646 Y83.782 E35.19181
G1 X63.655 Y83.117 E35.21393
G1 X63.707 Y82.215 E35.24398
G1 X63.839 Y81.322 E35.274
G1 X64.049 Y80.444 E35.30403
G1 X64.336 Y79.587 E35.33409
G1 X64.698 Y78.76 E35.36411
G1 X65.131 Y77.968 E35.39414
G1 X65.633 Y77.217 E35.42418
G1 X66.2 Y76.513 E35.45425
G1 X66.826 Y75.863 E35.48426
G1 X67.507 Y75.27 E35.5143
G1 F2700 E30.5143
;MESH:box.stl
G0 F6000 X79.456 Y97.817
G0 X82.473 Y105.269
;TYPE:WALL-INNER
G1 F2700 E35.5143
G1 F1200 X81.718 Y105.269 E35.53941
G1 X80.971 Y105.132 E35.56467
G1 X80.268 Y104.859 E35.58975
G1 X79.621 Y104.459 E35.61505
G1 X79.063 Y103.949 E35.64019
G1 X78.608 Y103.347 E35.66529
G1 X78.27 Y102.669 E35.69049
G1 X78.063 Y101.934 E35.71589
G1 X77.998 Y101.243 E35.73897
G1 X77.998 Y101.133 E35.74263
G1 X78.062 Y100.43 E35.76611
G1 X78.271 Y99.701 E35.79133
G1 X78.609 Y99.023 E35.81653
G1 X79.064 Y98.421 E35.84163
G1 X79.621 Y97.912 E35.86672
G1 X80.268 Y97.512 E35.89202
G1 X80.971 Y97.239 E35.9171
G1 X81.718 Y97.102 E35.94236
G1 X82.473 Y97.102 E35.96748
G1 X83.218 Y97.24 E35.99268
G1 X83.925 Y97.511 E36.01786
G1 X84.571 Y97.915 E36.0432
G1 X85.125 Y98.423 E36.0682
G1 X85.581 Y99.026 E36.09335
G1 X85.912 Y99.688 E36.11796
G1 X86.131 Y100.456 E36.14452
G1 X86.199 Y101.184 E36.16884
G1 X86.128 Y101.946 E36.1943
G1 X85.912 Y102.683 E36.21984
G1 X85.585 Y103.345 E36.2444
G1 X85.126 Y103.947 E36.26958
G1 X84.571 Y104.456 E36.29463
G1 X83.925 Y104.86 E36.31997
G1 X83.218 Y105.131 E36.34515
G1 X82.473 Y105.269 E36.37035
G0 F6000 X83.108 Y104.746
;TYPE:WALL-OUTER
G1 F1200 X82.436 Y104.871 E36.39308
G1 X81.756 Y104.871 E36.4157
G1 X81.066 Y104.74 E36.43906
G1 X80.43 Y104.49 E36.46179
G1 X79.879 Y104.149 E36.48334
G1 X79.374 Y103.691 E36.50602
G1 X78.941 Y103.119 E36.52988
G1 X78.652 Y102.538 E36.55146
G1 X78.457 Y101.865 E36.57477
G1 X78.396 Y101.207 E36.59674
G1 X78.455 Y100.521 E36.61965
G1 X78.652 Y99.833 E36.64345
G1 X78.942 Y99.251 E36.66508
G1 X79.375 Y98.679 E36.68894
G1 X79.879 Y98.222 E36.71156
G1 X80.43 Y97.881 E36.73312
G1 X81.066 Y97.631 E36.75585
G1 X81.756 Y97.5 E36.77921
G1 X82.436 Y97.5 E36.80182
G1 X83.108 Y97.625 E36.82456
G1 X83.762 Y97.881 E36.84792
G1 X84.329 Y98.233 E36.87011
G1 X84.829 Y98.692 E36.89269
G1 X85.241 Y99.236 E36.91538
G1 X85.544 Y99.844 E36.93798
G1 X85.736 Y100.521 E36.96138
G1 X85.796 Y101.203 E36.98415
G1 X85.735 Y101.858 E37.00603
G1 X85.544 Y102.527 E37.02917
G1 X85.242 Y103.134 E37.05172
G1 X84.83 Y103.678 E37.07442
G1 X84.329 Y104.138 E37.09704
G1 X83.762 Y104.49 E37.11924
G1 X83.108 Y104.746 E37.1426
G1 F2700 E32.1426
G0 F6000 X83.215 Y105.025
G0 X84.619 Y104.643
G0 X111.458 Y106.012
G0 X114.796 Y107.371
;TYPE:WALL-INNER
G1 F2700 E37.1426
G1 F1200 X113.895 Y107.172 E37.17329
G1 X113.047 Y106.844 E37.20353
G1 X112.253 Y106.399 E37.2338
G1 X111.536 Y105.844 E37.26396
G1 X110.902 Y105.185 E37.29438
G1 X110.369 Y104.44 E37.32484
