;FLAVOR:Marlin
;TIME:4016
;Filament used: 2.89034m
;Layer height: 0.2
;MINX:88
;MINY:64
;MINZ:0.2
;MAXX:147
;MAXY:171
;MAXZ:8
;Generated with Cura_SteamEngine 5.2.1
M140 S70
M105
M190 S70
M104 S240
M105
M109 S240
M82 ;absolute extrusion mode
; Ender 3 Custom Start G-code
G92 E0 ; Reset Extruder
G28 ; Home all axes
G1 Z2.0 F3000 ; Move Z Axis up little to prevent scratching of Heat Bed
G1 X0.1 Y20 Z0.3 F5000.0 ; Move to start position
G1 X0.1 Y200.0 Z0.3 F1500.0 E15 ; Draw the first line
G1 X0.4 Y200.0 Z0.3 F5000.0 ; Move to side a little
G1 X0.4 Y20 Z0.3 F1500.0 E30 ; Draw the second line
G92 E0 ; Reset Extruder
G1 Z2.0 F3000 ; Move Z Axis up little to prevent scratching of Heat Bed
G1 X5 Y20 Z0.3 F5000.0 ; Move over to prevent blob squish
G92 E0
G92 E0
G1 F2700 E-5
;LAYER_COUNT:40
;LAYER:0
M107
G0 F6000 X89.996 Y68.703 Z0.2
;TYPE:SKIRT
G1 F2700 E0
G1 F900 X90.566 Y67.958 E0.0312
G1 X91.198 Y67.264 E0.06242
G1 X91.886 Y66.627 E0.0936
G1 X92.626 Y66.051 E0.12479
G1 X93.412 Y65.539 E0.15599
G1 X94.239 Y65.097 E0.18718
G1 X95.101 Y64.727 E0.21838
G1 X95.991 Y64.431 E0.24958
G1 X96.903 Y64.213 E0.28077
G1 X97.83 Y64.072 E0.31195
G1 X98.701 Y64.013 E0.34099
G1 X99.33 Y64 E0.36191
G1 X135.451 Y64.001 E1.5633
G1 X136.149 Y64.011 E1.58652
G1 X137.085 Y64.065 E1.6177
G1 X138.013 Y64.197 E1.64888
G1 X138.927 Y64.409 E1.68009
G1 X139.819 Y64.698 E1.71127
G1 X140.684 Y65.061 E1.74247
G1 X141.514 Y65.497 E1.77366
G1 X142.305 Y66.002 E1.80487
G1 X143.049 Y66.573 E1.83606
G1 X143.742 Y67.205 E1.86726
G1 X144.379 Y67.893 E1.89844
G1 X144.954 Y68.634 E1.92964
G1 X145.465 Y69.42 E1.96082
G1 X145.907 Y70.248 E1.99204
G1 X146.276 Y71.11 E2.02322
G1 X146.571 Y72 E2.05441
G1 X146.789 Y72.912 E2.0856
G1 X146.929 Y73.84 E2.11681
G1 X146.987 Y74.701 E2.14551
G1 X147 Y75.33 E2.16644
G1 X146.999 Y159.4 E4.96262
G1 X146.99 Y160.127 E4.9868
G1 X146.939 Y161.064 E5.01801
G1 X146.807 Y161.992 E5.04919
G1 X146.598 Y162.906 E5.08037
G1 X146.311 Y163.799 E5.11157
G1 X145.949 Y164.665 E5.14279
G1 X145.515 Y165.496 E5.17397
G1 X145.011 Y166.287 E5.20516
G1 X144.442 Y167.032 E5.23634
G1 X143.811 Y167.727 E5.26757
G1 X143.124 Y168.365 E5.29875
G1 X142.385 Y168.942 E5.32993
G1 X141.599 Y169.454 E5.36113
G1 X140.773 Y169.897 E5.39231
G1 X139.911 Y170.269 E5.42353
G1 X139.022 Y170.565 E5.4547
G1 X138.11 Y170.785 E5.4859
G1 X137.183 Y170.926 E5.51709
G1 X136.299 Y170.987 E5.54656
G1 X135.67 Y171 E5.56748
G1 X99.565 Y170.999 E6.76834
G1 X98.867 Y170.99 E6.79156
G1 X97.931 Y170.938 E6.82274
G1 X97.002 Y170.806 E6.85395
G1 X96.088 Y170.596 E6.88514
G1 X95.195 Y170.309 E6.91634
G1 X94.33 Y169.946 E6.94754
G1 X93.499 Y169.512 E6.97872
G1 X92.708 Y169.008 E7.00991
G1 X91.963 Y168.438 E7.04111
G1 X91.269 Y167.807 E7.07231
G1 X90.632 Y167.12 E7.10347
G1 X90.055 Y166.38 E7.13468
G1 X89.543 Y165.594 E7.16588
G1 X89.1 Y164.767 E7.19709
G1 X88.729 Y163.906 E7.22827
G1 X88.433 Y163.016 E7.25946
G1 X88.214 Y162.104 E7.29066
G1 X88.073 Y161.177 E7.32185
G1 X88.013 Y160.288 E7.35148
G1 X88 Y159.658 E7.37244
G1 X88.001 Y75.525 E10.17072
G1 X88.01 Y74.86 E10.19284
G1 X88.063 Y73.924 E10.22402
G1 X88.195 Y72.995 E10.25523
G1 X88.406 Y72.081 E10.28642
G1 X88.694 Y71.189 E10.3176
G1 X89.057 Y70.324 E10.3488
G1 X89.492 Y69.493 E10.38
G1 X89.996 Y68.703 E10.41117
G0 F6000 X90.392 Y68.835
G1 F900 X90.961 Y68.111 E10.44179
G1 X91.589 Y67.439 E10.47238
G1 X92.274 Y66.823 E10.50303
G1 X93.01 Y66.27 E10.53364
G1 X93.791 Y65.782 E10.56427
G1 X94.611 Y65.364 E10.59489
G1 X95.465 Y65.019 E10.62552
G1 X96.345 Y64.749 E10.65614
G1 X97.245 Y64.557 E10.68674
G1 X98.159 Y64.443 E10.71738
G1 X98.712 Y64.413 E10.7358
G1 X99.33 Y64.4 E10.75636
G1 X135.293 Y64.4 E11.95249
G1 X136.143 Y64.411 E11.98077
G1 X137.062 Y64.464 E12.01138
G1 X137.973 Y64.597 E12.042
G1 X138.869 Y64.808 E12.07262
G1 X139.743 Y65.096 E12.10323
G1 X140.59 Y65.459 E12.13388
G1 X141.401 Y65.894 E12.16449
G1 X142.171 Y66.398 E12.1951
G1 X142.895 Y66.967 E12.22572
G1 X143.567 Y67.597 E12.25636
G1 X144.182 Y68.282 E12.28698
G1 X144.735 Y69.018 E12.3176
G1 X145.222 Y69.799 E12.34821
G1 X145.639 Y70.62 E12.37884
G1 X145.984 Y71.474 E12.40947
G1 X146.253 Y72.354 E12.44008
G1 X146.445 Y73.255 E12.47072
G1 X146.558 Y74.168 E12.50132
G1 X146.587 Y74.712 E12.51943
G1 X146.6 Y75.33 E12.53999
G1 X146.599 Y159.395 E15.33601
G1 X146.59 Y160.122 E15.36019
G1 X146.539 Y161.041 E15.3908
G1 X146.408 Y161.953 E15.42145
G1 X146.198 Y162.849 E15.45206
G1 X145.912 Y163.724 E15.48267
G1 X145.551 Y164.571 E15.5133
G1 X145.117 Y165.383 E15.54392
G1 X144.615 Y166.155 E15.57455
G1 X144.047 Y166.88 E15.60518
G1 X143.419 Y167.553 E15.6358
G1 X142.735 Y168.169 E15.66641
G1 X142 Y168.723 E15.69702
G1 X141.22 Y169.212 E15.72764
G1 X140.4 Y169.631 E15.75827
G1 X139.547 Y169.977 E15.78889
G1 X138.667 Y170.248 E15.81951
G1 X137.767 Y170.441 E15.85013
G1 X136.853 Y170.556 E15.88077
G1 X136.288 Y170.587 E15.89959
G1 X135.67 Y170.6 E15.92015
G1 X99.57 Y170.599 E17.12084
G1 X98.872 Y170.59 E17.14405
G1 X97.953 Y170.538 E17.17467
G1 X97.042 Y170.407 E17.20528
G1 X96.146 Y170.197 E17.23589
G1 X95.271 Y169.91 E17.26652
G1 X94.424 Y169.548 E17.29715
G1 X93.612 Y169.114 E17.32778
G1 X92.841 Y168.612 E17.35838
G1 X92.116 Y168.044 E17.38901
G1 X91.443 Y167.415 E17.41965
G1 X90.828 Y166.731 E17.45024
G1 X90.274 Y165.996 E17.48086
G1 X89.786 Y165.215 E17.51149
G1 X89.367 Y164.395 E17.54211
G1 X89.021 Y163.542 E17.57273
G1 X88.751 Y162.662 E17.60334
G1 X88.558 Y161.761 E17.63399
G1 X88.444 Y160.848 E17.66459
G1 X88.413 Y160.277 E17.68361
G1 X88.4 Y159.658 E17.70421
G1 X88.401 Y75.531 E20.50228
G1 X88.41 Y74.866 E20.5244
G1 X88.462 Y73.946 E20.55505
G1 X88.594 Y73.035 E20.58567
G1 X88.805 Y72.139 E20.61628
G1 X89.092 Y71.264 E20.64691
G1 X89.455 Y70.418 E20.67753
G1 X89.889 Y69.606 E20.70815
G1 X90.392 Y68.835 E20.73877
G0 F6000 X90.788 Y68.971
G1 F900 X91.355 Y68.267 E20.76884
G1 X91.981 Y67.617 E20.79885
G1 X92.662 Y67.024 E20.82888
G1 X93.394 Y66.494 E20.85894
G1 X94.169 Y66.031 E20.88897
G1 X94.982 Y65.638 E20.919
G1 X95.827 Y65.318 E20.94906
G1 X96.696 Y65.075 E20.97907
G1 X97.584 Y64.909 E21.00911
G1 X98.723 Y64.813 E21.04713
G1 X99.33 Y64.8 E21.06732
G1 X135.293 Y64.8 E22.26346
G1 X136.137 Y64.811 E22.29153
G1 X137.039 Y64.864 E22.32159
G1 X137.932 Y64.996 E22.35161
G1 X138.81 Y65.207 E22.38164
G1 X139.666 Y65.495 E22.41168
G1 X140.493 Y65.857 E22.44171
G1 X141.285 Y66.292 E22.47176
G1 X142.036 Y66.794 E22.50181
G1 X142.739 Y67.361 E22.53185
G1 X143.389 Y67.988 E22.56188
G1 X143.981 Y68.67 E22.59192
G1 X144.511 Y69.401 E22.62195
G1 X144.973 Y70.177 E22.65199
G1 X145.366 Y70.99 E22.68202
G1 X145.684 Y71.835 E22.71205
G1 X145.927 Y72.705 E22.7421
G1 X146.092 Y73.593 E22.77214
G1 X146.187 Y74.723 E22.80985
G1 X146.2 Y75.33 E22.83005
G1 X146.199 Y159.39 E25.62589
G1 X146.19 Y160.117 E25.65008
G1 X146.139 Y161.019 E25.68013
G1 X146.008 Y161.913 E25.71018
G1 X145.799 Y162.791 E25.7402
G1 X145.513 Y163.648 E25.77024
G1 X145.152 Y164.476 E25.80029
G1 X144.72 Y165.268 E25.83029
G1 X144.219 Y166.02 E25.86035
G1 X143.653 Y166.724 E25.89039
G1 X143.028 Y167.375 E25.92041
G1 X142.347 Y167.969 E25.95046
G1 X141.616 Y168.5 E25.98051
G1 X140.842 Y168.964 E26.01053
G1 X140.029 Y169.358 E26.04058
G1 X139.185 Y169.678 E26.0706
G1 X138.315 Y169.923 E26.10066
G1 X137.428 Y170.089 E26.13068
G1 X136.277 Y170.187 E26.1691
G1 X135.67 Y170.2 E26.18929
G1 X99.575 Y170.199 E27.38981
G1 X98.877 Y170.19 E27.41303
G1 X97.976 Y170.139 E27.44305
G1 X97.082 Y170.007 E27.4731
G1 X96.204 Y169.798 E27.50312
G1 X95.347 Y169.511 E27.53318
G1 X94.52 Y169.15 E27.56319
G1 X93.727 Y168.717 E27.59325
G1 X92.976 Y168.216 E27.62327
G1 X92.272 Y167.65 E27.65332
G1 X91.621 Y167.024 E27.68336
G1 X91.028 Y166.343 E27.71339
G1 X90.498 Y165.612 E27.74342
G1 X90.034 Y164.837 E27.77346
G1 X89.64 Y164.024 E27.80351
G1 X89.32 Y163.18 E27.83353
G1 X89.076 Y162.31 E27.86359
G1 X88.91 Y161.422 E27.89363
G1 X88.813 Y160.267 E27.93218
G1 X88.8 Y159.658 E27.95244
G1 X88.801 Y75.536 E30.75035
G1 X88.81 Y74.871 E30.77247
G1 X88.862 Y73.969 E30.80252
G1 X88.994 Y73.076 E30.83255
G1 X89.204 Y72.198 E30.86257
G1 X89.491 Y71.341 E30.89263
G1 X89.853 Y70.514 E30.92266
G1 X90.286 Y69.722 E30.95268
G1 X90.788 Y68.971 E30.98273
G1 F2700 E25.98273
;MESH:jig.stl
G0 F6000 X112.433 Y85.458
G0 X113.986 Y87.698
G0 X114.499 Y88.285
G0 X114.992 Y88.678
G0 X117.285 Y90.047
;TYPE:WALL-INNER
G1 F2700 E30.98273
G1 F900 X116.411 Y89.929 E31.01206
G1 X115.582 Y89.66 E31.04105
G1 X114.807 Y89.24 E31.07037
G1 X114.209 Y88.773 E31.0956
G1 X114.022 Y88.594 E31.10421
G1 X113.509 Y87.996 E31.13042
G1 X113.068 Y87.243 E31.15944
G1 X112.775 Y86.449 E31.18759
G1 X112.619 Y85.62 E31.21565
G1 X112.619 Y84.709 E31.24595
G1 X112.634 Y84.592 E31.24987
G1 X112.77 Y83.84 E31.27529
G1 X113.082 Y83.011 E31.30475
G1 X113.529 Y82.265 E31.33367
G1 X114.022 Y81.698 E31.35866
G1 X114.208 Y81.52 E31.36723
G1 X114.801 Y81.049 E31.39241
G1 X115.571 Y80.635 E31.42149
G1 X116.403 Y80.365 E31.45058
G1 X117.266 Y80.246 E31.47956
G1 X118.162 Y80.284 E31.50939
G1 X118.887 Y80.449 E31.53412
G1 X119.131 Y80.528 E31.54265
G1 X119.826 Y80.825 E31.56779
G1 X120.451 Y81.237 E31.59268
G1 X120.651 Y81.397 E31.6012
G1 X121.196 Y81.92 E31.62633
G1 X121.636 Y82.525 E31.65121
G1 X121.765 Y82.741 E31.65957
G1 X122.094 Y83.425 E31.68482
G1 X122.321 Y84.245 E31.71312
G1 X122.395 Y85.018 E31.73895
G1 X122.395 Y85.269 E31.74729
G1 X122.319 Y86.056 E31.77359
G1 X122.088 Y86.869 E31.8017
G1 X121.727 Y87.631 E31.82975
G1 X121.212 Y88.35 E31.85916
G1 X120.583 Y88.96 E31.88831
G1 X119.838 Y89.46 E31.91815
G1 X119.024 Y89.809 E31.9476
G1 X118.182 Y90.002 E31.97634
G1 X117.285 Y90.047 E32.00621
G0 F6000 X117.305 Y89.646
G1 F900 X116.514 Y89.537 E32.03277
G1 X115.753 Y89.293 E32.05935
G1 X115.026 Y88.905 E32.08675
G1 X114.389 Y88.4 E32.11379
G1 X113.857 Y87.789 E32.14074
G1 X113.445 Y87.109 E32.16718
G1 X113.155 Y86.338 E32.19458
G1 X113.017 Y85.548 E32.22125
G1 X113.017 Y84.744 E32.24799
G1 X113.157 Y83.949 E32.27484
G1 X113.444 Y83.188 E32.30189
G1 X113.852 Y82.504 E32.32838
G1 X114.383 Y81.892 E32.35533
G1 X115.019 Y81.386 E32.38236
G1 X115.721 Y81.008 E32.40888
G1 X116.492 Y80.756 E32.43586
G1 X117.298 Y80.645 E32.46292
G1 X118.102 Y80.682 E32.48969
G1 X118.89 Y80.859 E32.51655
G1 X119.637 Y81.179 E32.54358
G1 X120.308 Y81.622 E32.57032
G1 X120.891 Y82.181 E32.59719
G1 X121.366 Y82.835 E32.62407
G1 X121.718 Y83.565 E32.65103
G1 X121.931 Y84.35 E32.67808
G1 X122.005 Y85.141 E32.7045
G1 X121.933 Y85.952 E32.73158
G1 X121.713 Y86.728 E32.75841
G1 X121.361 Y87.457 E32.78534
G1 X120.887 Y88.109 E32.81215
G1 X120.304 Y88.667 E32.83899
G1 X119.641 Y89.106 E32.86544
G1 X118.9 Y89.428 E32.89231
G1 X118.099 Y89.61 E32.91963
G1 X117.305 Y89.646 E32.94606
G0 F6000 X116.597 Y89.145
G1 F900 X115.901 Y88.921 E32.97038
G1 X115.244 Y88.573 E32.99511
G1 X114.665 Y88.11 E33.01977
G1 X114.181 Y87.554 E33.04429
G1 X113.805 Y86.93 E33.06852
G1 X113.546 Y86.236 E33.09315
G1 X113.416 Y85.512 E33.11762
G1 X113.416 Y84.78 E33.14197
G1 X113.543 Y84.057 E33.16638
G1 X113.806 Y83.361 E33.19113
G1 X114.177 Y82.74 E33.21519
G1 X114.663 Y82.18 E33.23985
G1 X115.244 Y81.719 E33.26452
G1 X115.886 Y81.374 E33.28876
G1 X116.618 Y81.142 E33.3143
G1 X117.318 Y81.046 E33.3378
G1 X118.052 Y81.08 E33.36224
G1 X118.765 Y81.241 E33.38655
G1 X119.449 Y81.534 E33.4113
G1 X120.056 Y81.935 E33.43549
G1 X120.592 Y82.449 E33.46019
G1 X121.019 Y83.037 E33.48436
G1 X121.343 Y83.708 E33.50915
G1 X121.536 Y84.418 E33.53362
G1 X121.603 Y85.144 E33.55787
G1 X121.535 Y85.88 E33.58245
G1 X121.342 Y86.585 E33.60676
G1 X121.018 Y87.251 E33.6314
G1 X120.586 Y87.846 E33.65585
G1 X120.055 Y88.354 E33.68029
G1 X119.449 Y88.755 E33.70446
G1 X118.792 Y89.039 E33.72827
G1 X118.05 Y89.212 E33.75361
G1 X117.32 Y89.242 E33.77791
G1 X116.597 Y89.145 E33.80217
G1 F2700 E28.80217
G0 F6000 X116.557 Y89.443
G0 X117.791 Y89.447
G0 X118.924 Y89.307
G1 F2700 E33.80217
G0 F6000 X118.65 Y88.665
;TYPE:WALL-OUTER
G1 F900 X118.01 Y88.811 E33.82401
G1 X117.318 Y88.841 E33.84704
G1 X116.68 Y88.754 E33.86846
G1 X116.028 Y88.54 E33.89128
G1 X115.465 Y88.236 E33.91256
G1 X114.954 Y87.832 E33.93423
G1 X114.505 Y87.319 E33.95691
G1 X114.167 Y86.753 E33.97883
G1 X113.937 Y86.146 E34.00042
G1 X113.814 Y85.476 E34.02308
G1 X113.814 Y84.816 E34.04503
G1 X113.937 Y84.146 E34.06769
G1 X114.16 Y83.554 E34.08873
G1 X114.516 Y82.959 E34.11179
G1 X114.954 Y82.46 E34.13387
G1 X115.479 Y82.047 E34.15609
G1 X116.061 Y81.738 E34.17801
G1 X116.694 Y81.535 E34.20012
G1 X117.317 Y81.45 E34.22103
G1 X118.015 Y81.482 E34.24427
G1 X118.623 Y81.619 E34.265
G1 X119.271 Y81.896 E34.28844
G1 X119.82 Y82.262 E34.31038
G1 X120.273 Y82.697 E34.33127
G1 X120.684 Y83.262 E34.35451
G1 X120.958 Y83.831 E34.37551
G1 X121.142 Y84.485 E34.39811
G1 X121.2 Y85.162 E34.42071
G1 X121.141 Y85.808 E34.44229
G1 X120.965 Y86.445 E34.46427
G1 X120.684 Y87.029 E34.48582
G1 X120.285 Y87.582 E34.5085
G1 X119.806 Y88.041 E34.53057
G1 X119.257 Y88.404 E34.55246
G1 X118.65 Y88.665 E34.57443
G1 F2700 E29.57443
G0 F6000 X118.924 Y89.307
G0 X118.319 Y90.157
G0 X117.746 Y106.438
G0 X114.6 Y107.861
G0 X113.81 Y108.343
G0 X113.099 Y108.936
G0 X112.481 Y109.625
G0 X111.971 Y110.396
G0 X111.577 Y111.235
G0 X111.31 Y112.122
G0 X111.176 Y113.039
G0 X111.177 Y113.972
G0 X111.31 Y114.878
G0 X111.577 Y115.765
G0 X111.971 Y116.604
G0 X112.481 Y117.375
G0 X113.099 Y118.064
G0 X113.81 Y118.657
G0 X114.257 Y118.929
G0 X117.253 Y120.4
;TYPE:WALL-INNER
G1 F2700 E34.57443
G1 F900 X116.251 Y120.288 E34.60797
G1 X115.273 Y120.03 E34.64161
G1 X114.346 Y119.638 E34.67509
G1 X113.487 Y119.113 E34.70857
G1 X112.71 Y118.468 E34.74216
G1 X112.035 Y117.721 E34.77564
G1 X111.477 Y116.877 E34.80929
G1 X111.052 Y115.969 E34.84264
G1 X110.762 Y115.003 E34.87619
G1 X110.616 Y114.025 E34.90907
G1 X110.615 Y113.102 E34.93977
G1 X110.629 Y112.896 E34.94664
G1 X110.761 Y112 E34.97676
G1 X111.053 Y111.031 E35.01042
G1 X111.477 Y110.124 E35.04372
G1 X112.035 Y109.279 E35.0774
G1 X112.71 Y108.532 E35.11089
G1 X113.488 Y107.886 E35.14452
G1 X114.335 Y107.368 E35.17755
G1 X115.258 Y106.975 E35.21091
G1 X116.238 Y106.71 E35.24468
G1 X117.249 Y106.604 E35.27849
G1 X118.254 Y106.641 E35.31194
G1 X119.255 Y106.826 E35.34579
G1 X120.201 Y107.146 E35.37901
G1 X121.095 Y107.61 E35.41251
G1 X121.915 Y108.197 E35.44605
G1 X122.64 Y108.891 E35.47943
G1 X123.258 Y109.689 E35.513
G1 X123.747 Y110.559 E35.5462
G1 X124.109 Y111.495 E35.57958
G1 X124.329 Y112.488 E35.6134
G1 X124.405 Y113.484 E35.64663
G1 X124.331 Y114.498 E35.68044
G1 X124.112 Y115.497 E35.71446
G1 X123.75 Y116.435 E35.7479
G1 X123.258 Y117.311 E35.78132
G1 X122.64 Y118.109 E35.81489
G1 X121.915 Y118.803 E35.84827
G1 X121.096 Y119.389 E35.88176
G1 X120.206 Y119.847 E35.91505
G1 X119.264 Y120.172 E35.9482
G1 X118.256 Y120.362 E35.98231
G1 X117.253 Y120.4 E36.0157
G0 F6000 X116.322 Y119.894
G1 F900 X115.394 Y119.652 E36.04759
G1 X114.528 Y119.282 E36.07892
G1 X113.719 Y118.788 E36.11044
G1 X112.987 Y118.18 E36.14209
G1 X112.35 Y117.472 E36.17377
G1 X111.831 Y116.687 E36.20507
G1 X111.425 Y115.82 E36.23691
G1 X111.153 Y114.915 E36.26834
G1 X111.016 Y113.993 E36.29934
G1 X111.015 Y113.102 E36.32898
G1 X111.025 Y112.954 E36.33391
G1 X111.153 Y112.085 E36.36313
G1 X111.425 Y111.18 E36.39456
G1 X111.831 Y110.313 E36.4264
G1 X112.35 Y109.528 E36.4577
G1 X112.987 Y108.82 E36.48937
G1 X113.716 Y108.211 E36.52097
G1 X114.521 Y107.722 E36.5523
G1 X115.391 Y107.352 E36.58374
G1 X116.314 Y107.108 E36.61549
G1 X117.266 Y107.001 E36.64736
G1 X118.21 Y107.038 E36.67878
G1 X119.148 Y107.208 E36.71049
G1 X120.042 Y107.515 E36.74192
G1 X120.887 Y107.952 E36.77356
G1 X121.659 Y108.504 E36.80513
G1 X122.34 Y109.159 E36.83656
G1 X122.924 Y109.913 E36.86828
G1 X123.385 Y110.733 E36.89957
G1 X123.725 Y111.612 E36.93091
G1 X123.934 Y112.551 E36.96291
G1 X124.004 Y113.489 E36.99419
G1 X123.927 Y114.476 E37.02712
G1 X123.728 Y115.379 E37.05787
G1 X123.386 Y116.267 E37.08952
G1 X122.924 Y117.087 E37.12083
G1 X122.34 Y117.841 E37.15255
G1 X121.659 Y118.496 E37.18398
G1 X120.888 Y119.048 E37.21551
G1 X120.054 Y119.48 E37.24675
