;FLAVOR:Marlin
;TIME:20853
;Filament used: 14.0453m
;Layer height: 0.2
;MINX:89
;MINY:55.071
;MINZ:0.2
;MAXX:146
;MAXY:179.929
;MAXZ:45
;Generated with Cura_SteamEngine 5.2.1
M140 S70
M105
M190 S70
M104 S240
M105
M109 S240
M82 ;absolute extrusion mode
; Ender 3 Custom Start G-code
G92 E0 ; Reset Extruder
G28 ; Home all axes
G1 Z2.0 F3000 ; Move Z Axis up little to prevent scratching of Heat Bed
G1 X0.1 Y20 Z0.3 F5000.0 ; Move to start position
G1 X0.1 Y200.0 Z0.3 F1500.0 E15 ; Draw the first line
G1 X0.4 Y200.0 Z0.3 F5000.0 ; Move to side a little
G1 X0.4 Y20 Z0.3 F1500.0 E30 ; Draw the second line
G92 E0 ; Reset Extruder
G1 Z2.0 F3000 ; Move Z Axis up little to prevent scratching of Heat Bed
G1 X5 Y20 Z0.3 F5000.0 ; Move over to prevent blob squish
G92 E0
G92 E0
G1 F2700 E-5
;LAYER_COUNT:225
;LAYER:0
M107
G0 F6000 X91.003 Y68.982 Z0.2
;TYPE:SKIRT
G1 F2700 E0
G1 F900 X91.574 Y68.238 E0.03119
G1 X92.206 Y67.545 E0.06239
G1 X92.895 Y66.908 E0.0936
G1 X93.635 Y66.333 E0.12477
G1 X94.422 Y65.822 E0.15598
G1 X95.249 Y65.381 E0.18715
G1 X96.111 Y65.011 E0.21835
G1 X96.771 Y64.785 E0.24155
G1 X99.232 Y64.027 E0.3272
G1 X101.622 Y63.218 E0.41112
G1 X103.979 Y62.345 E0.49472
G1 X106.334 Y61.396 E0.57917
G1 X108.625 Y60.397 E0.6623
G1 X110.903 Y59.326 E0.74602
G1 X113.144 Y58.194 E0.82953
G1 X115.384 Y56.982 E0.91423
G1 X116.371 Y56.431 E0.95183
G1 X117.213 Y56.017 E0.98304
G1 X118.087 Y55.677 E1.01423
G1 X118.986 Y55.412 E1.0454
G1 X119.905 Y55.225 E1.07659
G1 X120.837 Y55.116 E1.1078
G1 X121.442 Y55.089 E1.12795
G1 X122.527 Y55.071 E1.16404
G1 X123.643 Y55.072 E1.20116
G1 X124.338 Y55.082 E1.22428
G1 X125.275 Y55.136 E1.25549
G1 X126.203 Y55.269 E1.28667
G1 X127.117 Y55.48 E1.31787
G1 X128.009 Y55.769 E1.34906
G1 X128.874 Y56.133 E1.38027
G1 X129.704 Y56.569 E1.41146
G1 X130.501 Y57.078 E1.44291
G1 X131.216 Y57.58 E1.47197
G1 X132.158 Y58.264 E1.51068
G1 X132.844 Y58.778 E1.5392
G1 X133.759 Y59.546 E1.57893
G1 X134.169 Y59.933 E1.59768
G1 X135.596 Y61.318 E1.66382
G1 X137.414 Y62.986 E1.74588
G1 X139.355 Y64.667 E1.83129
G1 X141.928 Y66.758 E1.94156
G1 X142.63 Y67.38 E1.97275
G1 X143.276 Y68.059 E2.00393
G1 X143.862 Y68.791 E2.03511
G1 X144.384 Y69.571 E2.06633
G1 X144.837 Y70.392 E2.09752
G1 X145.219 Y71.248 E2.12869
G1 X145.526 Y72.134 E2.15988
G1 X145.757 Y73.043 E2.19108
G1 X145.91 Y73.969 E2.22229
G1 X145.985 Y74.956 E2.25522
G1 X146 Y75.619 E2.27727
G1 X145.999 Y159.138 E5.05513
G1 X145.989 Y159.859 E5.07911
G1 X145.936 Y160.795 E5.11029
G1 X145.803 Y161.723 E5.14147
G1 X145.592 Y162.637 E5.17267
G1 X145.304 Y163.53 E5.20388
G1 X144.941 Y164.394 E5.23505
G1 X144.505 Y165.225 E5.26626
G1 X144.001 Y166.015 E5.29743
G1 X143.43 Y166.76 E5.32865
G1 X142.799 Y167.453 E5.35982
G1 X142.11 Y168.09 E5.39103
G1 X141.661 Y168.452 E5.41021
G1 X141.023 Y168.939 E5.43691
G1 X139.029 Y170.506 E5.52126
G1 X137.06 Y172.144 E5.60644
G1 X135.165 Y173.815 E5.69048
G1 X133.402 Y175.454 E5.77054
G1 X132.544 Y176.174 E5.80779
G1 X131.716 Y176.797 E5.84226
G1 X130.734 Y177.51 E5.88262
G1 X130.183 Y177.899 E5.90505
G1 X129.395 Y178.407 E5.93624
G1 X128.566 Y178.846 E5.96744
G1 X127.702 Y179.212 E5.99865
G1 X126.811 Y179.504 E6.02983
G1 X125.898 Y179.719 E6.06103
G1 X124.97 Y179.855 E6.09222
G1 X124.038 Y179.911 E6.12328
G1 X122.953 Y179.929 E6.15937
G1 X121.995 Y179.929 E6.19123
G1 X121.099 Y179.915 E6.22104
G1 X120.163 Y179.86 E6.25222
G1 X119.235 Y179.724 E6.28342
G1 X118.322 Y179.51 E6.31461
G1 X117.43 Y179.219 E6.34581
G1 X116.567 Y178.854 E6.37698
G1 X115.918 Y178.519 E6.40127
G1 X113.429 Y177.127 E6.49612
G1 X111.183 Y175.957 E6.58035
G1 X108.948 Y174.871 E6.663
G1 X106.623 Y173.823 E6.74782
G1 X104.334 Y172.867 E6.83033
G1 X101.919 Y171.937 E6.9164
G1 X99.583 Y171.114 E6.99878
G1 X96.657 Y170.178 E7.10096
G1 X95.776 Y169.855 E7.13217
G1 X94.927 Y169.457 E7.16335
G1 X94.115 Y168.989 E7.19452
G1 X93.345 Y168.453 E7.22573
G1 X92.624 Y167.853 E7.25693
G1 X91.956 Y167.194 E7.28814
G1 X91.347 Y166.481 E7.31932
G1 X90.801 Y165.719 E7.3505
G1 X90.322 Y164.912 E7.38171
G1 X89.914 Y164.068 E7.41289
G1 X89.578 Y163.192 E7.4441
G1 X89.319 Y162.291 E7.47528
G1 X89.137 Y161.371 E7.50647
G1 X89.015 Y160.045 E7.55076
G1 X89 Y159.381 E7.57285
G1 X89.001 Y75.828 E10.35184
G1 X89.011 Y75.138 E10.37479
G1 X89.065 Y74.201 E10.40601
G1 X89.198 Y73.273 E10.43719
G1 X89.41 Y72.359 E10.46839
G1 X89.698 Y71.467 E10.49957
G1 X90.062 Y70.602 E10.53078
G1 X90.498 Y69.772 E10.56197
G1 X91.003 Y68.982 E10.59315
G0 F6000 X91.399 Y69.115
G1 F900 X91.968 Y68.391 E10.62378
G1 X92.598 Y67.719 E10.65441
G1 X93.283 Y67.105 E10.68501
G1 X94.019 Y66.552 E10.71563
G1 X94.801 Y66.065 E10.74627
G1 X95.622 Y65.648 E10.7769
G1 X96.888 Y65.167 E10.82194
G1 X99.373 Y64.401 E10.90843
G1 X101.74 Y63.6 E10.99154
G1 X104.13 Y62.715 E11.07631
G1 X106.477 Y61.769 E11.16047
G1 X108.806 Y60.754 E11.24497
G1 X111.089 Y59.68 E11.32889
G1 X113.321 Y58.553 E11.41205
G1 X115.579 Y57.331 E11.49745
G1 X116.563 Y56.782 E11.53492
G1 X117.389 Y56.377 E11.56552
G1 X118.248 Y56.044 E11.59616
G1 X119.132 Y55.788 E11.62677
G1 X120.035 Y55.609 E11.65739
G1 X120.95 Y55.509 E11.68801
G1 X121.449 Y55.489 E11.70462
G1 X122.527 Y55.471 E11.74048
G1 X123.485 Y55.471 E11.77234
G1 X124.333 Y55.482 E11.80055
G1 X125.252 Y55.535 E11.83116
G1 X126.163 Y55.668 E11.86178
G1 X127.059 Y55.879 E11.8924
G1 X127.933 Y56.168 E11.92302
G1 X128.779 Y56.531 E11.95364
G1 X129.59 Y56.966 E11.98425
G1 X130.271 Y57.406 E12.01121
G1 X131.133 Y58.013 E12.04628
G1 X131.923 Y58.588 E12.07878
G1 X132.604 Y59.098 E12.10707
G1 X133.486 Y59.838 E12.14537
G1 X133.891 Y60.22 E12.16388
G1 X135.312 Y61.599 E12.22974
G1 X137.185 Y63.317 E12.31428
G1 X139.088 Y64.965 E12.398
G1 X141.675 Y67.068 E12.50889
G1 X142.364 Y67.679 E12.53952
G1 X142.997 Y68.348 E12.57015
G1 X143.569 Y69.069 E12.60076
G1 X144.077 Y69.837 E12.63139
G1 X144.517 Y70.646 E12.66202
G1 X144.884 Y71.49 E12.69263
G1 X145.177 Y72.363 E12.72326
G1 X145.393 Y73.258 E12.75388
G1 X145.53 Y74.168 E12.78449
G1 X145.585 Y74.968 E12.81116
G1 X145.6 Y75.619 E12.83282
G1 X145.599 Y159.132 E15.61047
G1 X145.589 Y159.853 E15.63445
G1 X145.536 Y160.772 E15.66507
G1 X145.404 Y161.683 E15.69569
G1 X145.193 Y162.579 E15.7263
G1 X144.905 Y163.454 E15.75694
G1 X144.543 Y164.3 E15.78755
G1 X144.108 Y165.112 E15.81819
G1 X143.605 Y165.883 E15.84881
G1 X143.036 Y166.607 E15.87943
G1 X142.407 Y167.279 E15.91005
G1 X141.419 Y168.134 E15.9535
G1 X140.784 Y168.619 E15.98008
G1 X138.75 Y170.217 E16.06611
G1 X136.806 Y171.835 E16.15024
G1 X134.89 Y173.524 E16.23519
G1 X133.129 Y175.161 E16.31516
G1 X132.302 Y175.855 E16.35106
G1 X131.481 Y176.474 E16.38526
G1 X130.626 Y177.096 E16.42043
G1 X129.952 Y177.572 E16.44787
G1 X129.178 Y178.07 E16.47848
G1 X128.363 Y178.499 E16.50912
G1 X127.514 Y178.855 E16.53974
G1 X126.638 Y179.137 E16.57035
G1 X125.74 Y179.341 E16.60097
G1 X124.828 Y179.467 E16.6316
G1 X124.03 Y179.511 E16.65818
G1 X122.953 Y179.529 E16.694
G1 X121.995 Y179.529 E16.72587
G1 X121.106 Y179.515 E16.75544
G1 X120.187 Y179.46 E16.78606
G1 X119.276 Y179.325 E16.81669
G1 X118.381 Y179.111 E16.8473
G1 X117.507 Y178.821 E16.87793
G1 X116.662 Y178.456 E16.90854
G1 X116.113 Y178.169 E16.92914
G1 X113.629 Y176.781 E17.02379
G1 X111.364 Y175.6 E17.10875
G1 X109.109 Y174.504 E17.19214
G1 X106.806 Y173.466 E17.27616
G1 X104.453 Y172.483 E17.36097
G1 X102.09 Y171.574 E17.44518
G1 X99.701 Y170.732 E17.52943
G1 X96.779 Y169.797 E17.63147
G1 X95.915 Y169.479 E17.66209
G1 X95.082 Y169.087 E17.69271
G1 X94.286 Y168.624 E17.72334
G1 X93.534 Y168.093 E17.75396
G1 X92.83 Y167.5 E17.78457
G1 X92.18 Y166.847 E17.81522
G1 X91.59 Y166.141 E17.84582
G1 X91.063 Y165.386 E17.87644
G1 X90.603 Y164.588 E17.90708
G1 X90.215 Y163.754 E17.93767
G1 X89.9 Y162.888 E17.96832
G1 X89.662 Y161.999 E17.99893
G1 X89.502 Y161.093 E18.02953
G1 X89.415 Y160.032 E18.06494
G1 X89.4 Y159.381 E18.0866
G1 X89.401 Y75.833 E20.86541
G1 X89.411 Y75.143 E20.88837
G1 X89.464 Y74.224 E20.91898
G1 X89.597 Y73.313 E20.9496
G1 X89.809 Y72.417 E20.98023
G1 X90.097 Y71.543 E21.01084
G1 X90.46 Y70.697 E21.04145
G1 X90.895 Y69.886 E21.07206
G1 X91.399 Y69.115 E21.1027
G0 F6000 X91.795 Y69.251
G1 F900 X92.362 Y68.548 E21.13274
G1 X92.989 Y67.898 E21.16278
G1 X93.671 Y67.306 E21.19281
G1 X94.403 Y66.777 E21.22285
G1 X95.178 Y66.314 E21.25288
G1 X95.992 Y65.922 E21.28293
G1 X97.006 Y65.549 E21.31886
G1 X99.503 Y64.779 E21.40577
G1 X101.871 Y63.978 E21.48892
G1 X104.282 Y63.085 E21.57443
G1 X106.625 Y62.141 E21.65845
G1 X108.97 Y61.119 E21.74353
G1 X111.261 Y60.041 E21.82774
G1 X113.528 Y58.896 E21.91221
G1 X115.757 Y57.69 E21.99651
G1 X116.754 Y57.133 E22.03449
G1 X117.565 Y56.736 E22.06452
G1 X118.408 Y56.412 E22.09456
G1 X119.277 Y56.165 E22.12461
G1 X120.164 Y55.994 E22.15465
G1 X121.456 Y55.889 E22.19777
G1 X122.527 Y55.871 E22.23339
G1 X123.485 Y55.871 E22.26526
G1 X124.327 Y55.882 E22.29326
G1 X125.228 Y55.935 E22.32328
G1 X126.122 Y56.068 E22.35334
G1 X127 Y56.278 E22.38337
G1 X127.856 Y56.566 E22.41341
G1 X128.683 Y56.929 E22.44345
G1 X129.475 Y57.363 E22.47349
G1 X130.041 Y57.733 E22.49598
G1 X130.897 Y58.336 E22.5308
G1 X131.687 Y58.911 E22.5633
G1 X132.364 Y59.418 E22.59143
G1 X133.212 Y60.13 E22.62826
G1 X133.612 Y60.507 E22.64654
G1 X135.028 Y61.881 E22.71217
G1 X136.916 Y63.614 E22.7974
G1 X138.842 Y65.281 E22.88213
G1 X141.423 Y67.379 E22.99275
G1 X142.098 Y67.979 E23.02279
G1 X142.717 Y68.636 E23.05281
G1 X143.276 Y69.346 E23.08287
G1 X143.77 Y70.102 E23.11291
G1 X144.194 Y70.899 E23.14293
G1 X144.547 Y71.73 E23.17296
G1 X144.825 Y72.589 E23.20299
G1 X145.026 Y73.47 E23.23305
G1 X145.148 Y74.365 E23.26309
G1 X145.185 Y74.98 E23.28358
G1 X145.2 Y75.619 E23.30484
G1 X145.199 Y159.126 E26.0823
G1 X145.189 Y159.847 E26.10628
G1 X145.137 Y160.749 E26.13633
G1 X145.004 Y161.642 E26.16636
G1 X144.794 Y162.521 E26.19642
G1 X144.507 Y163.377 E26.22644
G1 X144.145 Y164.204 E26.25647
G1 X143.711 Y164.996 E26.28651
G1 X143.209 Y165.747 E26.31655
G1 X142.642 Y166.45 E26.34659
G1 X142.016 Y167.101 E26.37663
G1 X141.176 Y167.816 E26.41332
G1 X140.534 Y168.305 E26.44016
G1 X138.514 Y169.894 E26.52564
G1 X136.549 Y171.529 E26.61066
G1 X134.638 Y173.213 E26.69538
G1 X132.857 Y174.869 E26.77627
G1 X132.061 Y175.536 E26.81081
G1 X131.394 Y176.04 E26.83861
G1 X130.273 Y176.857 E26.88475
G1 X129.722 Y177.246 E26.90718
G1 X128.962 Y177.733 E26.93721
G1 X128.161 Y178.152 E26.96727
G1 X127.327 Y178.498 E26.9973
G1 X126.466 Y178.769 E27.02733
G1 X125.584 Y178.963 E27.05736
G1 X124.688 Y179.078 E27.08741
G1 X124.023 Y179.111 E27.10955
G1 X122.953 Y179.129 E27.14515
G1 X121.823 Y179.128 E27.18273
G1 X121.113 Y179.116 E27.20635
G1 X120.211 Y179.06 E27.23641
G1 X119.318 Y178.926 E27.26644
G1 X118.441 Y178.712 E27.29647
G1 X117.585 Y178.422 E27.32653
G1 X116.759 Y178.058 E27.35655
G1 X116.308 Y177.82 E27.37351
G1 X113.803 Y176.42 E27.46895
G1 X111.545 Y175.243 E27.55365
G1 X109.283 Y174.144 E27.63729
G1 X106.975 Y173.103 E27.7215
G1 X104.603 Y172.112 E27.807
G1 X102.23 Y171.199 E27.89157
G1 X99.85 Y170.361 E27.97549
G1 X96.901 Y169.417 E28.07848
G1 X96.054 Y169.103 E28.10852
G1 X95.237 Y168.717 E28.13858
G1 X94.459 Y168.259 E28.16861
G1 X93.724 Y167.735 E28.19863
G1 X93.038 Y167.147 E28.22868
G1 X92.407 Y166.501 E28.25871
G1 X91.835 Y165.802 E28.28876
G1 X91.327 Y165.055 E28.3188
G1 X90.888 Y164.266 E28.34883
G1 X90.52 Y163.441 E28.37888
G1 X90.227 Y162.587 E28.40891
G1 X90.01 Y161.71 E28.43896
G1 X89.871 Y160.818 E28.46898
G1 X89.815 Y160.02 E28.49559
G1 X89.8 Y159.381 E28.51685
G1 X89.801 Y75.839 E31.29547
G1 X89.811 Y75.149 E31.31842
G1 X89.864 Y74.248 E31.34844
G1 X89.997 Y73.354 E31.3785
G1 X90.208 Y72.476 E31.40853
G1 X90.496 Y71.62 E31.43857
G1 X90.858 Y70.793 E31.4686
G1 X91.292 Y70.001 E31.49864
G1 X91.795 Y69.251 E31.52867
G1 F2700 E26.52867
G0 F6000 X122.818 Y69.919
G1 F2700 E31.52867
G1 F900 X122.955 Y69.871 E31.5335
G1 X123.02 Y69.919 E31.53619
G1 X123.02 Y70.059 E31.54084
G1 X122.883 Y70.107 E31.54567
G1 X122.818 Y70.059 E31.54836
G1 X122.818 Y69.919 E31.55302
G0 F6000 X122.478 Y69.671
G1 F900 X122.753 Y69.471 E31.56433
G1 X123.085 Y69.471 E31.57537
G1 X123.36 Y69.671 E31.58668
G1 X123.464 Y69.989 E31.59781
G1 X123.36 Y70.307 E31.60893
G1 X123.085 Y70.507 E31.62024
G1 X122.753 Y70.507 E31.63129
G1 X122.478 Y70.307 E31.6426
G1 X122.374 Y69.989 E31.65372
G1 X122.478 Y69.671 E31.66485
G0 F6000 X122.138 Y69.424
G1 F900 X122.622 Y69.071 E31.68478
G1 X123.216 Y69.071 E31.70453
G1 X123.7 Y69.424 E31.72446
G1 X123.884 Y69.989 E31.74422
G1 X123.7 Y70.554 E31.76398
G1 X123.216 Y70.907 E31.78391
G1 X122.622 Y70.907 E31.80366
G1 X122.138 Y70.554 E31.82359
G1 X121.954 Y69.989 E31.84335
G1 X122.138 Y69.424 E31.86312
G0 F6000 X121.797 Y69.177
G1 F900 X122.492 Y68.671 E31.89171
G1 X123.346 Y68.671 E31.92011
G1 X124.041 Y69.177 E31.94871
G1 X124.305 Y69.989 E31.97711
G1 X124.041 Y70.801 E32.0055
G1 X123.346 Y71.307 E32.0341
G1 X122.492 Y71.307 E32.0625
G1 X121.797 Y70.801 E32.0911
G1 X121.533 Y69.989 E32.11949
G1 X121.797 Y69.177 E32.14789
G0 F6000 X121.458 Y68.929
G1 F900 X122.361 Y68.271 E32.18505
G1 X123.477 Y68.271 E32.22217
G1 X124.38 Y68.929 E32.25933
G1 X124.725 Y69.989 E32.29641
G1 X124.38 Y71.049 E32.33349
G1 X123.477 Y71.707 E32.37065
G1 X122.361 Y71.707 E32.40777
G1 X121.458 Y71.049 E32.44493
G1 X121.113 Y69.989 E32.482
G1 X121.458 Y68.929 E32.51908
G0 F6000 X121.117 Y68.683
G1 F900 X122.232 Y67.871 E32.56496
G1 X123.606 Y67.871 E32.61066
G1 X124.721 Y68.683 E32.65653
G1 X125.146 Y69.989 E32.70221
G1 X124.721 Y71.295 E32.74789
G1 X123.606 Y72.107 E32.79377
G1 X122.232 Y72.107 E32.83947
G1 X121.117 Y71.295 E32.88535
G1 X120.692 Y69.989 E32.93103
G1 X121.117 Y68.683 E32.97671
G0 F6000 X120.776 Y68.436
G1 F900 X122.102 Y67.471 E33.03125
G1 X123.736 Y67.471 E33.0856
G1 X125.062 Y68.436 E33.14015
G1 X125.567 Y69.989 E33.19446
G1 X125.062 Y71.542 E33.24878
G1 X123.736 Y72.507 E33.30332
G1 X122.102 Y72.507 E33.35767
G1 X120.776 Y71.542 E33.41221
G1 X120.271 Y69.989 E33.46653
G1 X120.776 Y68.436 E33.52084
G0 F6000 X120.437 Y68.189
G1 F900 X121.971 Y67.071 E33.58398
G1 X123.867 Y67.071 E33.64704
G1 X125.401 Y68.189 E33.71017
G1 X125.987 Y69.989 E33.77313
G1 X125.401 Y71.789 E33.8361
G1 X123.867 Y72.907 E33.89923
G1 X121.971 Y72.907 E33.96229
G1 X120.437 Y71.789 E34.02542
G1 X119.851 Y69.989 E34.08838
G1 X120.437 Y68.189 E34.15135
G0 F6000 X120.097 Y67.941
G1 F900 X121.841 Y66.671 E34.2231
G1 X123.997 Y66.671 E34.29481
G1 X125.741 Y67.941 E34.36657
G1 X126.407 Y69.989 E34.43819
G1 X125.741 Y72.037 E34.50982
G1 X123.997 Y73.307 E34.58158
G1 X121.841 Y73.307 E34.65329
G1 X120.097 Y72.037 E34.72504
G1 X119.431 Y69.989 E34.79667
G1 X120.097 Y67.941 E34.8683
G0 F6000 X119.756 Y67.695
G1 F900 X121.712 Y66.271 E34.94877
G1 X124.126 Y66.271 E35.02906
G1 X126.082 Y67.695 E35.10953
G1 X126.829 Y69.989 E35.18977
G1 X126.082 Y72.283 E35.27001
G1 X124.126 Y73.707 E35.35049
G1 X121.712 Y73.707 E35.43078
G1 X119.756 Y72.283 E35.51125
G1 X119.009 Y69.989 E35.59149
G1 X119.756 Y67.695 E35.67173
G1 F2700 E30.67173
G0 F6000 X135.653 Y74.636
G0 X135.653 Y160.364
G0 X121.354 Y161.293
G1 F2700 E35.67173
G1 F900 X123.768 Y161.293 E35.75202
G1 X125.724 Y162.717 E35.83249
G1 X126.471 Y165.011 E35.91273
G1 X125.724 Y167.305 E35.99298
G1 X123.768 Y168.729 E36.07345
G1 X121.354 Y168.729 E36.15374
G1 X119.398 Y167.305 E36.23421
G1 X118.651 Y165.011 E36.31445
G1 X119.398 Y162.717 E36.39469
G1 X121.354 Y161.293 E36.47516
G0 F6000 X121.483 Y161.693
G1 F900 X123.639 Y161.693 E36.54687
G1 X125.383 Y162.963 E36.61863
G1 X126.049 Y165.011 E36.69026
G1 X125.383 Y167.059 E36.76188
G1 X123.639 Y168.329 E36.83364
G1 X121.483 Y168.329 E36.90535
G1 X119.739 Y167.059 E36.9771
G1 X119.073 Y165.011 E37.04873
G1 X119.739 Y162.963 E37.12036
G1 X121.483 Y161.693 E37.19212
G0 F6000 X121.613 Y162.093
G1 F900 X123.509 Y162.093 E37.25518
G1 X125.043 Y163.211 E37.31831
G1 X125.629 Y165.011 E37.38127
G1 X125.043 Y166.811 E37.44423
G1 X123.509 Y167.929 E37.50737
G1 X121.613 Y167.929 E37.57043
G1 X120.079 Y166.811 E37.63356
G1 X119.493 Y165.011 E37.69652
G1 X120.079 Y163.211 E37.75948
