;FLAVOR:Marlin
;TIME:4015
;Filament used: 2.56502m
;Layer height: 0.2
;MINX:89
;MINY:65.215
;MINZ:0.2
;MAXX:146
;MAXY:170.069
;MAXZ:6
;Generated with Cura_SteamEngine 5.2.1
M140 S70
M105
M190 S70
M104 S240
M105
M109 S240
M82 ;absolute extrusion mode
; Ender 3 Custom Start G-code
G92 E0 ; Reset Extruder
G28 ; Home all axes
G1 Z2.0 F3000 ; Move Z Axis up little to prevent scratching of Heat Bed
G1 X0.1 Y20 Z0.3 F5000.0 ; Move to start position
G1 X0.1 Y200.0 Z0.3 F1500.0 E15 ; Draw the first line
G1 X0.4 Y200.0 Z0.3 F5000.0 ; Move to side a little
G1 X0.4 Y20 Z0.3 F1500.0 E30 ; Draw the second line
G92 E0 ; Reset Extruder
G1 Z2.0 F3000 ; Move Z Axis up little to prevent scratching of Heat Bed
G1 X5 Y20 Z0.3 F5000.0 ; Move over to prevent blob squish
G92 E0
G92 E0
G1 F2700 E-5
;LAYER_COUNT:30
;LAYER:0
M107
G0 F6000 X101.896 Y73.41 Z0.2
;TYPE:SKIRT
G1 F2700 E0
G1 F900 X102.266 Y72.937 E0.01997
G1 X102.752 Y72.35 E0.04532
G1 X103.919 Y70.985 E0.10505
G1 X104.21 Y70.658 E0.11961
G1 X104.883 Y69.935 E0.15246
G1 X105.356 Y69.447 E0.17507
G1 X106.037 Y68.802 E0.20626
G1 X106.771 Y68.217 E0.23748
G1 X107.551 Y67.697 E0.26866
G1 X108.373 Y67.246 E0.29985
G1 X109.23 Y66.866 E0.33103
G1 X110.063 Y66.576 E0.36036
G1 X111.659 Y66.092 E0.41583
G1 X112.729 Y65.826 E0.4525
G1 X114.145 Y65.548 E0.5005
G1 X114.941 Y65.401 E0.52742
G1 X115.87 Y65.27 E0.55863
G1 X116.754 Y65.22 E0.58808
G1 X117.419 Y65.215 E0.6102
G1 X117.782 Y65.221 E0.62227
G1 X118.996 Y65.308 E0.66275
G1 X120.558 Y65.492 E0.71506
G1 X121.481 Y65.613 E0.74602
G1 X122.405 Y65.775 E0.77723
G1 X123.311 Y66.014 E0.80839
G1 X124.535 Y66.475 E0.85189
G1 X127.736 Y67.904 E0.96849
G1 X128.575 Y68.323 E0.99968
G1 X129.376 Y68.811 E1.03087
G1 X130.132 Y69.366 E1.06207
G1 X130.838 Y69.984 E1.09327
G1 X131.489 Y70.659 E1.12446
G1 X132.08 Y71.387 E1.15565
G1 X132.792 Y72.473 E1.19884
G1 X133.155 Y73.107 E1.22314
G1 X133.903 Y74.451 E1.2743
G1 X135.2 Y76.634 E1.35876
G1 X136.534 Y78.743 E1.44176
G1 X137.964 Y80.867 E1.52692
G1 X139.403 Y82.879 E1.60919
G1 X140.931 Y84.893 E1.69328
G1 X142.546 Y86.901 E1.77898
G1 X143.412 Y87.932 E1.82377
G1 X143.985 Y88.675 E1.85497
G1 X144.491 Y89.464 E1.88615
G1 X144.929 Y90.293 E1.91733
G1 X145.294 Y91.157 E1.94853
G1 X145.585 Y92.049 E1.97974
G1 X145.798 Y92.962 E2.01092
G1 X145.933 Y93.89 E2.04211
G1 X145.985 Y94.67 E2.06811
G1 X146 Y95.333 E2.09017
G1 X145.999 Y139.423 E3.5566
G1 X145.989 Y140.145 E3.58062
G1 X145.936 Y141.082 E3.61184
G1 X145.803 Y142.01 E3.64302
G1 X145.592 Y142.924 E3.67422
G1 X145.304 Y143.816 E3.70539
G1 X144.941 Y144.681 E3.73659
G1 X144.505 Y145.512 E3.7678
G1 X144.001 Y146.302 E3.79897
G1 X143.45 Y147.023 E3.82915
G1 X143.207 Y147.315 E3.84179
G1 X141.515 Y149.412 E3.93141
G1 X140.001 Y151.402 E4.01457
G1 X138.553 Y153.421 E4.09721
G1 X137.11 Y155.555 E4.18289
G1 X135.791 Y157.632 E4.26472
G1 X134.448 Y159.888 E4.35205
G1 X133.839 Y160.948 E4.39271
G1 X133.338 Y161.741 E4.42391
G1 X132.771 Y162.488 E4.4551
G1 X132.142 Y163.184 E4.4863
G1 X131.654 Y163.65 E4.50874
G1 X129.434 Y165.663 E4.60842
G1 X128.545 Y166.392 E4.64665
G1 X127.904 Y166.855 E4.67295
G1 X126.986 Y167.481 E4.70991
G1 X126.19 Y167.976 E4.74109
G1 X125.354 Y168.401 E4.77228
G1 X124.485 Y168.754 E4.80348
G1 X123.241 Y169.116 E4.84657
G1 X120.305 Y169.779 E4.94668
G1 X119.384 Y169.954 E4.97786
G1 X118.451 Y170.051 E5.00906
G1 X117.59 Y170.069 E5.0377
G1 X116.973 Y170.058 E5.05823
G1 X116.037 Y170.002 E5.08941
G1 X115.169 Y169.877 E5.11858
G1 X113.254 Y169.542 E5.18324
G1 X112.453 Y169.394 E5.21033
G1 X111.539 Y169.183 E5.24153
G1 X110.646 Y168.896 E5.27273
G1 X109.781 Y168.533 E5.30393
G1 X108.95 Y168.098 E5.33513
G1 X108.16 Y167.594 E5.3663
G1 X107.415 Y167.024 E5.3975
G1 X106.872 Y166.539 E5.42171
G1 X105.214 Y164.957 E5.49793
G1 X103.769 Y163.643 E5.56289
G1 X102.739 Y162.724 E5.6088
G1 X102.066 Y162.07 E5.64002
G1 X101.452 Y161.362 E5.67119
G1 X100.9 Y160.603 E5.7024
G1 X100.577 Y160.087 E5.72265
G1 X99.906 Y158.946 E5.76667
G1 X98.563 Y156.729 E5.85289
G1 X97.211 Y154.638 E5.9357
G1 X95.77 Y152.538 E6.02041
G1 X94.294 Y150.515 E6.1037
G1 X92.297 Y147.952 E6.21177
G1 X91.451 Y146.904 E6.25657
G1 X90.894 Y146.15 E6.28775
G1 X90.402 Y145.351 E6.31895
G1 X89.981 Y144.513 E6.35015
G1 X89.633 Y143.642 E6.38134
G1 X89.36 Y142.745 E6.41253
G1 X89.164 Y141.828 E6.44372
G1 X89.047 Y140.897 E6.47493
G1 X89.015 Y140.33 E6.49381
G1 X89 Y139.667 E6.51587
G1 X89.001 Y95.543 E7.98344
G1 X89.011 Y94.849 E8.00653
G1 X89.065 Y93.912 E8.03774
G1 X89.198 Y92.984 E8.06892
G1 X89.409 Y92.07 E8.10012
G1 X89.698 Y91.178 E8.13131
G1 X90.062 Y90.313 E8.16252
G1 X90.498 Y89.483 E8.19371
G1 X91.003 Y88.693 E8.22489
G1 X91.54 Y87.988 E8.25437
G1 X92.239 Y87.146 E8.29076
G1 X92.778 Y86.516 E8.31834
G1 X94.368 Y84.545 E8.40257
G1 X95.872 Y82.569 E8.48516
G1 X97.356 Y80.499 E8.56987
G1 X98.746 Y78.441 E8.65247
G1 X100.105 Y76.298 E8.73687
G1 X100.985 Y74.819 E8.79412
G1 X101.372 Y74.188 E8.81874
G1 X101.896 Y73.41 E8.84993
G0 F6000 X102.228 Y73.634
G1 F900 X102.574 Y73.191 E8.86863
G1 X102.938 Y72.75 E8.88765
G1 X104.223 Y71.245 E8.95347
G1 X104.503 Y70.93 E8.96749
G1 X105.005 Y70.388 E8.99206
G1 X105.644 Y69.726 E9.02266
G1 X106.312 Y69.093 E9.05327
G1 X107.034 Y68.521 E9.0839
G1 X107.802 Y68.013 E9.11453
G1 X108.611 Y67.574 E9.14514
G1 X109.456 Y67.207 E9.17579
G1 X110.179 Y66.959 E9.20121
G1 X111.775 Y66.475 E9.25668
G1 X112.806 Y66.218 E9.29202
G1 X114.218 Y65.941 E9.33988
G1 X115.014 Y65.794 E9.3668
G1 X115.926 Y65.667 E9.39743
G1 X116.761 Y65.619 E9.42524
G1 X117.412 Y65.614 E9.4469
G1 X117.775 Y65.62 E9.45897
G1 X118.945 Y65.705 E9.49799
G1 X120.506 Y65.889 E9.55027
G1 X121.429 Y66.01 E9.58123
G1 X122.336 Y66.169 E9.61186
G1 X123.225 Y66.406 E9.64246
G1 X124.372 Y66.841 E9.68326
G1 X127.573 Y68.27 E9.79985
G1 X128.397 Y68.681 E9.83048
G1 X129.181 Y69.163 E9.86109
G1 X129.921 Y69.71 E9.89169
G1 X130.611 Y70.32 E9.92233
G1 X131.245 Y70.987 E9.95293
G1 X131.819 Y71.707 E9.98356
G1 X132.445 Y72.672 E10.02182
G1 X132.806 Y73.302 E10.04597
G1 X133.568 Y74.671 E10.09808
G1 X134.851 Y76.831 E10.18164
G1 X136.208 Y78.975 E10.26603
G1 X137.612 Y81.06 E10.34964
G1 X139.104 Y83.147 E10.43496
G1 X140.616 Y85.14 E10.51817
G1 X142.213 Y87.126 E10.60293
G1 X143.106 Y88.189 E10.64911
G1 X143.667 Y88.919 E10.67973
G1 X144.163 Y89.695 E10.71036
G1 X144.589 Y90.511 E10.74098
G1 X144.943 Y91.361 E10.7716
G1 X145.222 Y92.238 E10.80221
G1 X145.424 Y93.136 E10.83282
G1 X145.547 Y94.049 E10.86346
G1 X145.585 Y94.682 E10.88456
G1 X145.6 Y95.333 E10.90621
G1 X145.599 Y139.418 E12.37249
G1 X145.589 Y140.14 E12.3965
G1 X145.536 Y141.059 E12.42712
G1 X145.404 Y141.97 E12.45774
G1 X145.193 Y142.866 E12.48835
G1 X144.905 Y143.741 E12.51899
G1 X144.543 Y144.587 E12.5496
G1 X144.108 Y145.399 E12.58024
G1 X143.605 Y146.169 E12.61083
G1 X143.143 Y146.767 E12.63596
G1 X142.826 Y147.148 E12.65244
G1 X141.231 Y149.125 E12.73693
G1 X139.673 Y151.172 E12.82249
G1 X138.212 Y153.21 E12.90589
G1 X136.8 Y155.298 E12.98973
G1 X135.428 Y157.46 E13.0749
G1 X134.116 Y159.662 E13.16015
G1 X133.492 Y160.749 E13.20184
G1 X132.999 Y161.527 E13.23247
G1 X132.441 Y162.259 E13.26308
G1 X131.821 Y162.939 E13.29369
G1 X131.387 Y163.353 E13.31364
G1 X130.436 Y164.208 E13.35618
G1 X129.164 Y165.368 E13.41343
G1 X128.308 Y166.07 E13.45025
G1 X127.679 Y166.525 E13.47607
G1 X126.761 Y167.151 E13.51303
G1 X125.979 Y167.636 E13.54364
G1 X125.157 Y168.051 E13.57426
G1 X124.302 Y168.394 E13.6049
G1 X123.152 Y168.726 E13.64471
G1 X120.214 Y169.389 E13.74489
G1 X119.309 Y169.561 E13.77553
G1 X118.393 Y169.654 E13.80615
G1 X117.597 Y169.669 E13.83263
G1 X116.98 Y169.658 E13.85316
G1 X116.061 Y169.602 E13.88378
G1 X115.242 Y169.483 E13.9113
G1 X113.177 Y169.122 E13.98103
G1 X112.526 Y169.001 E14.00305
G1 X111.629 Y168.793 E14.03368
G1 X110.753 Y168.509 E14.06431
G1 X109.906 Y168.149 E14.09492
G1 X109.092 Y167.718 E14.12555
G1 X108.32 Y167.217 E14.15616
G1 X107.593 Y166.652 E14.18678
G1 X107.148 Y166.25 E14.20673
G1 X105.498 Y164.677 E14.28255
G1 X103.991 Y163.305 E14.35034
G1 X103.005 Y162.425 E14.39429
G1 X102.345 Y161.783 E14.42492
G1 X101.744 Y161.086 E14.45553
G1 X101.205 Y160.34 E14.48614
G1 X100.922 Y159.885 E14.50396
G1 X100.251 Y158.742 E14.54804
G1 X98.898 Y156.51 E14.63485
G1 X97.534 Y154.399 E14.71845
G1 X96.091 Y152.298 E14.80322
G1 X94.636 Y150.303 E14.88535
G1 X92.611 Y147.705 E14.99491
G1 X91.762 Y146.653 E15.03987
G1 X91.216 Y145.912 E15.07048
G1 X90.735 Y145.126 E15.10113
G1 X90.325 Y144.302 E15.13174
G1 X89.988 Y143.446 E15.16234
G1 X89.726 Y142.563 E15.19297
G1 X89.542 Y141.661 E15.22359
G1 X89.415 Y140.318 E15.26846
G1 X89.4 Y139.667 E15.29012
G1 X89.401 Y95.548 E16.75752
G1 X89.411 Y94.854 E16.78061
G1 X89.464 Y93.935 E16.81122
G1 X89.597 Y93.024 E16.84185
G1 X89.808 Y92.128 E16.87246
G1 X90.097 Y91.254 E16.90308
G1 X90.46 Y90.408 E16.9337
G1 X90.895 Y89.596 E16.96434
G1 X91.399 Y88.826 E16.99495
G1 X91.848 Y88.244 E17.01939
G1 X92.543 Y87.406 E17.0556
G1 X93.109 Y86.744 E17.08457
G1 X94.652 Y84.832 E17.16629
G1 X96.199 Y82.799 E17.25126
G1 X97.679 Y80.734 E17.33576
G1 X99.088 Y78.649 E17.41946
G1 X100.444 Y76.511 E17.50366
G1 X101.326 Y75.028 E17.56105
G1 X101.713 Y74.397 E17.58567
G1 X102.228 Y73.634 E17.61629
G0 F6000 X102.56 Y73.858
G1 F900 X102.883 Y73.446 E17.6337
G1 X103.36 Y72.87 E17.65858
G1 X104.527 Y71.505 E17.71831
G1 X104.797 Y71.202 E17.73181
G1 X105.458 Y70.492 E17.76407
G1 X105.931 Y70.004 E17.78667
G1 X106.587 Y69.384 E17.8167
G1 X107.296 Y68.824 E17.84675
G1 X108.052 Y68.33 E17.87678
G1 X108.848 Y67.904 E17.90681
G1 X109.679 Y67.55 E17.93685
G1 X110.295 Y67.342 E17.95848
G1 X111.891 Y66.858 E18.01395
G1 X112.883 Y66.611 E18.04795
G1 X114.291 Y66.335 E18.09567
G1 X115.087 Y66.188 E18.12259
G1 X115.981 Y66.063 E18.15262
G1 X116.768 Y66.019 E18.17883
G1 X117.406 Y66.014 E18.20005
G1 X117.769 Y66.02 E18.21213
G1 X118.895 Y66.101 E18.24968
G1 X120.271 Y66.263 E18.29576
G1 X121.377 Y66.407 E18.33286
G1 X122.266 Y66.563 E18.36288
G1 X123.138 Y66.798 E18.39291
G1 X124.209 Y67.206 E18.43103
G1 X127.41 Y68.635 E18.54763
G1 X128.218 Y69.039 E18.57767
G1 X128.986 Y69.513 E18.60769
G1 X129.71 Y70.054 E18.63775
G1 X130.383 Y70.656 E18.66778
G1 X131 Y71.315 E18.69781
G1 X131.556 Y72.027 E18.72785
G1 X132.098 Y72.871 E18.76122
G1 X132.456 Y73.496 E18.78517
G1 X133.217 Y74.864 E18.83724
G1 X134.512 Y77.043 E18.92154
G1 X135.871 Y79.19 E19.00606
G1 X137.282 Y81.286 E19.0901
G1 X138.764 Y83.359 E19.17485
G1 X140.302 Y85.386 E19.25948
G1 X141.921 Y87.4 E19.34543
G1 X142.8 Y88.446 E19.39087
G1 X143.35 Y89.163 E19.42092
G1 X143.834 Y89.925 E19.45095
G1 X144.249 Y90.727 E19.48098
G1 X144.591 Y91.563 E19.51103
G1 X144.858 Y92.426 E19.54107
G1 X145.048 Y93.309 E19.57111
G1 X145.158 Y94.205 E19.60114
G1 X145.185 Y94.694 E19.61743
G1 X145.2 Y95.333 E19.63868
G1 X145.199 Y139.412 E21.10476
G1 X145.189 Y140.134 E21.12877
G1 X145.137 Y141.036 E21.15882
G1 X145.005 Y141.929 E21.18885
G1 X144.794 Y142.807 E21.21888
G1 X144.507 Y143.664 E21.24894
G1 X144.145 Y144.491 E21.27897
G1 X143.711 Y145.283 E21.30901
G1 X143.209 Y146.034 E21.33905
G1 X142.835 Y146.512 E21.35924
G1 X142.526 Y146.884 E21.37532
G1 X140.918 Y148.877 E21.46049
G1 X139.346 Y150.942 E21.54681
G1 X137.889 Y152.975 E21.63
G1 X136.448 Y155.106 E21.71556
G1 X135.099 Y157.231 E21.79928
G1 X133.769 Y159.464 E21.88573
G1 X133.145 Y160.55 E21.92739
G1 X132.661 Y161.312 E21.95741
G1 X132.112 Y162.029 E21.98745
G1 X131.501 Y162.694 E22.01748
G1 X131.119 Y163.055 E22.03496
G1 X128.895 Y165.072 E22.13482
G1 X128.071 Y165.748 E22.17027
G1 X127.454 Y166.194 E22.19559
G1 X126.536 Y166.82 E22.23255
G1 X125.768 Y167.295 E22.26258
G1 X124.961 Y167.701 E22.29263
G1 X124.121 Y168.033 E22.32267
G1 X123.063 Y168.336 E22.35928
G1 X120.122 Y169 E22.45956
G1 X119.235 Y169.168 E22.48958
G1 X118.336 Y169.256 E22.51963
G1 X117.604 Y169.269 E22.54398
G1 X116.987 Y169.258 E22.5645
G1 X116.086 Y169.202 E22.59453
G1 X115.314 Y169.09 E22.62047
G1 X113.389 Y168.753 E22.68547
G1 X112.599 Y168.607 E22.71219
G1 X111.719 Y168.403 E22.74224
G1 X110.861 Y168.122 E22.77227
G1 X110.031 Y167.766 E22.8023
G1 X109.236 Y167.338 E22.83233
G1 X108.482 Y166.841 E22.86237
G1 X107.774 Y166.28 E22.89241
G1 X107.424 Y165.961 E22.90817
G1 X105.739 Y164.354 E22.98561
G1 X104.336 Y163.077 E23.04871
G1 X103.271 Y162.127 E23.09618
G1 X102.625 Y161.496 E23.12621
G1 X102.036 Y160.811 E23.15626
G1 X101.511 Y160.077 E23.18627
G1 X101.267 Y159.682 E23.20172
G1 X100.63 Y158.597 E23.24356
G1 X99.248 Y156.317 E23.33224
G1 X97.85 Y154.153 E23.41793
G1 X96.428 Y152.082 E23.50148
G1 X94.936 Y150.037 E23.58568
G1 X92.904 Y147.429 E23.69564
G1 X92.074 Y146.401 E23.73959
G1 X91.538 Y145.674 E23.76963
G1 X91.069 Y144.903 E23.79964
G1 X90.67 Y144.093 E23.82968
G1 X90.344 Y143.25 E23.85974
G1 X90.094 Y142.383 E23.88975
G1 X89.921 Y141.496 E23.91981
G1 X89.815 Y140.306 E23.95954
G1 X89.8 Y139.667 E23.9808
G1 X89.801 Y95.554 E25.44801
G1 X89.811 Y94.86 E25.47109
G1 X89.864 Y93.958 E25.50114
G1 X89.997 Y93.065 E25.53117
G1 X90.208 Y92.187 E25.56121
G1 X90.495 Y91.331 E25.59123
G1 X90.858 Y90.504 E25.62127
G1 X91.292 Y89.712 E25.65131
G1 X91.795 Y88.962 E25.68135
G1 X92.156 Y88.499 E25.70087
G1 X92.746 Y87.787 E25.73163
G1 X93.392 Y87.03 E25.76473
G1 X94.965 Y85.08 E25.84806
G1 X96.527 Y83.028 E25.93383
G1 X98.02 Y80.945 E26.01907
G1 X99.408 Y78.89 E26.10155
G1 X100.772 Y76.739 E26.18626
G1 X101.594 Y75.357 E26.23975
G1 X102.054 Y74.606 E26.26904
G1 X102.56 Y73.858 E26.29907
G1 F2700 E21.29907
G0 F6000 X113.807 Y79.13
G1 F2700 E26.29907
G1 F900 X114.005 Y78.919 E26.3087
G1 X114.52 Y78.885 E26.32586
G1 X114.521 Y78.986 E26.32922
G1 X114.362 Y79.057 E26.33501
G1 X114.065 Y79.276 E26.34729
G1 X113.807 Y79.13 E26.35715
G0 F6000 X113.713 Y79.52
G1 F900 X113.403 Y79.396 E26.36825
G1 X113.296 Y79.381 E26.37185
G1 X113.416 Y78.963 E26.38631
G1 X113.837 Y78.513 E26.40681
G1 X114.059 Y78.52 E26.41419
G1 X114.392 Y78.49 E26.42531
G1 X114.708 Y78.382 E26.43642
G1 X115.027 Y78.181 E26.44896
G1 X114.922 Y78.586 E26.46288
G1 X114.916 Y78.92 E26.47399
G1 X114.992 Y79.248 E26.48519
G1 X114.758 Y79.309 E26.49323
G1 X114.464 Y79.467 E26.50433
G1 X114.077 Y79.82 E26.52175
G1 X113.985 Y79.714 E26.52642
G1 X113.713 Y79.52 E26.53753
G0 F6000 X113.443 Y79.832
G1 F900 X113.171 Y79.757 E26.54692
G1 X112.889 Y79.761 E26.5563
G1 X112.619 Y79.843 E26.56568
G1 X112.389 Y79.989 E26.57474
G1 X112.189 Y80.187 E26.5841
G1 X112.051 Y80.433 E26.59349
G1 X111.988 Y80.708 E26.60287
G1 X112.005 Y80.99 E26.61227
G1 X112.099 Y81.256 E26.62165
G1 X112.264 Y81.485 E26.63104
G1 X112.486 Y81.659 E26.64042
G1 X112.748 Y81.764 E26.64981
G1 X113.034 Y81.792 E26.65936
G1 X113.028 Y81.975 E26.66545
G1 X112.855 Y82.082 E26.67222
G1 X112.638 Y82.263 E26.68162
G1 X112.48 Y82.496 E26.69098
G1 X112.382 Y82.867 E26.70374
G1 X112.352 Y83.313 E26.71861
G1 X112.108 Y84.052 E26.7445
G1 X111.407 Y84.353 E26.76987
G1 X111.166 Y84.5 E26.77926
G1 X110.976 Y84.708 E26.78863
G1 X110.851 Y84.961 E26.79802
G1 X110.803 Y85.239 E26.8074
G1 X110.866 Y85.625 E26.82041
G1 X111.017 Y86.025 E26.83463
G1 X111.153 Y86.272 E26.84401
G1 X111.353 Y86.472 E26.85341
G1 X111.524 Y86.564 E26.85987
G1 X111.273 Y86.549 E26.86823
G1 X110.998 Y86.611 E26.87761
G1 X110.697 Y86.774 E26.889
G1 X110.56 Y86.784 E26.89356
G1 X110.723 Y86.487 E26.90483
G1 X110.822 Y86.223 E26.91421
G1 X110.844 Y85.942 E26.92358
G1 X110.766 Y85.613 E26.93483
G1 X110.571 Y85.157 E26.95133
G1 X110.653 Y84.378 E26.97738
G1 X110.864 Y83.229 E27.01623
G1 X111.218 Y81.931 E27.06098
G1 X111.253 Y81.651 E27.07037
G1 X111.222 Y81.467 E27.07657
G1 X111.568 Y80.564 E27.10874
G1 X112.542 Y79.829 E27.14932
G1 X112.741 Y79.629 E27.1587
G1 X112.901 Y79.306 E27.17069
G1 X113.057 Y78.76 E27.18958
G1 X113.667 Y78.109 E27.21925
G1 X114.071 Y78.121 E27.2327
G1 X114.351 Y78.089 E27.24207
G1 X114.668 Y77.944 E27.25366
G1 X115.191 Y77.584 E27.27478
G1 X115.838 Y77.529 E27.29638
G1 X116.028 Y77.63 E27.30353
G1 X116.304 Y77.688 E27.31291
G1 X116.585 Y77.666 E27.32229
G1 X116.849 Y77.567 E27.33167
G1 X117.195 Y77.3 E27.3462
G1 X117.239 Y77.729 E27.36055
