;FLAVOR:Marlin
;TIME:4659
;Filament used: 2.44725m
;Layer height: 0.2
;MINX:86.078
;MINY:82.211
;MINZ:0.2
;MAXX:154.626
;MAXY:152.788
;MAXZ:10
;Generated with Cura_SteamEngine 5.2.1
M140 S70
M105
M190 S70
M104 S240
M105
M109 S240
M82 ;absolute extrusion mode
; Ender 3 Custom Start G-code
G92 E0 ; Reset Extruder
G28 ; Home all axes
G1 Z2.0 F3000 ; Move Z Axis up little to prevent scratching of Heat Bed
G1 X0.1 Y20 Z0.3 F5000.0 ; Move to start position
G1 X0.1 Y200.0 Z0.3 F1500.0 E15 ; Draw the first line
G1 X0.4 Y200.0 Z0.3 F5000.0 ; Move to side a little
G1 X0.4 Y20 Z0.3 F1500.0 E30 ; Draw the second line
G92 E0 ; Reset Extruder
G1 Z2.0 F3000 ; Move Z Axis up little to prevent scratching of Heat Bed
G1 X5 Y20 Z0.3 F5000.0 ; Move over to prevent blob squish
G92 E0
G92 E0
G1 F2700 E-5
;LAYER_COUNT:50
;LAYER:0
M107
G0 F6000 X92.158 Y95.192 Z0.2
;TYPE:SKIRT
G1 F2700 E0
G1 F900 X92.881 Y94.596 E0.03116
G1 X93.653 Y94.063 E0.06237
G1 X94.468 Y93.598 E0.09358
G1 X95.319 Y93.204 E0.12477
G1 X95.767 Y93.03 E0.14075
G1 X99.031 Y91.849 E0.2562
G1 X101.369 Y90.925 E0.33981
G1 X104.287 Y89.663 E0.44556
G1 X104.977 Y89.351 E0.47074
G1 X106.263 Y88.864 E0.51648
G1 X108.695 Y88.114 E0.60113
G1 X111.081 Y87.306 E0.68491
G1 X113.441 Y86.431 E0.76863
G1 X115.772 Y85.492 E0.85221
G1 X118.107 Y84.473 E0.93695
G1 X119.587 Y83.785 E0.99123
G1 X120.633 Y83.287 E1.02976
G1 X121.497 Y82.92 E1.06098
G1 X122.388 Y82.629 E1.09216
G1 X123.301 Y82.414 E1.12336
G1 X124.229 Y82.278 E1.15455
G1 X125.177 Y82.221 E1.18614
G1 X125.772 Y82.211 E1.20593
G1 X126.502 Y82.217 E1.23021
G1 X127.438 Y82.272 E1.2614
G1 X128.366 Y82.407 E1.29259
G1 X129.279 Y82.621 E1.32378
G1 X130.171 Y82.911 E1.35497
G1 X131.035 Y83.277 E1.38618
G1 X131.813 Y83.685 E1.4154
G1 X132.556 Y84.114 E1.44394
G1 X133.628 Y84.753 E1.48545
G1 X135.842 Y85.99 E1.5698
G1 X138.192 Y87.216 E1.65796
G1 X138.85 Y87.547 E1.68245
G1 X139.67 Y88.003 E1.71366
G1 X140.447 Y88.528 E1.74485
G1 X141.177 Y89.117 E1.77605
G1 X141.854 Y89.766 E1.80724
G1 X142.473 Y90.47 E1.83842
G1 X143.03 Y91.225 E1.86963
G1 X143.521 Y92.024 E1.90082
G1 X143.942 Y92.862 E1.93201
G1 X144.254 Y93.632 E1.95964
G1 X145.436 Y96.899 E2.0752
G1 X146.36 Y99.237 E2.15881
G1 X147.61 Y102.127 E2.26354
G1 X147.934 Y102.844 E2.28971
G1 X148.283 Y103.714 E2.32089
G1 X148.557 Y104.611 E2.35208
G1 X148.718 Y105.329 E2.37655
G1 X149.175 Y107.749 E2.45847
G1 X149.716 Y110.24 E2.54325
G1 X150.305 Y112.634 E2.62525
G1 X150.979 Y115.064 E2.70912
G1 X151.732 Y117.514 E2.79437
G1 X152.533 Y119.878 E2.87739
G1 X153.227 Y121.77 E2.94442
G1 X153.696 Y123.018 E2.98876
G1 X153.922 Y123.675 E3.01187
G1 X154.136 Y124.348 E3.03536
G1 X154.377 Y125.254 E3.06654
G1 X154.539 Y126.178 E3.09774
G1 X154.622 Y127.112 E3.12893
G1 X154.626 Y128.05 E3.16012
G1 X154.549 Y128.985 E3.19133
G1 X154.393 Y129.91 E3.22253
G1 X154.147 Y130.855 E3.25501
G1 X153.88 Y131.71 E3.2848
G1 X153.768 Y132.042 E3.29645
G1 X153.43 Y132.917 E3.32765
G1 X152.855 Y134.054 E3.37003
G1 X152.402 Y134.834 E3.40003
G1 X151.148 Y137.064 E3.48512
G1 X149.789 Y139.655 E3.58243
G1 X149.227 Y140.772 E3.62402
G1 X148.771 Y141.591 E3.6552
G1 X148.246 Y142.368 E3.68639
G1 X147.657 Y143.098 E3.71759
G1 X147.008 Y143.775 E3.74878
G1 X146.303 Y144.394 E3.77998
G1 X145.549 Y144.951 E3.81116
G1 X144.749 Y145.442 E3.84238
G1 X143.911 Y145.862 E3.87356
G1 X143.143 Y146.174 E3.90113
G1 X139.876 Y147.356 E4.01668
G1 X137.538 Y148.28 E4.1003
G1 X134.624 Y149.54 E4.20589
G1 X133.932 Y149.853 E4.23115
G1 X133.062 Y150.202 E4.26233
G1 X132.165 Y150.476 E4.29353
G1 X131.248 Y150.673 E4.32472
G1 X130.317 Y150.79 E4.35593
G1 X129.634 Y150.826 E4.37868
G1 X126.22 Y150.897 E4.49225
G1 X123.755 Y151.02 E4.57434
G1 X121.212 Y151.219 E4.65918
G1 X118.718 Y151.485 E4.7426
G1 X116.267 Y151.816 E4.82486
G1 X112.452 Y152.468 E4.95359
G1 X111.859 Y152.582 E4.97367
G1 X110.931 Y152.72 E5.00488
G1 X109.97 Y152.778 E5.0369
G1 X109.363 Y152.788 E5.05709
G1 X108.638 Y152.781 E5.08121
G1 X107.701 Y152.726 E5.11242
G1 X106.773 Y152.591 E5.14361
G1 X105.86 Y152.377 E5.1748
G1 X104.968 Y152.087 E5.206
G1 X104.105 Y151.721 E5.23718
G1 X103.324 Y151.312 E5.2665
G1 X101.992 Y150.544 E5.31764
G1 X99.768 Y149.306 E5.4023
G1 X97.533 Y148.143 E5.4861
G1 X96.126 Y147.439 E5.53843
G1 X95.307 Y146.981 E5.56964
G1 X94.531 Y146.455 E5.60082
G1 X93.802 Y145.864 E5.63203
G1 X93.127 Y145.214 E5.6632
G1 X92.509 Y144.508 E5.6944
G1 X91.953 Y143.752 E5.72562
G1 X91.464 Y142.952 E5.7568
G1 X91.045 Y142.113 E5.78799
G1 X90.718 Y141.297 E5.81723
G1 X90.317 Y140.165 E5.85717
G1 X89.564 Y138.106 E5.93009
G1 X88.637 Y135.761 E6.01396
G1 X87.387 Y132.871 E6.11869
G1 X87.063 Y132.154 E6.14486
G1 X86.714 Y131.284 E6.17604
G1 X86.44 Y130.387 E6.20723
G1 X86.244 Y129.47 E6.23842
G1 X86.126 Y128.539 E6.26963
G1 X86.093 Y127.957 E6.28902
G1 X86.078 Y127.294 E6.31108
G1 X86.079 Y120.166 E6.54816
G1 X86.09 Y119.46 E6.57164
G1 X86.145 Y118.523 E6.60286
G1 X86.333 Y117.325 E6.64319
G1 X86.539 Y116.364 E6.67588
G1 X86.717 Y115.586 E6.70243
G1 X87.22 Y113.087 E6.78721
G1 X87.645 Y110.612 E6.87073
G1 X88 Y108.13 E6.95413
G1 X88.283 Y105.642 E7.03741
G1 X88.509 Y103.001 E7.12557
G1 X88.538 Y102.592 E7.13921
G1 X88.644 Y101.66 E7.17041
G1 X88.83 Y100.741 E7.20159
G1 X89.093 Y99.841 E7.23278
G1 X89.432 Y98.966 E7.26399
G1 X89.844 Y98.124 E7.29517
G1 X90.326 Y97.319 E7.32638
G1 X90.875 Y96.559 E7.35756
G1 X91.487 Y95.848 E7.38876
G1 X92.158 Y95.192 E7.41997
G0 F6000 X92.539 Y95.389
G1 F900 X93.258 Y94.814 E7.45059
G1 X94.024 Y94.304 E7.4812
G1 X94.832 Y93.862 E7.51183
G1 X95.903 Y93.406 E7.55055
G1 X99.177 Y92.221 E7.66635
G1 X101.509 Y91.299 E7.74976
G1 X104.43 Y90.036 E7.85561
G1 X105.141 Y89.715 E7.88155
G1 X106.381 Y89.246 E7.92565
G1 X108.825 Y88.492 E8.01071
G1 X111.211 Y87.684 E8.0945
G1 X113.581 Y86.806 E8.17856
G1 X115.915 Y85.866 E8.26225
G1 X118.293 Y84.827 E8.34856
G1 X119.759 Y84.146 E8.40233
G1 X120.805 Y83.648 E8.44086
G1 X121.653 Y83.289 E8.47149
G1 X122.529 Y83.005 E8.50211
G1 X123.426 Y82.797 E8.53274
G1 X124.337 Y82.669 E8.56334
G1 X125.184 Y82.62 E8.59156
G1 X125.779 Y82.61 E8.61135
G1 X126.495 Y82.616 E8.63516
G1 X127.414 Y82.672 E8.66579
G1 X128.325 Y82.806 E8.69641
G1 X129.221 Y83.02 E8.72705
G1 X130.094 Y83.31 E8.75765
G1 X130.94 Y83.675 E8.78829
G1 X131.614 Y84.031 E8.81365
G1 X132.216 Y84.378 E8.83676
G1 X133.434 Y85.104 E8.88392
G1 X135.641 Y86.336 E8.96799
G1 X137.954 Y87.543 E9.05476
G1 X138.671 Y87.904 E9.08146
G1 X139.475 Y88.353 E9.11209
G1 X140.236 Y88.87 E9.14269
G1 X140.951 Y89.451 E9.17333
G1 X141.612 Y90.092 E9.20396
G1 X142.214 Y90.787 E9.23454
G1 X142.755 Y91.533 E9.26519
G1 X143.228 Y92.322 E9.29578
G1 X143.632 Y93.15 E9.32643
G1 X143.878 Y93.768 E9.34855
G1 X145.064 Y97.046 E9.46449
G1 X145.986 Y99.377 E9.54787
G1 X147.269 Y102.345 E9.65541
G1 X147.569 Y103.009 E9.67965
G1 X147.911 Y103.863 E9.71024
G1 X148.178 Y104.744 E9.74086
G1 X148.325 Y105.404 E9.76335
G1 X148.782 Y107.823 E9.84523
G1 X149.323 Y110.314 E9.93001
G1 X149.92 Y112.739 E10.01308
G1 X150.603 Y115.206 E10.09822
G1 X151.336 Y117.591 E10.1812
G1 X152.164 Y120.031 E10.2669
G1 X152.826 Y121.838 E10.33091
G1 X153.203 Y122.83 E10.36621
G1 X153.544 Y123.805 E10.40056
G1 X153.754 Y124.467 E10.42366
G1 X153.99 Y125.357 E10.45429
G1 X154.147 Y126.264 E10.4849
G1 X154.225 Y127.181 E10.51551
G1 X154.223 Y128.102 E10.54614
G1 X154.141 Y129.019 E10.57677
G1 X153.98 Y129.925 E10.60737
G1 X153.765 Y130.738 E10.63534
G1 X153.588 Y131.313 E10.65535
G1 X153.389 Y131.914 E10.67641
G1 X153.057 Y132.773 E10.70704
G1 X152.509 Y133.853 E10.74732
G1 X152.081 Y134.59 E10.77566
G1 X150.788 Y136.888 E10.86336
G1 X149.435 Y139.468 E10.96026
G1 X148.87 Y140.592 E11.0021
G1 X148.421 Y141.396 E11.03273
G1 X147.904 Y142.158 E11.06336
G1 X147.323 Y142.872 E11.09397
G1 X146.682 Y143.533 E11.1246
G1 X145.986 Y144.136 E11.15523
G1 X145.241 Y144.676 E11.18583
G1 X144.451 Y145.149 E11.21646
G1 X143.623 Y145.552 E11.24708
G1 X143.007 Y145.798 E11.26915
G1 X139.729 Y146.984 E11.38509
G1 X137.398 Y147.906 E11.46846
G1 X134.458 Y149.177 E11.57499
G1 X133.767 Y149.489 E11.60021
G1 X132.913 Y149.831 E11.63081
G1 X132.032 Y150.097 E11.66142
G1 X131.131 Y150.287 E11.69204
G1 X130.217 Y150.397 E11.72266
G1 X129.626 Y150.426 E11.74234
G1 X126.226 Y150.497 E11.85545
G1 X123.702 Y150.623 E11.9395
G1 X121.174 Y150.82 E12.02384
G1 X118.663 Y151.088 E12.10783
G1 X116.203 Y151.421 E12.1904
G1 X112.456 Y152.061 E12.31683
G1 X111.784 Y152.19 E12.33959
G1 X110.873 Y152.323 E12.37021
G1 X109.964 Y152.378 E12.4005
G1 X109.357 Y152.388 E12.42069
G1 X108.644 Y152.382 E12.4444
G1 X107.725 Y152.326 E12.47503
G1 X106.815 Y152.192 E12.50562
G1 X105.919 Y151.978 E12.53626
G1 X105.045 Y151.688 E12.56689
G1 X104.2 Y151.323 E12.5975
G1 X103.524 Y150.965 E12.62294
G1 X102.259 Y150.235 E12.67152
G1 X99.94 Y148.945 E12.75978
G1 X97.699 Y147.778 E12.84382
G1 X96.306 Y147.082 E12.89561
G1 X95.503 Y146.632 E12.92623
G1 X94.742 Y146.113 E12.95686
G1 X94.029 Y145.531 E12.98748
G1 X93.37 Y144.888 E13.0181
G1 X92.768 Y144.191 E13.04873
G1 X92.229 Y143.445 E13.07934
G1 X91.757 Y142.654 E13.10998
G1 X91.356 Y141.826 E13.14058
G1 X91.095 Y141.164 E13.16425
G1 X90.675 Y139.981 E13.206
G1 X89.947 Y137.988 E13.27657
G1 X89.011 Y135.621 E13.36123
G1 X87.728 Y132.653 E13.46877
G1 X87.428 Y131.989 E13.49301
G1 X87.086 Y131.135 E13.5236
G1 X86.819 Y130.254 E13.55422
G1 X86.63 Y129.353 E13.58484
G1 X86.519 Y128.439 E13.61547
G1 X86.493 Y127.945 E13.63192
G1 X86.478 Y127.294 E13.65358
G1 X86.479 Y120.172 E13.89046
G1 X86.49 Y119.466 E13.91394
G1 X86.545 Y118.547 E13.94456
G1 X86.724 Y117.409 E13.98288
G1 X86.93 Y116.448 E14.01556
G1 X87.107 Y115.676 E14.04191
G1 X87.613 Y113.163 E14.12717
G1 X88.042 Y110.665 E14.21147
G1 X88.394 Y108.2 E14.29429
G1 X88.68 Y105.685 E14.37847
G1 X88.937 Y102.62 E14.48077
G1 X89.042 Y101.706 E14.51137
G1 X89.226 Y100.804 E14.54199
G1 X89.488 Y99.921 E14.57263
G1 X89.826 Y99.064 E14.60327
G1 X90.236 Y98.24 E14.63388
G1 X90.717 Y97.455 E14.6645
G1 X91.263 Y96.714 E14.69511
G1 X91.872 Y96.024 E14.72572
G1 X92.539 Y95.389 E14.75635
G0 F6000 X92.919 Y95.589
G1 F900 X93.634 Y95.037 E14.7864
G1 X94.394 Y94.55 E14.81642
G1 X95.195 Y94.132 E14.84647
G1 X96.039 Y93.783 E14.87685
G1 X99.294 Y92.605 E14.99198
G1 X101.661 Y91.669 E15.07664
G1 X104.626 Y90.387 E15.18408
G1 X105.306 Y90.08 E15.20889
G1 X106.499 Y89.628 E15.25133
G1 X108.956 Y88.87 E15.33685
G1 X111.342 Y88.062 E15.42063
G1 X113.733 Y87.176 E15.50544
G1 X116.076 Y86.232 E15.58946
G1 X118.424 Y85.207 E15.67467
G1 X119.941 Y84.502 E15.73031
G1 X120.977 Y84.009 E15.76847
G1 X121.809 Y83.658 E15.7985
G1 X122.669 Y83.381 E15.82855
G1 X123.55 Y83.181 E15.8586
G1 X124.445 Y83.06 E15.88864
G1 X125.191 Y83.02 E15.91349
G1 X125.786 Y83.01 E15.93328
G1 X126.489 Y83.016 E15.95666
G1 X127.39 Y83.071 E15.98668
G1 X128.283 Y83.206 E16.01672
G1 X129.161 Y83.419 E16.04677
G1 X130.016 Y83.708 E16.07679
G1 X130.843 Y84.072 E16.10684
G1 X131.414 Y84.378 E16.12839
G1 X132.016 Y84.725 E16.1515
G1 X133.213 Y85.438 E16.19784
G1 X135.44 Y86.682 E16.28268
G1 X137.846 Y87.938 E16.37296
G1 X138.491 Y88.262 E16.39696
G1 X139.279 Y88.703 E16.427
G1 X140.025 Y89.211 E16.45702
G1 X140.723 Y89.784 E16.48705
G1 X141.368 Y90.417 E16.51711
G1 X141.954 Y91.104 E16.54714
G1 X142.477 Y91.84 E16.57717
G1 X142.934 Y92.619 E16.60721
G1 X143.319 Y93.436 E16.63725
G1 X143.501 Y93.905 E16.65398
G1 X144.676 Y97.151 E16.7688
G1 X145.616 Y99.529 E16.85385
G1 X146.886 Y102.466 E16.96028
G1 X147.205 Y103.173 E16.98607
G1 X147.54 Y104.012 E17.01612
G1 X147.799 Y104.877 E17.04615
G1 X147.932 Y105.478 E17.06663
G1 X148.392 Y107.91 E17.14895
G1 X148.93 Y110.389 E17.23332
G1 X149.538 Y112.86 E17.31796
G1 X150.215 Y115.302 E17.40224
G1 X150.961 Y117.732 E17.48679
G1 X151.788 Y120.17 E17.57241
G1 X152.452 Y121.98 E17.63654
G1 X152.829 Y122.972 E17.67183
G1 X153.259 Y124.22 E17.71574
G1 X153.373 Y124.586 E17.72849
G1 X153.603 Y125.459 E17.75851
G1 X153.755 Y126.349 E17.78855
G1 X153.827 Y127.249 E17.81857
G1 X153.82 Y128.152 E17.84861
G1 X153.733 Y129.051 E17.87865
G1 X153.567 Y129.939 E17.9087
G1 X153.383 Y130.62 E17.93216
G1 X153.206 Y131.195 E17.95217
G1 X153.01 Y131.786 E17.97288
G1 X152.684 Y132.629 E18.00294
G1 X152.164 Y133.652 E18.04111
G1 X151.699 Y134.452 E18.07189
G1 X150.443 Y136.686 E18.15713
G1 X149.094 Y139.258 E18.25372
G1 X148.513 Y140.413 E18.29673
G1 X148.072 Y141.201 E18.32676
G1 X147.563 Y141.947 E18.3568
G1 X146.99 Y142.645 E18.38683
G1 X146.357 Y143.289 E18.41687
G1 X145.67 Y143.875 E18.4469
G1 X144.934 Y144.398 E18.47693
G1 X144.154 Y144.854 E18.50698
G1 X143.337 Y145.239 E18.53702
G1 X142.87 Y145.421 E18.55369
G1 X139.624 Y146.596 E18.66851
G1 X137.246 Y147.536 E18.75356
G1 X134.285 Y148.816 E18.86085
G1 X133.603 Y149.124 E18.88574
G1 X132.764 Y149.459 E18.91579
G1 X131.899 Y149.718 E18.94582
G1 X131.014 Y149.9 E18.97587
G1 X130.117 Y150.003 E19.0059
G1 X129.618 Y150.026 E19.02251
G1 X126.197 Y150.097 E19.13632
G1 X123.687 Y150.223 E19.21991
G1 X121.137 Y150.422 E19.30498
G1 X118.634 Y150.689 E19.3887
G1 X116.138 Y151.026 E19.47247
G1 X112.371 Y151.67 E19.59958
G1 X111.709 Y151.797 E19.622
G1 X110.815 Y151.927 E19.65205
G1 X109.957 Y151.978 E19.68064
G1 X109.35 Y151.988 E19.70083
G1 X108.651 Y151.982 E19.72408
G1 X107.75 Y151.927 E19.7541
G1 X106.856 Y151.792 E19.78417
G1 X105.979 Y151.579 E19.81419
G1 X105.123 Y151.29 E19.84424
G1 X104.297 Y150.925 E19.87428
G1 X103.724 Y150.619 E19.89588
G1 X102.398 Y149.854 E19.9468
G1 X100.141 Y148.598 E20.03271
G1 X97.909 Y147.436 E20.1164
G1 X96.486 Y146.725 E20.16931
G1 X95.699 Y146.282 E20.19935
G1 X94.954 Y145.772 E20.22938
G1 X94.257 Y145.198 E20.25941
G1 X93.614 Y144.564 E20.28944
G1 X93.029 Y143.876 E20.31948
G1 X92.507 Y143.139 E20.34952
G1 X92.053 Y142.358 E20.37956
G1 X91.669 Y141.541 E20.40959
G1 X91.472 Y141.03 E20.4278
G1 X91.058 Y139.863 E20.46899
G1 X90.319 Y137.841 E20.54059
G1 X89.381 Y135.469 E20.62543
G1 X88.111 Y132.532 E20.73185
G1 X87.792 Y131.825 E20.75765
G1 X87.457 Y130.986 E20.7877
G1 X87.198 Y130.121 E20.81773
G1 X87.016 Y129.237 E20.84775
G1 X86.893 Y127.933 E20.89131
G1 X86.878 Y127.294 E20.91257
G1 X86.879 Y120.178 E21.14925
G1 X86.89 Y119.472 E21.17274
G1 X86.944 Y118.571 E21.20276
G1 X87.116 Y117.493 E21.23907
G1 X87.355 Y116.383 E21.27683
G1 X87.503 Y115.739 E21.29881
G1 X88 Y113.272 E21.38251
G1 X88.439 Y110.718 E21.4687
G1 X88.788 Y108.27 E21.55095
G1 X89.082 Y105.693 E21.63721
G1 X89.336 Y102.649 E21.73881
G1 X89.44 Y101.752 E21.76884
G1 X89.623 Y100.867 E21.7989
G1 X89.883 Y100.003 E21.82891
G1 X90.219 Y99.164 E21.85897
G1 X90.628 Y98.359 E21.889
G1 X91.106 Y97.593 E21.91903
G1 X91.651 Y96.872 E21.94909
G1 X92.257 Y96.203 E21.97912
G1 X92.919 Y95.589 E22.00915
G1 F2700 E17.00915
G0 F6000 X125.791 Y94.63
G1 F2700 E22.00915
G1 F900 X125.867 Y94.604 E22.01182
G1 X125.903 Y94.63 E22.0133
G1 X125.903 Y94.706 E22.01582
G1 X125.827 Y94.732 E22.0185
G1 X125.791 Y94.706 E22.01997
G1 X125.791 Y94.63 E22.0225
G0 F6000 X125.451 Y94.382
G1 F900 X125.697 Y94.204 E22.0326
G1 X125.997 Y94.204 E22.04258
G1 X126.243 Y94.382 E22.05268
G1 X126.336 Y94.668 E22.06268
G1 X126.243 Y94.954 E22.07268
G1 X125.997 Y95.132 E22.08278
G1 X125.697 Y95.132 E22.09276
G1 X125.451 Y94.954 E22.10286
G1 X125.358 Y94.668 E22.11286
G1 X125.451 Y94.382 E22.12286
G0 F6000 X125.112 Y94.134
G1 F900 X125.567 Y93.804 E22.14156
G1 X126.127 Y93.804 E22.16018
G1 X126.582 Y94.134 E22.17888
G1 X126.756 Y94.668 E22.19756
G1 X126.582 Y95.202 E22.21624
G1 X126.127 Y95.532 E22.23493
G1 X125.567 Y95.532 E22.25356
G1 X125.112 Y95.202 E22.27225
G1 X124.938 Y94.668 E22.29093
G1 X125.112 Y94.134 E22.30961
G0 F6000 X124.771 Y93.888
G1 F900 X125.438 Y93.404 E22.33702
G1 X126.256 Y93.404 E22.36423
G1 X126.923 Y93.888 E22.39164
G1 X127.177 Y94.668 E22.41892
G1 X126.923 Y95.448 E22.44621
G1 X126.256 Y95.932 E22.47362
G1 X125.438 Y95.932 E22.50082
G1 X124.771 Y95.448 E22.52823
G1 X124.517 Y94.668 E22.55552
G1 X124.771 Y93.888 E22.5828
G1 F2700 E17.5828
G0 F6000 X120.266 Y96.715
G0 X120.266 Y101.021
G0 X125.622 Y101.835
G1 F2700 E22.5828
